(.../Documents/EAGLE/ulps/pcb-gcode.ulp)
(Copyright 2005 - 2012 by John Johnson)
(See readme.txt for licensing terms.)
(This file generated from the board:)
(.../minimal-version/programmer shield.brd)
(Current profile is .../pcb-gcode-3.6.2.4/profiles/grbl-NuggetMill.pp  )
(This file generated 3/30/2020 2:01 PM)
(Settings from pcb-machine.h)
(spindle on time = 0.0000)
(  Tool Size)
(0.100000 )
(spindle speed = 18000.0000)
(tool change at 0.000000 0.000000 10.000000 )
(feed rate xy = F200   )
(feed rate z  = F80    )
(Z Axis Settings)
(  High     Up        Down     Drill)
(10.000000 	5.000000 	-0.200000 	-1.650000 )
(Settings from pcb-defaults.h)
(isolate min = 0.0254)
(isolate max = 0.5000)
(isolate step = 0.1000)
(Generated top outlines, bottom outlines, )
(Unit of measure: mm)
(Metric Mode)
G21
(Absolute Coordinates)
G90
G0 Z10.000000 
G0 X0.000000 Y0.000000 
M3
G4 P0
G0 Z5.000000 
G0 X3.072241 Y8.192047 
G1 Z-0.200000 F80    
G1 X2.961141 Y8.358322 F200   
G1 X2.884612 Y8.543075 
G1 X2.845600 Y8.739209 
G1 X2.845600 Y8.939187 
G1 X2.884612 Y9.135322 
G1 X2.961141 Y9.320075 
G1 X3.072241 Y9.486350 
G1 X3.213647 Y9.627756 
G1 X3.379922 Y9.738856 
G1 X3.564675 Y9.815384 
G1 X3.760809 Y9.854397 
G1 X3.960787 Y9.854397 
G1 X4.156922 Y9.815384 
G1 X4.341675 Y9.738856 
G1 X4.507950 Y9.627756 
G1 X4.649356 Y9.486350 
G1 X4.760456 Y9.320075 
G1 X4.836984 Y9.135322 
G1 X4.875997 Y8.939187 
G1 X4.875997 Y8.739209 
G1 X4.836984 Y8.543075 
G1 X4.760456 Y8.358322 
G1 X4.649356 Y8.192047 
G1 X4.507950 Y8.050641 
G1 X4.341675 Y7.939541 
G1 X4.156922 Y7.863012 
G1 X3.960787 Y7.824000 
G1 X3.760809 Y7.824000 
G1 X3.564675 Y7.863012 
G1 X3.379922 Y7.939541 
G1 X3.213647 Y8.050641 
G1 X3.072241 Y8.192047 
G0 Z5.000000 
G0 X5.790041 Y8.192047 
G1 Z-0.200000 F80    
G1 X5.678941 Y8.358322 F200   
G1 X5.602412 Y8.543075 
G1 X5.563400 Y8.739209 
G1 X5.563400 Y8.939187 
G1 X5.602412 Y9.135322 
G1 X5.678941 Y9.320075 
G1 X5.790041 Y9.486350 
G1 X5.931447 Y9.627756 
G1 X6.097722 Y9.738856 
G1 X6.282475 Y9.815384 
G1 X6.478609 Y9.854397 
G1 X6.678587 Y9.854397 
G1 X6.874722 Y9.815384 
G1 X7.059475 Y9.738856 
G1 X7.225750 Y9.627756 
G1 X7.367156 Y9.486350 
G1 X7.478256 Y9.320075 
G1 X7.554784 Y9.135322 
G1 X7.593797 Y8.939187 
G1 X7.593797 Y8.739209 
G1 X7.554784 Y8.543075 
G1 X7.478256 Y8.358322 
G1 X7.367156 Y8.192047 
G1 X7.225750 Y8.050641 
G1 X7.059475 Y7.939541 
G1 X6.874722 Y7.863012 
G1 X6.678587 Y7.824000 
G1 X6.478609 Y7.824000 
G1 X6.282475 Y7.863012 
G1 X6.097722 Y7.939541 
G1 X5.931447 Y8.050641 
G1 X5.790041 Y8.192047 
G0 Z5.000000 
G0 X8.507841 Y8.192047 
G1 Z-0.200000 F80    
G1 X8.396741 Y8.358322 F200   
G1 X8.320213 Y8.543075 
G1 X8.281200 Y8.739209 
G1 X8.281200 Y8.939187 
G1 X8.320213 Y9.135322 
G1 X8.396741 Y9.320075 
G1 X8.507841 Y9.486350 
G1 X8.649247 Y9.627756 
G1 X8.815522 Y9.738856 
G1 X9.000275 Y9.815384 
G1 X9.196409 Y9.854397 
G1 X9.396387 Y9.854397 
G1 X9.592522 Y9.815384 
G1 X9.777275 Y9.738856 
G1 X9.943550 Y9.627756 
G1 X10.084956 Y9.486350 
G1 X10.196056 Y9.320075 
G1 X10.272584 Y9.135322 
G1 X10.311597 Y8.939187 
G1 X10.311597 Y8.739209 
G1 X10.272584 Y8.543075 
G1 X10.196056 Y8.358322 
G1 X10.084956 Y8.192047 
G1 X9.943550 Y8.050641 
G1 X9.777275 Y7.939541 
G1 X9.592522 Y7.863012 
G1 X9.396387 Y7.824000 
G1 X9.196409 Y7.824000 
G1 X9.000275 Y7.863012 
G1 X8.815522 Y7.939541 
G1 X8.649247 Y8.050641 
G1 X8.507841 Y8.192047 
G0 Z5.000000 
G0 X16.622803 Y8.317519 
G1 Z-0.200000 F80    
G1 X16.528381 Y8.458831 F200   
G1 X16.463341 Y8.615850 
G1 X16.430184 Y8.782541 
G1 X16.430184 Y8.952500 
G1 X16.463341 Y9.119191 
G1 X16.528381 Y9.276209 
G1 X16.622803 Y9.417522 
G1 X16.742981 Y9.537700 
G1 X16.884294 Y9.632122 
G1 X17.041313 Y9.697162 
G1 X17.208003 Y9.730319 
G1 X17.377962 Y9.730319 
G1 X17.544653 Y9.697162 
G1 X17.701672 Y9.632122 
G1 X17.842984 Y9.537700 
G1 X17.963162 Y9.417522 
G1 X18.057584 Y9.276209 
G1 X18.122625 Y9.119191 
G1 X18.155781 Y8.952500 
G1 X18.155781 Y8.782541 
G1 X18.122625 Y8.615850 
G1 X18.057584 Y8.458831 
G1 X17.963162 Y8.317519 
G1 X17.842984 Y8.197341 
G1 X17.701672 Y8.102919 
G1 X17.544653 Y8.037878 
G1 X17.377962 Y8.004722 
G1 X17.208003 Y8.004722 
G1 X17.041313 Y8.037878 
G1 X16.884294 Y8.102919 
G1 X16.742981 Y8.197341 
G1 X16.622803 Y8.317519 
G0 Z5.000000 
G0 X18.970184 Y8.510138 
G1 Z-0.200000 F80    
G1 X18.970184 Y9.224903 F200   
G1 X19.475600 Y9.730319 
G1 X20.190366 Y9.730319 
G1 X20.695781 Y9.224903 
G1 X20.695781 Y8.510138 
G1 X20.190366 Y8.004722 
G1 X19.475600 Y8.004722 
G1 X18.970184 Y8.510138 
G0 Z5.000000 
G0 X18.999737 Y15.562519 
G1 Z-0.200000 F80    
G1 X18.849525 Y15.624741 F200   
G1 X18.714337 Y15.715069 
G1 X18.599369 Y15.830037 
G1 X18.509041 Y15.965225 
G1 X18.446819 Y16.115437 
G1 X18.415100 Y16.274903 
G1 X18.415100 Y17.937494 
G1 X18.446819 Y18.096959 
G1 X18.509041 Y18.247172 
G1 X18.599369 Y18.382359 
G1 X18.714337 Y18.497328 
G1 X18.849525 Y18.587656 
G1 X18.999737 Y18.649878 
G1 X19.159203 Y18.681597 
G1 X19.321794 Y18.681597 
G1 X19.481259 Y18.649878 
G1 X19.631472 Y18.587656 
G1 X19.766659 Y18.497328 
G1 X19.881628 Y18.382359 
G1 X19.971956 Y18.247172 
G1 X20.034178 Y18.096959 
G1 X20.065897 Y17.937494 
G1 X20.065897 Y16.274903 
G1 X20.034178 Y16.115437 
G1 X19.971956 Y15.965225 
G1 X19.881628 Y15.830037 
G1 X19.766659 Y15.715069 
G1 X19.631472 Y15.624741 
G1 X19.481259 Y15.562519 
G1 X19.321794 Y15.530800 
G1 X19.159203 Y15.530800 
G1 X18.999737 Y15.562519 
G0 Z5.000000 
G0 X17.226659 Y15.715069 
G1 Z-0.200000 F80    
G1 X17.091472 Y15.624741 F200   
G1 X16.941259 Y15.562519 
G1 X16.781794 Y15.530800 
G1 X16.619203 Y15.530800 
G1 X16.459737 Y15.562519 
G1 X16.309525 Y15.624741 
G1 X16.174338 Y15.715069 
G1 X16.059369 Y15.830037 
G1 X15.969041 Y15.965225 
G1 X15.906819 Y16.115437 
G1 X15.875100 Y16.274903 
G1 X15.875100 Y17.937494 
G1 X15.906819 Y18.096959 
G1 X15.969041 Y18.247172 
G1 X16.059369 Y18.382359 
G1 X16.174338 Y18.497328 
G1 X16.309525 Y18.587656 
G1 X16.459737 Y18.649878 
G1 X16.619203 Y18.681597 
G1 X16.781794 Y18.681597 
G1 X16.941259 Y18.649878 
G1 X17.091472 Y18.587656 
G1 X17.226659 Y18.497328 
G1 X17.341628 Y18.382359 
G1 X17.431956 Y18.247172 
G1 X17.494178 Y18.096959 
G1 X17.525897 Y17.937494 
G1 X17.525897 Y16.274903 
G1 X17.494178 Y16.115437 
G1 X17.431956 Y15.965225 
G1 X17.341628 Y15.830037 
G1 X17.226659 Y15.715069 
G0 Z5.000000 
G0 X14.686659 Y15.715069 
G1 Z-0.200000 F80    
G1 X14.551472 Y15.624741 F200   
G1 X14.401259 Y15.562519 
G1 X14.241794 Y15.530800 
G1 X14.079203 Y15.530800 
G1 X13.919738 Y15.562519 
G1 X13.769525 Y15.624741 
G1 X13.634338 Y15.715069 
G1 X13.519369 Y15.830037 
G1 X13.429041 Y15.965225 
G1 X13.366819 Y16.115437 
G1 X13.335100 Y16.274903 
G1 X13.335100 Y17.937494 
G1 X13.366819 Y18.096959 
G1 X13.429041 Y18.247172 
G1 X13.519369 Y18.382359 
G1 X13.634338 Y18.497328 
G1 X13.769525 Y18.587656 
G1 X13.919738 Y18.649878 
G1 X14.079203 Y18.681597 
G1 X14.241794 Y18.681597 
G1 X14.401259 Y18.649878 
G1 X14.551472 Y18.587656 
G1 X14.686659 Y18.497328 
G1 X14.801628 Y18.382359 
G1 X14.891956 Y18.247172 
G1 X14.954178 Y18.096959 
G1 X14.985897 Y17.937494 
G1 X14.985897 Y16.274903 
G1 X14.954178 Y16.115437 
G1 X14.891956 Y15.965225 
G1 X14.801628 Y15.830037 
G1 X14.686659 Y15.715069 
G0 Z5.000000 
G0 X12.146659 Y15.715069 
G1 Z-0.200000 F80    
G1 X12.011472 Y15.624741 F200   
G1 X11.861259 Y15.562519 
G1 X11.701794 Y15.530800 
G1 X11.539203 Y15.530800 
G1 X11.379737 Y15.562519 
G1 X11.229525 Y15.624741 
G1 X11.094337 Y15.715069 
G1 X10.979369 Y15.830037 
G1 X10.889041 Y15.965225 
G1 X10.826819 Y16.115437 
G1 X10.795100 Y16.274903 
G1 X10.795100 Y17.937494 
G1 X10.826819 Y18.096959 
G1 X10.889041 Y18.247172 
G1 X10.979369 Y18.382359 
G1 X11.094337 Y18.497328 
G1 X11.229525 Y18.587656 
G1 X11.379737 Y18.649878 
G1 X11.539203 Y18.681597 
G1 X11.701794 Y18.681597 
G1 X11.861259 Y18.649878 
G1 X12.011472 Y18.587656 
G1 X12.146659 Y18.497328 
G1 X12.261628 Y18.382359 
G1 X12.351956 Y18.247172 
G1 X12.414178 Y18.096959 
G1 X12.445897 Y17.937494 
G1 X12.445897 Y16.274903 
G1 X12.414178 Y16.115437 
G1 X12.351956 Y15.965225 
G1 X12.261628 Y15.830037 
G1 X12.146659 Y15.715069 
G0 Z5.000000 
G0 X21.139369 Y15.830037 
G1 Z-0.200000 F80    
G1 X21.049041 Y15.965225 F200   
G1 X20.986819 Y16.115437 
G1 X20.955100 Y16.274903 
G1 X20.955100 Y17.937494 
G1 X20.986819 Y18.096959 
G1 X21.049041 Y18.247172 
G1 X21.139369 Y18.382359 
G1 X21.254337 Y18.497328 
G1 X21.389525 Y18.587656 
G1 X21.539738 Y18.649878 
G1 X21.699203 Y18.681597 
G1 X21.861794 Y18.681597 
G1 X22.021259 Y18.649878 
G1 X22.171472 Y18.587656 
G1 X22.306659 Y18.497328 
G1 X22.421628 Y18.382359 
G1 X22.511956 Y18.247172 
G1 X22.574178 Y18.096959 
G1 X22.605897 Y17.937494 
G1 X22.605897 Y16.274903 
G1 X22.574178 Y16.115437 
G1 X22.511956 Y15.965225 
G1 X22.421628 Y15.830037 
G1 X22.306659 Y15.715069 
G1 X22.171472 Y15.624741 
G1 X22.021259 Y15.562519 
G1 X21.861794 Y15.530800 
G1 X21.699203 Y15.530800 
G1 X21.539738 Y15.562519 
G1 X21.389525 Y15.624741 
G1 X21.254337 Y15.715069 
G1 X21.139369 Y15.830037 
G0 Z5.000000 
G0 X23.679369 Y15.830037 
G1 Z-0.200000 F80    
G1 X23.589041 Y15.965225 F200   
G1 X23.526819 Y16.115437 
G1 X23.495100 Y16.274903 
G1 X23.495100 Y17.937494 
G1 X23.526819 Y18.096959 
G1 X23.589041 Y18.247172 
G1 X23.679369 Y18.382359 
G1 X23.794338 Y18.497328 
G1 X23.929525 Y18.587656 
G1 X24.079738 Y18.649878 
G1 X24.239203 Y18.681597 
G1 X24.401794 Y18.681597 
G1 X24.561259 Y18.649878 
G1 X24.711472 Y18.587656 
G1 X24.846659 Y18.497328 
G1 X24.961628 Y18.382359 
G1 X25.051956 Y18.247172 
G1 X25.114178 Y18.096959 
G1 X25.145897 Y17.937494 
G1 X25.145897 Y16.274903 
G1 X25.114178 Y16.115437 
G1 X25.051956 Y15.965225 
G1 X24.961628 Y15.830037 
G1 X24.846659 Y15.715069 
G1 X24.711472 Y15.624741 
G1 X24.561259 Y15.562519 
G1 X24.401794 Y15.530800 
G1 X24.239203 Y15.530800 
G1 X24.079738 Y15.562519 
G1 X23.929525 Y15.624741 
G1 X23.794338 Y15.715069 
G1 X23.679369 Y15.830037 
G0 Z5.000000 
G0 X26.219369 Y15.830037 
G1 Z-0.200000 F80    
G1 X26.129041 Y15.965225 F200   
G1 X26.066819 Y16.115437 
G1 X26.035100 Y16.274903 
G1 X26.035100 Y17.937494 
G1 X26.066819 Y18.096959 
G1 X26.129041 Y18.247172 
G1 X26.219369 Y18.382359 
G1 X26.334338 Y18.497328 
G1 X26.469525 Y18.587656 
G1 X26.619737 Y18.649878 
G1 X26.779203 Y18.681597 
G1 X26.941794 Y18.681597 
G1 X27.101259 Y18.649878 
G1 X27.251472 Y18.587656 
G1 X27.386659 Y18.497328 
G1 X27.501628 Y18.382359 
G1 X27.591956 Y18.247172 
G1 X27.654178 Y18.096959 
G1 X27.685897 Y17.937494 
G1 X27.685897 Y16.274903 
G1 X27.654178 Y16.115437 
G1 X27.591956 Y15.965225 
G1 X27.501628 Y15.830037 
G1 X27.386659 Y15.715069 
G1 X27.251472 Y15.624741 
G1 X27.101259 Y15.562519 
G1 X26.941794 Y15.530800 
G1 X26.779203 Y15.530800 
G1 X26.619737 Y15.562519 
G1 X26.469525 Y15.624741 
G1 X26.334338 Y15.715069 
G1 X26.219369 Y15.830037 
G0 Z5.000000 
G0 X28.759369 Y15.830037 
G1 Z-0.200000 F80    
G1 X28.669041 Y15.965225 F200   
G1 X28.606819 Y16.115437 
G1 X28.575100 Y16.274903 
G1 X28.575100 Y17.937494 
G1 X28.606819 Y18.096959 
G1 X28.669041 Y18.247172 
G1 X28.759369 Y18.382359 
G1 X28.874337 Y18.497328 
G1 X29.009525 Y18.587656 
G1 X29.159737 Y18.649878 
G1 X29.319203 Y18.681597 
G1 X29.481794 Y18.681597 
G1 X29.641259 Y18.649878 
G1 X29.791472 Y18.587656 
G1 X29.926659 Y18.497328 
G1 X30.041628 Y18.382359 
G1 X30.131956 Y18.247172 
G1 X30.194178 Y18.096959 
G1 X30.225897 Y17.937494 
G1 X30.225897 Y16.274903 
G1 X30.194178 Y16.115437 
G1 X30.131956 Y15.965225 
G1 X30.041628 Y15.830037 
G1 X29.926659 Y15.715069 
G1 X29.791472 Y15.624741 
G1 X29.641259 Y15.562519 
G1 X29.481794 Y15.530800 
G1 X29.319203 Y15.530800 
G1 X29.159737 Y15.562519 
G1 X29.009525 Y15.624741 
G1 X28.874337 Y15.715069 
G1 X28.759369 Y15.830037 
G0 Z5.000000 
G0 X31.299369 Y15.830037 
G1 Z-0.200000 F80    
G1 X31.209041 Y15.965225 F200   
G1 X31.146819 Y16.115437 
G1 X31.115100 Y16.274903 
G1 X31.115100 Y17.937494 
G1 X31.146819 Y18.096959 
G1 X31.209041 Y18.247172 
G1 X31.299369 Y18.382359 
G1 X31.414337 Y18.497328 
G1 X31.549525 Y18.587656 
G1 X31.699738 Y18.649878 
G1 X31.859203 Y18.681597 
G1 X32.021794 Y18.681597 
G1 X32.181259 Y18.649878 
G1 X32.331472 Y18.587656 
G1 X32.466659 Y18.497328 
G1 X32.581628 Y18.382359 
G1 X32.671956 Y18.247172 
G1 X32.734178 Y18.096959 
G1 X32.765897 Y17.937494 
G1 X32.765897 Y16.274903 
G1 X32.734178 Y16.115437 
G1 X32.671956 Y15.965225 
G1 X32.581628 Y15.830037 
G1 X32.466659 Y15.715069 
G1 X32.331472 Y15.624741 
G1 X32.181259 Y15.562519 
G1 X32.021794 Y15.530800 
G1 X31.859203 Y15.530800 
G1 X31.699738 Y15.562519 
G1 X31.549525 Y15.624741 
G1 X31.414337 Y15.715069 
G1 X31.299369 Y15.830037 
G0 Z5.000000 
G0 X33.839369 Y15.830037 
G1 Z-0.200000 F80    
G1 X33.749041 Y15.965225 F200   
G1 X33.686819 Y16.115437 
G1 X33.655100 Y16.274903 
G1 X33.655100 Y17.937494 
G1 X33.686819 Y18.096959 
G1 X33.749041 Y18.247172 
G1 X33.839369 Y18.382359 
G1 X33.954338 Y18.497328 
G1 X34.089525 Y18.587656 
G1 X34.239737 Y18.649878 
G1 X34.399203 Y18.681597 
G1 X34.561794 Y18.681597 
G1 X34.721259 Y18.649878 
G1 X34.871472 Y18.587656 
G1 X35.006659 Y18.497328 
G1 X35.121628 Y18.382359 
G1 X35.211956 Y18.247172 
G1 X35.274178 Y18.096959 
G1 X35.305897 Y17.937494 
G1 X35.305897 Y16.274903 
G1 X35.274178 Y16.115437 
G1 X35.211956 Y15.965225 
G1 X35.121628 Y15.830037 
G1 X35.006659 Y15.715069 
G1 X34.871472 Y15.624741 
G1 X34.721259 Y15.562519 
G1 X34.561794 Y15.530800 
G1 X34.399203 Y15.530800 
G1 X34.239737 Y15.562519 
G1 X34.089525 Y15.624741 
G1 X33.954338 Y15.715069 
G1 X33.839369 Y15.830037 
G0 Z5.000000 
G0 X36.379369 Y15.830037 
G1 Z-0.200000 F80    
G1 X36.289041 Y15.965225 F200   
G1 X36.226819 Y16.115437 
G1 X36.195100 Y16.274903 
G1 X36.195100 Y17.937494 
G1 X36.226819 Y18.096959 
G1 X36.289041 Y18.247172 
G1 X36.379369 Y18.382359 
G1 X36.494338 Y18.497328 
G1 X36.629525 Y18.587656 
G1 X36.779738 Y18.649878 
G1 X36.939203 Y18.681597 
G1 X37.101794 Y18.681597 
G1 X37.261259 Y18.649878 
G1 X37.411472 Y18.587656 
G1 X37.546659 Y18.497328 
G1 X37.661628 Y18.382359 
G1 X37.751956 Y18.247172 
G1 X37.814178 Y18.096959 
G1 X37.845897 Y17.937494 
G1 X37.845897 Y16.274903 
G1 X37.814178 Y16.115437 
G1 X37.751956 Y15.965225 
G1 X37.661628 Y15.830037 
G1 X37.546659 Y15.715069 
G1 X37.411472 Y15.624741 
G1 X37.261259 Y15.562519 
G1 X37.101794 Y15.530800 
G1 X36.939203 Y15.530800 
G1 X36.779738 Y15.562519 
G1 X36.629525 Y15.624741 
G1 X36.494338 Y15.715069 
G1 X36.379369 Y15.830037 
G0 Z5.000000 
G0 X38.919369 Y15.830037 
G1 Z-0.200000 F80    
G1 X38.829041 Y15.965225 F200   
G1 X38.766819 Y16.115437 
G1 X38.735100 Y16.274903 
G1 X38.735100 Y17.937494 
G1 X38.766819 Y18.096959 
G1 X38.829041 Y18.247172 
G1 X38.919369 Y18.382359 
G1 X39.034337 Y18.497328 
G1 X39.169525 Y18.587656 
G1 X39.319738 Y18.649878 
G1 X39.479203 Y18.681597 
G1 X39.641794 Y18.681597 
G1 X39.801259 Y18.649878 
G1 X39.951472 Y18.587656 
G1 X40.086659 Y18.497328 
G1 X40.201628 Y18.382359 
G1 X40.291956 Y18.247172 
G1 X40.354178 Y18.096959 
G1 X40.385897 Y17.937494 
G1 X40.385897 Y16.274903 
G1 X40.354178 Y16.115437 
G1 X40.291956 Y15.965225 
G1 X40.201628 Y15.830037 
G1 X40.086659 Y15.715069 
G1 X39.951472 Y15.624741 
G1 X39.801259 Y15.562519 
G1 X39.641794 Y15.530800 
G1 X39.479203 Y15.530800 
G1 X39.319738 Y15.562519 
G1 X39.169525 Y15.624741 
G1 X39.034337 Y15.715069 
G1 X38.919369 Y15.830037 
G0 Z5.000000 
G0 X41.459369 Y15.830037 
G1 Z-0.200000 F80    
G1 X41.369041 Y15.965225 F200   
G1 X41.306819 Y16.115437 
G1 X41.275100 Y16.274903 
G1 X41.275100 Y17.937494 
G1 X41.306819 Y18.096959 
G1 X41.369041 Y18.247172 
G1 X41.459369 Y18.382359 
G1 X41.574337 Y18.497328 
G1 X41.709525 Y18.587656 
G1 X41.859738 Y18.649878 
G1 X42.019203 Y18.681597 
G1 X42.181794 Y18.681597 
G1 X42.341259 Y18.649878 
G1 X42.491472 Y18.587656 
G1 X42.626659 Y18.497328 
G1 X42.741628 Y18.382359 
G1 X42.831956 Y18.247172 
G1 X42.894178 Y18.096959 
G1 X42.925897 Y17.937494 
G1 X42.925897 Y16.274903 
G1 X42.894178 Y16.115437 
G1 X42.831956 Y15.965225 
G1 X42.741628 Y15.830037 
G1 X42.626659 Y15.715069 
G1 X42.491472 Y15.624741 
G1 X42.341259 Y15.562519 
G1 X42.181794 Y15.530800 
G1 X42.019203 Y15.530800 
G1 X41.859738 Y15.562519 
G1 X41.709525 Y15.624741 
G1 X41.574337 Y15.715069 
G1 X41.459369 Y15.830037 
G0 Z5.000000 
G0 X43.999369 Y15.830037 
G1 Z-0.200000 F80    
G1 X43.909041 Y15.965225 F200   
G1 X43.846819 Y16.115437 
G1 X43.815100 Y16.274903 
G1 X43.815100 Y17.937494 
G1 X43.846819 Y18.096959 
G1 X43.909041 Y18.247172 
G1 X43.999369 Y18.382359 
G1 X44.114337 Y18.497328 
G1 X44.249525 Y18.587656 
G1 X44.399738 Y18.649878 
G1 X44.559203 Y18.681597 
G1 X44.721794 Y18.681597 
G1 X44.881259 Y18.649878 
G1 X45.031472 Y18.587656 
G1 X45.166659 Y18.497328 
G1 X45.281628 Y18.382359 
G1 X45.371956 Y18.247172 
G1 X45.434178 Y18.096959 
G1 X45.465897 Y17.937494 
G1 X45.465897 Y16.274903 
G1 X45.434178 Y16.115437 
G1 X45.371956 Y15.965225 
G1 X45.281628 Y15.830037 
G1 X45.166659 Y15.715069 
G1 X45.031472 Y15.624741 
G1 X44.881259 Y15.562519 
G1 X44.721794 Y15.530800 
G1 X44.559203 Y15.530800 
G1 X44.399738 Y15.562519 
G1 X44.249525 Y15.624741 
G1 X44.114337 Y15.715069 
G1 X43.999369 Y15.830037 
G0 Z5.000000 
G0 X43.926697 Y9.485775 
G1 Z-0.200000 F80    
G1 X43.926697 Y8.876222 F200   
G1 X43.495675 Y8.445200 
G1 X42.886122 Y8.445200 
G1 X42.455100 Y8.876222 
G1 X42.455100 Y9.485775 
G1 X42.886122 Y9.916797 
G1 X43.495675 Y9.916797 
G1 X43.926697 Y9.485775 
G0 Z5.000000 
G0 X38.846697 Y9.485775 
G1 Z-0.200000 F80    
G1 X38.846697 Y8.876222 F200   
G1 X38.415675 Y8.445200 
G1 X37.806122 Y8.445200 
G1 X37.375100 Y8.876222 
G1 X37.375100 Y9.485775 
G1 X37.806122 Y9.916797 
G1 X38.415675 Y9.916797 
G1 X38.846697 Y9.485775 
G0 Z5.000000 
G0 X38.478422 Y3.453597 
G1 Z-0.200000 F80    
G1 X39.013597 Y2.918422 F200   
G1 X39.013597 Y2.161575 
G1 X38.478422 Y1.626400 
G1 X37.721575 Y1.626400 
G1 X37.186400 Y2.161575 
G1 X37.186400 Y2.918422 
G1 X37.721575 Y3.453597 
G1 X38.478422 Y3.453597 
G0 Z5.000000 
G0 X40.261575 Y3.453597 
G1 Z-0.200000 F80    
G1 X41.018422 Y3.453597 F200   
G1 X41.553597 Y2.918422 
G1 X41.553597 Y2.161575 
G1 X41.018422 Y1.626400 
G1 X40.261575 Y1.626400 
G1 X39.726400 Y2.161575 
G1 X39.726400 Y2.918422 
G1 X40.261575 Y3.453597 
G0 Z5.000000 
G0 X42.801575 Y3.453597 
G1 Z-0.200000 F80    
G1 X43.558422 Y3.453597 F200   
G1 X44.093597 Y2.918422 
G1 X44.093597 Y2.161575 
G1 X43.558422 Y1.626400 
G1 X42.801575 Y1.626400 
G1 X42.266400 Y2.161575 
G1 X42.266400 Y2.918422 
G1 X42.801575 Y3.453597 
G0 Z5.000000 
G0 X45.341575 Y3.453597 
G1 Z-0.200000 F80    
G1 X46.098422 Y3.453597 F200   
G1 X46.633597 Y2.918422 
G1 X46.633597 Y2.161575 
G1 X46.098422 Y1.626400 
G1 X45.341575 Y1.626400 
G1 X44.806400 Y2.161575 
G1 X44.806400 Y2.918422 
G1 X45.341575 Y3.453597 
G0 Z5.000000 
G0 X50.421575 Y3.453597 
G1 Z-0.200000 F80    
G1 X51.178422 Y3.453597 F200   
G1 X51.713597 Y2.918422 
G1 X51.713597 Y2.161575 
G1 X51.178422 Y1.626400 
G1 X50.421575 Y1.626400 
G1 X49.886400 Y2.161575 
G1 X49.886400 Y2.918422 
G1 X50.421575 Y3.453597 
G0 Z5.000000 
G0 X52.961575 Y3.453597 
G1 Z-0.200000 F80    
G1 X53.718422 Y3.453597 F200   
G1 X54.253597 Y2.918422 
G1 X54.253597 Y2.161575 
G1 X53.718422 Y1.626400 
G1 X52.961575 Y1.626400 
G1 X52.426400 Y2.161575 
G1 X52.426400 Y2.918422 
G1 X52.961575 Y3.453597 
G0 Z5.000000 
G0 X55.501575 Y3.453597 
G1 Z-0.200000 F80    
G1 X56.258422 Y3.453597 F200   
G1 X56.793597 Y2.918422 
G1 X56.793597 Y2.161575 
G1 X56.258422 Y1.626400 
G1 X55.501575 Y1.626400 
G1 X54.966400 Y2.161575 
G1 X54.966400 Y2.918422 
G1 X55.501575 Y3.453597 
G0 Z5.000000 
G0 X58.041575 Y3.453597 
G1 Z-0.200000 F80    
G1 X58.798422 Y3.453597 F200   
G1 X59.333597 Y2.918422 
G1 X59.333597 Y2.161575 
G1 X58.798422 Y1.626400 
G1 X58.041575 Y1.626400 
G1 X57.506400 Y2.161575 
G1 X57.506400 Y2.918422 
G1 X58.041575 Y3.453597 
G0 Z5.000000 
G0 X60.581575 Y3.453597 
G1 Z-0.200000 F80    
G1 X61.338422 Y3.453597 F200   
G1 X61.873597 Y2.918422 
G1 X61.873597 Y2.161575 
G1 X61.338422 Y1.626400 
G1 X60.581575 Y1.626400 
G1 X60.046400 Y2.161575 
G1 X60.046400 Y2.918422 
G1 X60.581575 Y3.453597 
G0 Z5.000000 
G0 X63.121575 Y3.453597 
G1 Z-0.200000 F80    
G1 X63.878422 Y3.453597 F200   
G1 X64.413597 Y2.918422 
G1 X64.413597 Y2.161575 
G1 X63.878422 Y1.626400 
G1 X63.121575 Y1.626400 
G1 X62.586400 Y2.161575 
G1 X62.586400 Y2.918422 
G1 X63.121575 Y3.453597 
G0 Z5.000000 
G0 X63.029772 Y18.604853 
G1 Z-0.200000 F80    
G1 X62.539234 Y19.095391 F200   
G1 X62.539234 Y19.789113 
G1 X63.029772 Y20.279650 
G1 X63.723494 Y20.279650 
G1 X64.214031 Y19.789113 
G1 X64.214031 Y19.095391 
G1 X63.723494 Y18.604853 
G1 X63.029772 Y18.604853 
G0 Z5.000000 
G0 X61.674031 Y19.095391 
G1 Z-0.200000 F80    
G1 X61.183494 Y18.604853 F200   
G1 X60.489772 Y18.604853 
G1 X59.999234 Y19.095391 
G1 X59.999234 Y19.789113 
G1 X60.489772 Y20.279650 
G1 X61.183494 Y20.279650 
G1 X61.674031 Y19.789113 
G1 X61.674031 Y19.095391 
G0 Z5.000000 
G0 X61.674031 Y21.635391 
G1 Z-0.200000 F80    
G1 X61.183494 Y21.144853 F200   
G1 X60.489772 Y21.144853 
G1 X59.999234 Y21.635391 
G1 X59.999234 Y22.329113 
G1 X60.489772 Y22.819650 
G1 X61.183494 Y22.819650 
G1 X61.674031 Y22.329113 
G1 X61.674031 Y21.635391 
G0 Z5.000000 
G0 X62.539234 Y21.635391 
G1 Z-0.200000 F80    
G1 X62.539234 Y22.329113 F200   
G1 X63.029772 Y22.819650 
G1 X63.723494 Y22.819650 
G1 X64.214031 Y22.329113 
G1 X64.214031 Y21.635391 
G1 X63.723494 Y21.144853 
G1 X63.029772 Y21.144853 
G1 X62.539234 Y21.635391 
G0 Z5.000000 
G0 X62.539234 Y24.175391 
G1 Z-0.200000 F80    
G1 X62.539234 Y24.869112 F200   
G1 X63.029772 Y25.359650 
G1 X63.723494 Y25.359650 
G1 X64.214031 Y24.869112 
G1 X64.214031 Y24.175391 
G1 X63.723494 Y23.684853 
G1 X63.029772 Y23.684853 
G1 X62.539234 Y24.175391 
G0 Z5.000000 
G0 X61.674031 Y23.745253 
G1 Z-0.200000 F80    
G1 X61.662553 Y23.717541 F200   
G1 X61.613631 Y23.684853 
G1 X60.059634 Y23.684853 
G1 X60.031922 Y23.696331 
G1 X59.999234 Y23.745253 
G1 X59.999234 Y25.299250 
G1 X60.010712 Y25.326963 
G1 X60.059634 Y25.359650 
G1 X61.613631 Y25.359650 
G1 X61.641344 Y25.348172 
G1 X61.674031 Y25.299250 
G1 X61.674031 Y23.745253 
G0 Z5.000000 
G0 X57.796897 Y20.426256 
G1 Z-0.200000 F80    
G1 X57.799147 Y20.411934 F200   
G1 X57.804769 Y20.371641 
G1 X57.834997 Y20.219672 
G1 X57.834997 Y18.642325 
G1 X57.804769 Y18.490356 
G1 X57.745472 Y18.347203 
G1 X57.659391 Y18.218372 
G1 X57.549825 Y18.108806 
G1 X57.420994 Y18.022725 
G1 X57.277841 Y17.963428 
G1 X57.125872 Y17.933200 
G1 X56.970925 Y17.933200 
G1 X56.818956 Y17.963428 
G1 X56.675803 Y18.022725 
G1 X56.546972 Y18.108806 
G1 X56.437406 Y18.218372 
G1 X56.351325 Y18.347203 
G1 X56.292028 Y18.490356 
G1 X56.261800 Y18.642325 
G1 X56.261800 Y20.219672 
G1 X56.292028 Y20.371641 
G1 X56.351325 Y20.514794 
G1 X56.376100 Y20.551872 
G1 X56.376100 Y31.015553 
G1 X56.457963 Y31.097416 
G1 X56.534697 Y31.212253 
G1 X56.633644 Y31.311200 
G1 X56.748481 Y31.387934 
G1 X56.792244 Y31.431697 
G1 X56.853206 Y31.431697 
G1 X56.879281 Y31.442497 
G1 X57.016528 Y31.469797 
G1 X57.156469 Y31.469797 
G1 X57.293716 Y31.442497 
G1 X57.319791 Y31.431697 
G1 X57.380753 Y31.431697 
G1 X57.424516 Y31.387934 
G1 X57.539353 Y31.311200 
G1 X57.638300 Y31.212253 
G1 X57.715034 Y31.097416 
G1 X57.796897 Y31.015553 
G1 X57.796897 Y30.829369 
G1 X57.796897 Y20.426256 
G0 Z5.000000 
G0 X55.264769 Y20.371641 
G1 Z-0.200000 F80    
G1 X55.294997 Y20.219672 F200   
G1 X55.294997 Y18.642325 
G1 X55.264769 Y18.490356 
G1 X55.205472 Y18.347203 
G1 X55.119391 Y18.218372 
G1 X55.009825 Y18.108806 
G1 X54.880994 Y18.022725 
G1 X54.737841 Y17.963428 
G1 X54.585872 Y17.933200 
G1 X54.430925 Y17.933200 
G1 X54.278956 Y17.963428 
G1 X54.135803 Y18.022725 
G1 X54.006972 Y18.108806 
G1 X53.897406 Y18.218372 
G1 X53.811325 Y18.347203 
G1 X53.752028 Y18.490356 
G1 X53.721800 Y18.642325 
G1 X53.721800 Y20.219672 
G1 X53.752028 Y20.371641 
G1 X53.811325 Y20.514794 
G1 X53.897406 Y20.643625 
G1 X54.006972 Y20.753191 
G1 X54.135803 Y20.839272 
G1 X54.278956 Y20.898569 
G1 X54.430925 Y20.928797 
G1 X54.585872 Y20.928797 
G1 X54.737841 Y20.898569 
G1 X54.880994 Y20.839272 
G1 X55.009825 Y20.753191 
G1 X55.119391 Y20.643625 
G1 X55.205472 Y20.514794 
G1 X55.264769 Y20.371641 
G0 Z5.000000 
G0 X45.166659 Y24.835069 
G1 Z-0.200000 F80    
G1 X45.031472 Y24.744741 F200   
G1 X44.881259 Y24.682519 
G1 X44.721794 Y24.650800 
G1 X44.559203 Y24.650800 
G1 X44.399738 Y24.682519 
G1 X44.249525 Y24.744741 
G1 X44.114337 Y24.835069 
G1 X43.999369 Y24.950038 
G1 X43.909041 Y25.085225 
G1 X43.846819 Y25.235437 
G1 X43.815100 Y25.394903 
G1 X43.815100 Y27.057494 
G1 X43.846819 Y27.216959 
G1 X43.909041 Y27.367172 
G1 X43.999369 Y27.502359 
G1 X44.114337 Y27.617328 
G1 X44.249525 Y27.707656 
G1 X44.399738 Y27.769878 
G1 X44.559203 Y27.801597 
G1 X44.721794 Y27.801597 
G1 X44.881259 Y27.769878 
G1 X45.031472 Y27.707656 
G1 X45.166659 Y27.617328 
G1 X45.281628 Y27.502359 
G1 X45.371956 Y27.367172 
G1 X45.434178 Y27.216959 
G1 X45.465897 Y27.057494 
G1 X45.465897 Y25.394903 
G1 X45.434178 Y25.235437 
G1 X45.371956 Y25.085225 
G1 X45.281628 Y24.950038 
G1 X45.166659 Y24.835069 
G0 Z5.000000 
G0 X42.626659 Y24.835069 
G1 Z-0.200000 F80    
G1 X42.491472 Y24.744741 F200   
G1 X42.341259 Y24.682519 
G1 X42.181794 Y24.650800 
G1 X42.019203 Y24.650800 
G1 X41.859738 Y24.682519 
G1 X41.709525 Y24.744741 
G1 X41.574337 Y24.835069 
G1 X41.459369 Y24.950038 
G1 X41.369041 Y25.085225 
G1 X41.306819 Y25.235437 
G1 X41.275100 Y25.394903 
G1 X41.275100 Y27.057494 
G1 X41.306819 Y27.216959 
G1 X41.369041 Y27.367172 
G1 X41.459369 Y27.502359 
G1 X41.574337 Y27.617328 
G1 X41.709525 Y27.707656 
G1 X41.859738 Y27.769878 
G1 X42.019203 Y27.801597 
G1 X42.181794 Y27.801597 
G1 X42.341259 Y27.769878 
G1 X42.491472 Y27.707656 
G1 X42.626659 Y27.617328 
G1 X42.741628 Y27.502359 
G1 X42.831956 Y27.367172 
G1 X42.894178 Y27.216959 
G1 X42.925897 Y27.057494 
G1 X42.925897 Y25.394903 
G1 X42.894178 Y25.235437 
G1 X42.831956 Y25.085225 
G1 X42.741628 Y24.950038 
G1 X42.626659 Y24.835069 
G0 Z5.000000 
G0 X40.086659 Y24.835069 
G1 Z-0.200000 F80    
G1 X39.951472 Y24.744741 F200   
G1 X39.801259 Y24.682519 
G1 X39.641794 Y24.650800 
G1 X39.479203 Y24.650800 
G1 X39.319738 Y24.682519 
G1 X39.169525 Y24.744741 
G1 X39.034337 Y24.835069 
G1 X38.919369 Y24.950038 
G1 X38.829041 Y25.085225 
G1 X38.766819 Y25.235437 
G1 X38.735100 Y25.394903 
G1 X38.735100 Y27.057494 
G1 X38.766819 Y27.216959 
G1 X38.829041 Y27.367172 
G1 X38.919369 Y27.502359 
G1 X39.034337 Y27.617328 
G1 X39.169525 Y27.707656 
G1 X39.319738 Y27.769878 
G1 X39.479203 Y27.801597 
G1 X39.641794 Y27.801597 
G1 X39.801259 Y27.769878 
G1 X39.951472 Y27.707656 
G1 X40.086659 Y27.617328 
G1 X40.201628 Y27.502359 
G1 X40.291956 Y27.367172 
G1 X40.354178 Y27.216959 
G1 X40.385897 Y27.057494 
G1 X40.385897 Y25.394903 
G1 X40.354178 Y25.235437 
G1 X40.291956 Y25.085225 
G1 X40.201628 Y24.950038 
G1 X40.086659 Y24.835069 
G0 Z5.000000 
G0 X37.546659 Y24.835069 
G1 Z-0.200000 F80    
G1 X37.411472 Y24.744741 F200   
G1 X37.261259 Y24.682519 
G1 X37.101794 Y24.650800 
G1 X36.939203 Y24.650800 
G1 X36.779738 Y24.682519 
G1 X36.629525 Y24.744741 
G1 X36.494338 Y24.835069 
G1 X36.379369 Y24.950038 
G1 X36.289041 Y25.085225 
G1 X36.226819 Y25.235437 
G1 X36.195100 Y25.394903 
G1 X36.195100 Y27.057494 
G1 X36.226819 Y27.216959 
G1 X36.289041 Y27.367172 
G1 X36.379369 Y27.502359 
G1 X36.494338 Y27.617328 
G1 X36.629525 Y27.707656 
G1 X36.779738 Y27.769878 
G1 X36.939203 Y27.801597 
G1 X37.101794 Y27.801597 
G1 X37.261259 Y27.769878 
G1 X37.411472 Y27.707656 
G1 X37.546659 Y27.617328 
G1 X37.661628 Y27.502359 
G1 X37.751956 Y27.367172 
G1 X37.814178 Y27.216959 
G1 X37.845897 Y27.057494 
G1 X37.845897 Y25.394903 
G1 X37.814178 Y25.235437 
G1 X37.751956 Y25.085225 
G1 X37.661628 Y24.950038 
G1 X37.546659 Y24.835069 
G0 Z5.000000 
G0 X35.006659 Y24.835069 
G1 Z-0.200000 F80    
G1 X34.871472 Y24.744741 F200   
G1 X34.721259 Y24.682519 
G1 X34.561794 Y24.650800 
G1 X34.399203 Y24.650800 
G1 X34.239737 Y24.682519 
G1 X34.089525 Y24.744741 
G1 X33.954338 Y24.835069 
G1 X33.839369 Y24.950038 
G1 X33.749041 Y25.085225 
G1 X33.686819 Y25.235437 
G1 X33.655100 Y25.394903 
G1 X33.655100 Y27.057494 
G1 X33.686819 Y27.216959 
G1 X33.749041 Y27.367172 
G1 X33.839369 Y27.502359 
G1 X33.954338 Y27.617328 
G1 X34.089525 Y27.707656 
G1 X34.239737 Y27.769878 
G1 X34.399203 Y27.801597 
G1 X34.561794 Y27.801597 
G1 X34.721259 Y27.769878 
G1 X34.871472 Y27.707656 
G1 X35.006659 Y27.617328 
G1 X35.121628 Y27.502359 
G1 X35.211956 Y27.367172 
G1 X35.274178 Y27.216959 
G1 X35.305897 Y27.057494 
G1 X35.305897 Y25.394903 
G1 X35.274178 Y25.235437 
G1 X35.211956 Y25.085225 
G1 X35.121628 Y24.950038 
G1 X35.006659 Y24.835069 
G0 Z5.000000 
G0 X32.466659 Y24.835069 
G1 Z-0.200000 F80    
G1 X32.331472 Y24.744741 F200   
G1 X32.181259 Y24.682519 
G1 X32.021794 Y24.650800 
G1 X31.859203 Y24.650800 
G1 X31.699738 Y24.682519 
G1 X31.549525 Y24.744741 
G1 X31.414337 Y24.835069 
G1 X31.299369 Y24.950038 
G1 X31.209041 Y25.085225 
G1 X31.146819 Y25.235437 
G1 X31.115100 Y25.394903 
G1 X31.115100 Y27.057494 
G1 X31.146819 Y27.216959 
G1 X31.209041 Y27.367172 
G1 X31.299369 Y27.502359 
G1 X31.414337 Y27.617328 
G1 X31.549525 Y27.707656 
G1 X31.699738 Y27.769878 
G1 X31.859203 Y27.801597 
G1 X32.021794 Y27.801597 
G1 X32.181259 Y27.769878 
G1 X32.331472 Y27.707656 
G1 X32.466659 Y27.617328 
G1 X32.581628 Y27.502359 
G1 X32.671956 Y27.367172 
G1 X32.734178 Y27.216959 
G1 X32.765897 Y27.057494 
G1 X32.765897 Y25.394903 
G1 X32.734178 Y25.235437 
G1 X32.671956 Y25.085225 
G1 X32.581628 Y24.950038 
G1 X32.466659 Y24.835069 
G0 Z5.000000 
G0 X29.926659 Y24.835069 
G1 Z-0.200000 F80    
G1 X29.791472 Y24.744741 F200   
G1 X29.641259 Y24.682519 
G1 X29.481794 Y24.650800 
G1 X29.319203 Y24.650800 
G1 X29.159737 Y24.682519 
G1 X29.009525 Y24.744741 
G1 X28.874337 Y24.835069 
G1 X28.759369 Y24.950038 
G1 X28.669041 Y25.085225 
G1 X28.606819 Y25.235437 
G1 X28.575100 Y25.394903 
G1 X28.575100 Y27.057494 
G1 X28.606819 Y27.216959 
G1 X28.669041 Y27.367172 
G1 X28.759369 Y27.502359 
G1 X28.874337 Y27.617328 
G1 X29.009525 Y27.707656 
G1 X29.159737 Y27.769878 
G1 X29.319203 Y27.801597 
G1 X29.481794 Y27.801597 
G1 X29.641259 Y27.769878 
G1 X29.791472 Y27.707656 
G1 X29.926659 Y27.617328 
G1 X30.041628 Y27.502359 
G1 X30.131956 Y27.367172 
G1 X30.194178 Y27.216959 
G1 X30.225897 Y27.057494 
G1 X30.225897 Y25.394903 
G1 X30.194178 Y25.235437 
G1 X30.131956 Y25.085225 
G1 X30.041628 Y24.950038 
G1 X29.926659 Y24.835069 
G0 Z5.000000 
G0 X27.386659 Y24.835069 
G1 Z-0.200000 F80    
G1 X27.251472 Y24.744741 F200   
G1 X27.101259 Y24.682519 
G1 X26.941794 Y24.650800 
G1 X26.779203 Y24.650800 
G1 X26.619737 Y24.682519 
G1 X26.469525 Y24.744741 
G1 X26.334338 Y24.835069 
G1 X26.219369 Y24.950038 
G1 X26.129041 Y25.085225 
G1 X26.066819 Y25.235437 
G1 X26.035100 Y25.394903 
G1 X26.035100 Y27.057494 
G1 X26.066819 Y27.216959 
G1 X26.129041 Y27.367172 
G1 X26.219369 Y27.502359 
G1 X26.334338 Y27.617328 
G1 X26.469525 Y27.707656 
G1 X26.619737 Y27.769878 
G1 X26.779203 Y27.801597 
G1 X26.941794 Y27.801597 
G1 X27.101259 Y27.769878 
G1 X27.251472 Y27.707656 
G1 X27.386659 Y27.617328 
G1 X27.501628 Y27.502359 
G1 X27.591956 Y27.367172 
G1 X27.654178 Y27.216959 
G1 X27.685897 Y27.057494 
G1 X27.685897 Y25.394903 
G1 X27.654178 Y25.235437 
G1 X27.591956 Y25.085225 
G1 X27.501628 Y24.950038 
G1 X27.386659 Y24.835069 
G0 Z5.000000 
G0 X24.846659 Y24.835069 
G1 Z-0.200000 F80    
G1 X24.711472 Y24.744741 F200   
G1 X24.561259 Y24.682519 
G1 X24.401794 Y24.650800 
G1 X24.239203 Y24.650800 
G1 X24.079738 Y24.682519 
G1 X23.929525 Y24.744741 
G1 X23.794338 Y24.835069 
G1 X23.679369 Y24.950038 
G1 X23.589041 Y25.085225 
G1 X23.526819 Y25.235437 
G1 X23.495100 Y25.394903 
G1 X23.495100 Y27.057494 
G1 X23.526819 Y27.216959 
G1 X23.589041 Y27.367172 
G1 X23.679369 Y27.502359 
G1 X23.794338 Y27.617328 
G1 X23.929525 Y27.707656 
G1 X24.079738 Y27.769878 
G1 X24.239203 Y27.801597 
G1 X24.401794 Y27.801597 
G1 X24.561259 Y27.769878 
G1 X24.711472 Y27.707656 
G1 X24.846659 Y27.617328 
G1 X24.961628 Y27.502359 
G1 X25.051956 Y27.367172 
G1 X25.114178 Y27.216959 
G1 X25.145897 Y27.057494 
G1 X25.145897 Y25.394903 
G1 X25.114178 Y25.235437 
G1 X25.051956 Y25.085225 
G1 X24.961628 Y24.950038 
G1 X24.846659 Y24.835069 
G0 Z5.000000 
G0 X22.306659 Y24.835069 
G1 Z-0.200000 F80    
G1 X22.171472 Y24.744741 F200   
G1 X22.021259 Y24.682519 
G1 X21.861794 Y24.650800 
G1 X21.699203 Y24.650800 
G1 X21.539738 Y24.682519 
G1 X21.389525 Y24.744741 
G1 X21.254337 Y24.835069 
G1 X21.139369 Y24.950038 
G1 X21.049041 Y25.085225 
G1 X20.986819 Y25.235437 
G1 X20.955100 Y25.394903 
G1 X20.955100 Y27.057494 
G1 X20.986819 Y27.216959 
G1 X21.049041 Y27.367172 
G1 X21.139369 Y27.502359 
G1 X21.254337 Y27.617328 
G1 X21.389525 Y27.707656 
G1 X21.539738 Y27.769878 
G1 X21.699203 Y27.801597 
G1 X21.861794 Y27.801597 
G1 X22.021259 Y27.769878 
G1 X22.171472 Y27.707656 
G1 X22.306659 Y27.617328 
G1 X22.421628 Y27.502359 
G1 X22.511956 Y27.367172 
G1 X22.574178 Y27.216959 
G1 X22.605897 Y27.057494 
G1 X22.605897 Y25.394903 
G1 X22.574178 Y25.235437 
G1 X22.511956 Y25.085225 
G1 X22.421628 Y24.950038 
G1 X22.306659 Y24.835069 
G0 Z5.000000 
G0 X19.766659 Y24.835069 
G1 Z-0.200000 F80    
G1 X19.631472 Y24.744741 F200   
G1 X19.481259 Y24.682519 
G1 X19.321794 Y24.650800 
G1 X19.159203 Y24.650800 
G1 X18.999737 Y24.682519 
G1 X18.849525 Y24.744741 
G1 X18.714337 Y24.835069 
G1 X18.599369 Y24.950038 
G1 X18.509041 Y25.085225 
G1 X18.446819 Y25.235437 
G1 X18.415100 Y25.394903 
G1 X18.415100 Y27.057494 
G1 X18.446819 Y27.216959 
G1 X18.509041 Y27.367172 
G1 X18.599369 Y27.502359 
G1 X18.714337 Y27.617328 
G1 X18.849525 Y27.707656 
G1 X18.999737 Y27.769878 
G1 X19.159203 Y27.801597 
G1 X19.321794 Y27.801597 
G1 X19.481259 Y27.769878 
G1 X19.631472 Y27.707656 
G1 X19.766659 Y27.617328 
G1 X19.881628 Y27.502359 
G1 X19.971956 Y27.367172 
G1 X20.034178 Y27.216959 
G1 X20.065897 Y27.057494 
G1 X20.065897 Y25.394903 
G1 X20.034178 Y25.235437 
G1 X19.971956 Y25.085225 
G1 X19.881628 Y24.950038 
G1 X19.766659 Y24.835069 
G0 Z5.000000 
G0 X17.226659 Y24.835069 
G1 Z-0.200000 F80    
G1 X17.091472 Y24.744741 F200   
G1 X16.941259 Y24.682519 
G1 X16.781794 Y24.650800 
G1 X16.619203 Y24.650800 
G1 X16.459737 Y24.682519 
G1 X16.309525 Y24.744741 
G1 X16.174338 Y24.835069 
G1 X16.059369 Y24.950038 
G1 X15.969041 Y25.085225 
G1 X15.906819 Y25.235437 
G1 X15.875100 Y25.394903 
G1 X15.875100 Y27.057494 
G1 X15.906819 Y27.216959 
G1 X15.969041 Y27.367172 
G1 X16.059369 Y27.502359 
G1 X16.174338 Y27.617328 
G1 X16.309525 Y27.707656 
G1 X16.459737 Y27.769878 
G1 X16.619203 Y27.801597 
G1 X16.781794 Y27.801597 
G1 X16.941259 Y27.769878 
G1 X17.091472 Y27.707656 
G1 X17.226659 Y27.617328 
G1 X17.341628 Y27.502359 
G1 X17.431956 Y27.367172 
G1 X17.494178 Y27.216959 
G1 X17.525897 Y27.057494 
G1 X17.525897 Y25.394903 
G1 X17.494178 Y25.235437 
G1 X17.431956 Y25.085225 
G1 X17.341628 Y24.950038 
G1 X17.226659 Y24.835069 
G0 Z5.000000 
G0 X14.686659 Y24.835069 
G1 Z-0.200000 F80    
G1 X14.551472 Y24.744741 F200   
G1 X14.401259 Y24.682519 
G1 X14.241794 Y24.650800 
G1 X14.079203 Y24.650800 
G1 X13.919738 Y24.682519 
G1 X13.769525 Y24.744741 
G1 X13.634338 Y24.835069 
G1 X13.519369 Y24.950038 
G1 X13.429041 Y25.085225 
G1 X13.366819 Y25.235437 
G1 X13.335100 Y25.394903 
G1 X13.335100 Y27.057494 
G1 X13.366819 Y27.216959 
G1 X13.429041 Y27.367172 
G1 X13.519369 Y27.502359 
G1 X13.634338 Y27.617328 
G1 X13.769525 Y27.707656 
G1 X13.919738 Y27.769878 
G1 X14.079203 Y27.801597 
G1 X14.241794 Y27.801597 
G1 X14.401259 Y27.769878 
G1 X14.551472 Y27.707656 
G1 X14.686659 Y27.617328 
G1 X14.801628 Y27.502359 
G1 X14.891956 Y27.367172 
G1 X14.954178 Y27.216959 
G1 X14.985897 Y27.057494 
G1 X14.985897 Y25.394903 
G1 X14.954178 Y25.235437 
G1 X14.891956 Y25.085225 
G1 X14.801628 Y24.950038 
G1 X14.686659 Y24.835069 
G0 Z5.000000 
G0 X12.146659 Y24.835069 
G1 Z-0.200000 F80    
G1 X12.011472 Y24.744741 F200   
G1 X11.861259 Y24.682519 
G1 X11.701794 Y24.650800 
G1 X11.539203 Y24.650800 
G1 X11.379737 Y24.682519 
G1 X11.229525 Y24.744741 
G1 X11.094337 Y24.835069 
G1 X10.979369 Y24.950038 
G1 X10.889041 Y25.085225 
G1 X10.826819 Y25.235437 
G1 X10.795100 Y25.394903 
G1 X10.795100 Y27.057494 
G1 X10.826819 Y27.216959 
G1 X10.889041 Y27.367172 
G1 X10.979369 Y27.502359 
G1 X11.094337 Y27.617328 
G1 X11.229525 Y27.707656 
G1 X11.379737 Y27.769878 
G1 X11.539203 Y27.801597 
G1 X11.701794 Y27.801597 
G1 X11.861259 Y27.769878 
G1 X12.011472 Y27.707656 
G1 X12.146659 Y27.617328 
G1 X12.261628 Y27.502359 
G1 X12.351956 Y27.367172 
G1 X12.414178 Y27.216959 
G1 X12.445897 Y27.057494 
G1 X12.445897 Y25.394903 
G1 X12.414178 Y25.235437 
G1 X12.351956 Y25.085225 
G1 X12.261628 Y24.950038 
G1 X12.146659 Y24.835069 
G0 Z5.000000 
G0 X14.376931 Y31.695222 
G1 Z-0.200000 F80    
G1 X14.376931 Y32.304775 F200   
G1 X14.807953 Y32.735797 
G1 X15.417506 Y32.735797 
G1 X15.848528 Y32.304775 
G1 X15.848528 Y31.695222 
G1 X15.417506 Y31.264200 
G1 X14.807953 Y31.264200 
G1 X14.376931 Y31.695222 
G0 Z5.000000 
G0 X14.466962 Y33.752988 
G1 Z-0.200000 F80    
G1 X14.375322 Y33.890141 F200   
G1 X14.312197 Y34.042538 
G1 X14.280016 Y34.204322 
G1 X14.280016 Y35.893275 
G1 X14.312197 Y36.055059 
G1 X14.375322 Y36.207456 
G1 X14.466962 Y36.344609 
G1 X14.583603 Y36.461250 
G1 X14.720756 Y36.552891 
G1 X14.873153 Y36.616016 
G1 X15.034937 Y36.648197 
G1 X15.199891 Y36.648197 
G1 X15.361675 Y36.616016 
G1 X15.514072 Y36.552891 
G1 X15.651225 Y36.461250 
G1 X15.767866 Y36.344609 
G1 X15.859506 Y36.207456 
G1 X15.922631 Y36.055059 
G1 X15.954812 Y35.893275 
G1 X15.954812 Y34.204322 
G1 X15.922631 Y34.042538 
G1 X15.859506 Y33.890141 
G1 X15.767866 Y33.752988 
G1 X15.651225 Y33.636347 
G1 X15.514072 Y33.544706 
G1 X15.361675 Y33.481581 
G1 X15.199891 Y33.449400 
G1 X15.034937 Y33.449400 
G1 X14.873153 Y33.481581 
G1 X14.720756 Y33.544706 
G1 X14.583603 Y33.636347 
G1 X14.466962 Y33.752988 
G0 Z5.000000 
G0 X18.988163 Y33.752988 
G1 Z-0.200000 F80    
G1 X18.896522 Y33.890141 F200   
G1 X18.833397 Y34.042538 
G1 X18.801216 Y34.204322 
G1 X18.801216 Y35.893275 
G1 X18.833397 Y36.055059 
G1 X18.896522 Y36.207456 
G1 X18.988163 Y36.344609 
G1 X19.104803 Y36.461250 
G1 X19.241956 Y36.552891 
G1 X19.394353 Y36.616016 
G1 X19.556137 Y36.648197 
G1 X19.721091 Y36.648197 
G1 X19.882875 Y36.616016 
G1 X20.035272 Y36.552891 
G1 X20.172425 Y36.461250 
G1 X20.289066 Y36.344609 
G1 X20.380706 Y36.207456 
G1 X20.443831 Y36.055059 
G1 X20.476012 Y35.893275 
G1 X20.476012 Y34.204322 
G1 X20.443831 Y34.042538 
G1 X20.380706 Y33.890141 
G1 X20.289066 Y33.752988 
G1 X20.172425 Y33.636347 
G1 X20.035272 Y33.544706 
G1 X19.882875 Y33.481581 
G1 X19.721091 Y33.449400 
G1 X19.556137 Y33.449400 
G1 X19.394353 Y33.481581 
G1 X19.241956 Y33.544706 
G1 X19.104803 Y33.636347 
G1 X18.988163 Y33.752988 
G0 Z5.000000 
G0 X22.427953 Y32.735797 
G1 Z-0.200000 F80    
G1 X23.037506 Y32.735797 F200   
G1 X23.468528 Y32.304775 
G1 X23.468528 Y31.695222 
G1 X23.037506 Y31.264200 
G1 X22.427953 Y31.264200 
G1 X21.996931 Y31.695222 
G1 X21.996931 Y32.304775 
G1 X22.427953 Y32.735797 
G0 Z5.000000 
G0 X25.229197 Y37.847144 
G1 Z-0.200000 F80    
G1 X25.229191 Y37.847156 F200   
G1 X25.070600 Y38.005744 
G1 X25.070600 Y38.594253 
G1 X25.229191 Y38.752841 
G1 X25.328144 Y38.851800 
G1 X25.486744 Y39.010397 
G1 X25.711028 Y39.010397 
G1 X37.129441 Y39.010397 
G1 X38.967944 Y40.848900 
G1 X39.126544 Y41.007497 
G1 X39.715053 Y41.007497 
G1 X39.873641 Y40.848906 
G1 X39.972600 Y40.749953 
G1 X40.131197 Y40.591353 
G1 X40.131197 Y40.002844 
G1 X39.972606 Y39.844256 
G1 X37.876553 Y37.748197 
G1 X37.760200 Y37.670450 
G1 X37.630916 Y37.616900 
G1 X37.493669 Y37.589600 
G1 X25.486744 Y37.589600 
G1 X25.328156 Y37.748191 
G1 X25.229197 Y37.847144 
G0 Z5.000000 
G0 X25.473622 Y40.729700 
G1 Z-0.200000 F80    
G1 X24.716775 Y40.729700 F200   
G1 X24.181600 Y41.264875 
G1 X24.181600 Y42.021722 
G1 X24.716775 Y42.556897 
G1 X25.473622 Y42.556897 
G1 X26.008797 Y42.021722 
G1 X26.008797 Y41.264875 
G1 X25.473622 Y40.729700 
G0 Z5.000000 
G0 X25.232322 Y44.692100 
G1 Z-0.200000 F80    
G1 X24.475475 Y44.692100 F200   
G1 X23.940300 Y45.227275 
G1 X23.940300 Y45.984122 
G1 X24.475475 Y46.519297 
G1 X25.232322 Y46.519297 
G1 X25.767497 Y45.984122 
G1 X25.767497 Y45.227275 
G1 X25.232322 Y44.692100 
G0 Z5.000000 
G0 X25.502400 Y50.421575 
G1 Z-0.200000 F80    
G1 X25.502400 Y51.178422 F200   
G1 X26.037575 Y51.713597 
G1 X26.794422 Y51.713597 
G1 X27.329597 Y51.178422 
G1 X27.329597 Y50.421575 
G1 X26.794422 Y49.886400 
G1 X26.037575 Y49.886400 
G1 X25.502400 Y50.421575 
G0 Z5.000000 
G0 X24.789597 Y50.421575 
G1 Z-0.200000 F80    
G1 X24.254422 Y49.886400 F200   
G1 X23.497575 Y49.886400 
G1 X22.962400 Y50.421575 
G1 X22.962400 Y51.178422 
G1 X23.497575 Y51.713597 
G1 X24.254422 Y51.713597 
G1 X24.789597 Y51.178422 
G1 X24.789597 Y50.421575 
G0 Z5.000000 
G0 X22.249597 Y50.421575 
G1 Z-0.200000 F80    
G1 X21.714422 Y49.886400 F200   
G1 X20.957575 Y49.886400 
G1 X20.422400 Y50.421575 
G1 X20.422400 Y51.178422 
G1 X20.957575 Y51.713597 
G1 X21.714422 Y51.713597 
G1 X22.249597 Y51.178422 
G1 X22.249597 Y50.421575 
G0 Z5.000000 
G0 X19.709597 Y50.421575 
G1 Z-0.200000 F80    
G1 X19.174422 Y49.886400 F200   
G1 X18.417575 Y49.886400 
G1 X17.882400 Y50.421575 
G1 X17.882400 Y51.178422 
G1 X18.417575 Y51.713597 
G1 X19.174422 Y51.713597 
G1 X19.709597 Y51.178422 
G1 X19.709597 Y50.421575 
G0 Z5.000000 
G0 X19.721091 Y43.150597 
G1 Z-0.200000 F80    
G1 X19.882875 Y43.118416 F200   
G1 X20.035272 Y43.055291 
G1 X20.172425 Y42.963650 
G1 X20.289066 Y42.847009 
G1 X20.380706 Y42.709856 
G1 X20.443831 Y42.557459 
G1 X20.476012 Y42.395675 
G1 X20.476012 Y40.706722 
G1 X20.443831 Y40.544938 
G1 X20.380706 Y40.392541 
G1 X20.289066 Y40.255387 
G1 X20.172425 Y40.138747 
G1 X20.035272 Y40.047106 
G1 X19.882875 Y39.983981 
G1 X19.721091 Y39.951800 
G1 X19.556137 Y39.951800 
G1 X19.394353 Y39.983981 
G1 X19.241956 Y40.047106 
G1 X19.104803 Y40.138747 
G1 X18.988163 Y40.255387 
G1 X18.896522 Y40.392541 
G1 X18.833397 Y40.544938 
G1 X18.801216 Y40.706722 
G1 X18.801216 Y42.395675 
G1 X18.833397 Y42.557459 
G1 X18.896522 Y42.709856 
G1 X18.988163 Y42.847009 
G1 X19.104803 Y42.963650 
G1 X19.241956 Y43.055291 
G1 X19.394353 Y43.118416 
G1 X19.556137 Y43.150597 
G1 X19.721091 Y43.150597 
G0 Z5.000000 
G0 X15.767866 Y42.847009 
G1 Z-0.200000 F80    
G1 X15.859506 Y42.709856 F200   
G1 X15.922631 Y42.557459 
G1 X15.954812 Y42.395675 
G1 X15.954812 Y40.706722 
G1 X15.922631 Y40.544938 
G1 X15.859506 Y40.392541 
G1 X15.767866 Y40.255387 
G1 X15.651225 Y40.138747 
G1 X15.514072 Y40.047106 
G1 X15.361675 Y39.983981 
G1 X15.199891 Y39.951800 
G1 X15.034937 Y39.951800 
G1 X14.873153 Y39.983981 
G1 X14.720756 Y40.047106 
G1 X14.583603 Y40.138747 
G1 X14.466962 Y40.255387 
G1 X14.375322 Y40.392541 
G1 X14.312197 Y40.544938 
G1 X14.280016 Y40.706722 
G1 X14.280016 Y42.395675 
G1 X14.312197 Y42.557459 
G1 X14.375322 Y42.709856 
G1 X14.466962 Y42.847009 
G1 X14.583603 Y42.963650 
G1 X14.720756 Y43.055291 
G1 X14.873153 Y43.118416 
G1 X15.034937 Y43.150597 
G1 X15.199891 Y43.150597 
G1 X15.361675 Y43.118416 
G1 X15.514072 Y43.055291 
G1 X15.651225 Y42.963650 
G1 X15.767866 Y42.847009 
G0 Z5.000000 
G0 X28.042400 Y50.421575 
G1 Z-0.200000 F80    
G1 X28.042400 Y51.178422 F200   
G1 X28.577575 Y51.713597 
G1 X29.334422 Y51.713597 
G1 X29.869597 Y51.178422 
G1 X29.869597 Y50.421575 
G1 X29.334422 Y49.886400 
G1 X28.577575 Y49.886400 
G1 X28.042400 Y50.421575 
G0 Z5.000000 
G0 X30.582400 Y50.421575 
G1 Z-0.200000 F80    
G1 X30.582400 Y51.178422 F200   
G1 X31.117575 Y51.713597 
G1 X31.874422 Y51.713597 
G1 X32.409597 Y51.178422 
G1 X32.409597 Y50.421575 
G1 X31.874422 Y49.886400 
G1 X31.117575 Y49.886400 
G1 X30.582400 Y50.421575 
G0 Z5.000000 
G0 X33.122400 Y50.421575 
G1 Z-0.200000 F80    
G1 X33.122400 Y51.178422 F200   
G1 X33.657575 Y51.713597 
G1 X34.414422 Y51.713597 
G1 X34.949597 Y51.178422 
G1 X34.949597 Y50.421575 
G1 X34.414422 Y49.886400 
G1 X33.657575 Y49.886400 
G1 X33.122400 Y50.421575 
G0 Z5.000000 
G0 X35.662400 Y50.421575 
G1 Z-0.200000 F80    
G1 X35.662400 Y51.178422 F200   
G1 X36.197575 Y51.713597 
G1 X36.954422 Y51.713597 
G1 X37.489597 Y51.178422 
G1 X37.489597 Y50.421575 
G1 X36.954422 Y49.886400 
G1 X36.197575 Y49.886400 
G1 X35.662400 Y50.421575 
G0 Z5.000000 
G0 X38.202400 Y50.421575 
G1 Z-0.200000 F80    
G1 X38.202400 Y51.178422 F200   
G1 X38.737575 Y51.713597 
G1 X39.494422 Y51.713597 
G1 X40.029597 Y51.178422 
G1 X40.029597 Y50.421575 
G1 X39.494422 Y49.886400 
G1 X38.737575 Y49.886400 
G1 X38.202400 Y50.421575 
G0 Z5.000000 
G0 X40.742400 Y50.421575 
G1 Z-0.200000 F80    
G1 X40.742400 Y51.178422 F200   
G1 X41.277575 Y51.713597 
G1 X42.034422 Y51.713597 
G1 X42.569597 Y51.178422 
G1 X42.569597 Y50.421575 
G1 X42.034422 Y49.886400 
G1 X41.277575 Y49.886400 
G1 X40.742400 Y50.421575 
G0 Z5.000000 
G0 X41.344813 Y47.010188 
G1 Z-0.200000 F80    
G1 X41.954372 Y47.010188 F200   
G1 X42.385388 Y46.579172 
G1 X42.385388 Y45.969612 
G1 X41.954372 Y45.538597 
G1 X41.344813 Y45.538597 
G1 X40.913797 Y45.969612 
G1 X40.913797 Y46.579172 
G1 X41.344813 Y47.010188 
G0 Z5.000000 
G0 X44.950844 Y47.102828 
G1 Z-0.200000 F80    
G1 X45.368116 Y47.547175 F200   
G1 X45.977366 Y47.566322 
G1 X46.421712 Y47.149050 
G1 X46.440859 Y46.539800 
G1 X46.023587 Y46.095453 
G1 X45.414338 Y46.076306 
G1 X44.969991 Y46.493578 
G1 X44.950844 Y47.102828 
G0 Z5.000000 
G0 X45.341575 Y49.886400 
G1 Z-0.200000 F80    
G1 X44.806400 Y50.421575 F200   
G1 X44.806400 Y51.178422 
G1 X45.341575 Y51.713597 
G1 X46.098422 Y51.713597 
G1 X46.633597 Y51.178422 
G1 X46.633597 Y50.421575 
G1 X46.098422 Y49.886400 
G1 X45.341575 Y49.886400 
G0 Z5.000000 
G0 X47.346400 Y50.421575 
G1 Z-0.200000 F80    
G1 X47.346400 Y51.178422 F200   
G1 X47.881575 Y51.713597 
G1 X48.638422 Y51.713597 
G1 X49.173597 Y51.178422 
G1 X49.173597 Y50.421575 
G1 X48.638422 Y49.886400 
G1 X47.881575 Y49.886400 
G1 X47.346400 Y50.421575 
G0 Z5.000000 
G0 X49.886400 Y50.421575 
G1 Z-0.200000 F80    
G1 X49.886400 Y51.178422 F200   
G1 X50.421575 Y51.713597 
G1 X51.178422 Y51.713597 
G1 X51.713597 Y51.178422 
G1 X51.713597 Y50.421575 
G1 X51.178422 Y49.886400 
G1 X50.421575 Y49.886400 
G1 X49.886400 Y50.421575 
G0 Z5.000000 
G0 X52.426400 Y50.421575 
G1 Z-0.200000 F80    
G1 X52.426400 Y51.178422 F200   
G1 X52.961575 Y51.713597 
G1 X53.718422 Y51.713597 
G1 X54.253597 Y51.178422 
G1 X54.253597 Y50.421575 
G1 X53.718422 Y49.886400 
G1 X52.961575 Y49.886400 
G1 X52.426400 Y50.421575 
G0 Z5.000000 
G0 X54.966400 Y50.421575 
G1 Z-0.200000 F80    
G1 X54.966400 Y51.178422 F200   
G1 X55.501575 Y51.713597 
G1 X56.258422 Y51.713597 
G1 X56.793597 Y51.178422 
G1 X56.793597 Y50.421575 
G1 X56.258422 Y49.886400 
G1 X55.501575 Y49.886400 
G1 X54.966400 Y50.421575 
G0 Z5.000000 
G0 X57.506400 Y50.421575 
G1 Z-0.200000 F80    
G1 X57.506400 Y51.178422 F200   
G1 X58.041575 Y51.713597 
G1 X58.798422 Y51.713597 
G1 X59.333597 Y51.178422 
G1 X59.333597 Y50.421575 
G1 X58.798422 Y49.886400 
G1 X58.041575 Y49.886400 
G1 X57.506400 Y50.421575 
G0 Z5.000000 
G0 X60.046400 Y50.421575 
G1 Z-0.200000 F80    
G1 X60.046400 Y51.178422 F200   
G1 X60.581575 Y51.713597 
G1 X61.338422 Y51.713597 
G1 X61.873597 Y51.178422 
G1 X61.873597 Y50.421575 
G1 X61.338422 Y49.886400 
G1 X60.581575 Y49.886400 
G1 X60.046400 Y50.421575 
G0 Z5.000000 
G0 X62.586400 Y50.421575 
G1 Z-0.200000 F80    
G1 X62.586400 Y51.178422 F200   
G1 X63.121575 Y51.713597 
G1 X63.878422 Y51.713597 
G1 X64.413597 Y51.178422 
G1 X64.413597 Y50.421575 
G1 X63.878422 Y49.886400 
G1 X63.121575 Y49.886400 
G1 X62.586400 Y50.421575 
G0 Z5.000000 
G0 X62.465797 Y47.929775 
G1 Z-0.200000 F80    
G1 X62.465797 Y47.320222 F200   
G1 X62.034775 Y46.889200 
G1 X61.425222 Y46.889200 
G1 X60.994200 Y47.320222 
G1 X60.994200 Y47.929775 
G1 X61.425222 Y48.360797 
G1 X62.034775 Y48.360797 
G1 X62.465797 Y47.929775 
G0 Z5.000000 
G0 X63.534200 Y47.929775 
G1 Z-0.200000 F80    
G1 X63.965222 Y48.360797 F200   
G1 X64.574775 Y48.360797 
G1 X65.005797 Y47.929775 
G1 X65.005797 Y47.320222 
G1 X64.574775 Y46.889200 
G1 X63.965222 Y46.889200 
G1 X63.534200 Y47.320222 
G1 X63.534200 Y47.929775 
G0 Z5.000000 
G0 X63.965222 Y43.885797 
G1 Z-0.200000 F80    
G1 X64.574775 Y43.885797 F200   
G1 X65.005797 Y43.454775 
G1 X65.005797 Y42.845222 
G1 X64.574775 Y42.414200 
G1 X63.965222 Y42.414200 
G1 X63.534200 Y42.845222 
G1 X63.534200 Y43.454775 
G1 X63.965222 Y43.885797 
G0 Z5.000000 
G0 X62.465797 Y43.454775 
G1 Z-0.200000 F80    
G1 X62.465797 Y42.845222 F200   
G1 X62.034775 Y42.414200 
G1 X61.425222 Y42.414200 
G1 X60.994200 Y42.845222 
G1 X60.994200 Y43.454775 
G1 X61.425222 Y43.885797 
G1 X62.034775 Y43.885797 
G1 X62.465797 Y43.454775 
G0 Z5.000000 
G0 X62.465797 Y39.004775 
G1 Z-0.200000 F80    
G1 X62.465797 Y38.395222 F200   
G1 X62.034775 Y37.964200 
G1 X61.425222 Y37.964200 
G1 X60.994200 Y38.395222 
G1 X60.994200 Y39.004775 
G1 X61.425222 Y39.435797 
G1 X62.034775 Y39.435797 
G1 X62.465797 Y39.004775 
G0 Z5.000000 
G0 X63.534200 Y39.004775 
G1 Z-0.200000 F80    
G1 X63.965222 Y39.435797 F200   
G1 X64.574775 Y39.435797 
G1 X65.005797 Y39.004775 
G1 X65.005797 Y38.395222 
G1 X64.574775 Y37.964200 
G1 X63.965222 Y37.964200 
G1 X63.534200 Y38.395222 
G1 X63.534200 Y39.004775 
G0 Z5.000000 
G0 X51.101078 Y46.255019 
G1 Z-0.200000 F80    
G1 X50.491828 Y46.235872 F200   
G1 X50.047481 Y46.653144 
G1 X50.028334 Y47.262394 
G1 X50.445606 Y47.706741 
G1 X51.054856 Y47.725887 
G1 X51.499203 Y47.308616 
G1 X51.518350 Y46.699366 
G1 X51.101078 Y46.255019 
G0 Z5.000000 
G0 X45.977491 Y42.987069 
G1 Z-0.200000 F80    
G1 X45.977491 Y42.377509 F200   
G1 X45.546475 Y41.946494 
G1 X44.936916 Y41.946494 
G1 X44.505900 Y42.377509 
G1 X44.505900 Y42.987069 
G1 X44.936916 Y43.418084 
G1 X45.546475 Y43.418084 
G1 X45.977491 Y42.987069 
G0 Z5.000000 
G0 X43.452300 Y40.647325 
G1 Z-0.200000 F80    
G1 X43.452300 Y40.037766 F200   
G1 X43.021284 Y39.606750 
G1 X42.411725 Y39.606750 
G1 X41.980709 Y40.037766 
G1 X41.980709 Y40.647325 
G1 X42.411725 Y41.078341 
G1 X43.021284 Y41.078341 
G1 X43.452300 Y40.647325 
G0 Z5.000000 
G0 X39.429181 Y43.198853 
G1 Z-0.200000 F80    
G1 X38.819622 Y43.198853 F200   
G1 X38.388606 Y43.629869 
G1 X38.388606 Y44.239428 
G1 X38.819622 Y44.670444 
G1 X39.429181 Y44.670444 
G1 X39.860197 Y44.239428 
G1 X39.860197 Y43.629869 
G1 X39.429181 Y43.198853 
G0 Z5.000000 
G0 X36.473597 Y2.918422 
G1 Z-0.200000 F80    
G1 X36.473597 Y2.161575 F200   
G1 X35.938422 Y1.626400 
G1 X35.181575 Y1.626400 
G1 X34.646400 Y2.161575 
G1 X34.646400 Y2.918422 
G1 X35.181575 Y3.453597 
G1 X35.938422 Y3.453597 
G1 X36.473597 Y2.918422 
G0 Z5.000000 
G0 X33.933597 Y2.918422 
G1 Z-0.200000 F80    
G1 X33.933597 Y2.161575 F200   
G1 X33.398422 Y1.626400 
G1 X32.641575 Y1.626400 
G1 X32.106400 Y2.161575 
G1 X32.106400 Y2.918422 
G1 X32.641575 Y3.453597 
G1 X33.398422 Y3.453597 
G1 X33.933597 Y2.918422 
G0 Z5.000000 
G0 X31.393597 Y2.918422 
G1 Z-0.200000 F80    
G1 X31.393597 Y2.161575 F200   
G1 X30.858422 Y1.626400 
G1 X30.101575 Y1.626400 
G1 X29.566400 Y2.161575 
G1 X29.566400 Y2.918422 
G1 X30.101575 Y3.453597 
G1 X30.858422 Y3.453597 
G1 X31.393597 Y2.918422 
G0 Z5.000000 
G0 X28.853597 Y2.918422 
G1 Z-0.200000 F80    
G1 X28.853597 Y2.161575 F200   
G1 X28.318422 Y1.626400 
G1 X27.561575 Y1.626400 
G1 X27.026400 Y2.161575 
G1 X27.026400 Y2.918422 
G1 X27.561575 Y3.453597 
G1 X28.318422 Y3.453597 
G1 X28.853597 Y2.918422 
G0 Z5.000000 
G0 X3.010172 Y8.112694 
G1 Z-0.200000 F80    
G1 X2.906994 Y8.254706 F200   
G1 X2.827303 Y8.411109 
G1 X2.773059 Y8.578053 
G1 X2.745600 Y8.751428 
G1 X2.745600 Y8.926969 
G1 X2.773059 Y9.100344 
G1 X2.827303 Y9.267288 
G1 X2.906994 Y9.423691 
G1 X3.010172 Y9.565703 
G1 X3.134294 Y9.689825 
G1 X3.276306 Y9.793003 
G1 X3.432709 Y9.872694 
G1 X3.599653 Y9.926937 
G1 X3.773028 Y9.954397 
G1 X3.948569 Y9.954397 
G1 X4.121944 Y9.926937 
G1 X4.288888 Y9.872694 
G1 X4.445291 Y9.793003 
G1 X4.587303 Y9.689825 
G1 X4.711425 Y9.565703 
G1 X4.814603 Y9.423691 
G1 X4.894294 Y9.267288 
G1 X4.948537 Y9.100344 
G1 X4.975997 Y8.926969 
G1 X4.975997 Y8.751428 
G1 X4.948537 Y8.578053 
G1 X4.894294 Y8.411109 
G1 X4.814603 Y8.254706 
G1 X4.711425 Y8.112694 
G1 X4.587303 Y7.988572 
G1 X4.445291 Y7.885394 
G1 X4.288888 Y7.805703 
G1 X4.121944 Y7.751459 
G1 X3.948569 Y7.724000 
G1 X3.773028 Y7.724000 
G1 X3.599653 Y7.751459 
G1 X3.432709 Y7.805703 
G1 X3.276306 Y7.885394 
G1 X3.134294 Y7.988572 
G1 X3.010172 Y8.112694 
G0 Z5.000000 
G0 X5.727972 Y8.112694 
G1 Z-0.200000 F80    
G1 X5.624794 Y8.254706 F200   
G1 X5.545103 Y8.411109 
G1 X5.490859 Y8.578053 
G1 X5.463400 Y8.751428 
G1 X5.463400 Y8.926969 
G1 X5.490859 Y9.100344 
G1 X5.545103 Y9.267288 
G1 X5.624794 Y9.423691 
G1 X5.727972 Y9.565703 
G1 X5.852094 Y9.689825 
G1 X5.994106 Y9.793003 
G1 X6.150509 Y9.872694 
G1 X6.317453 Y9.926937 
G1 X6.490828 Y9.954397 
G1 X6.666369 Y9.954397 
G1 X6.839744 Y9.926937 
G1 X7.006687 Y9.872694 
G1 X7.163091 Y9.793003 
G1 X7.305103 Y9.689825 
G1 X7.429225 Y9.565703 
G1 X7.532403 Y9.423691 
G1 X7.612094 Y9.267288 
G1 X7.666338 Y9.100344 
G1 X7.693797 Y8.926969 
G1 X7.693797 Y8.751428 
G1 X7.666338 Y8.578053 
G1 X7.612094 Y8.411109 
G1 X7.532403 Y8.254706 
G1 X7.429225 Y8.112694 
G1 X7.305103 Y7.988572 
G1 X7.163091 Y7.885394 
G1 X7.006687 Y7.805703 
G1 X6.839744 Y7.751459 
G1 X6.666369 Y7.724000 
G1 X6.490828 Y7.724000 
G1 X6.317453 Y7.751459 
G1 X6.150509 Y7.805703 
G1 X5.994106 Y7.885394 
G1 X5.852094 Y7.988572 
G1 X5.727972 Y8.112694 
G0 Z5.000000 
G0 X8.445772 Y8.112694 
G1 Z-0.200000 F80    
G1 X8.342594 Y8.254706 F200   
G1 X8.262903 Y8.411109 
G1 X8.208659 Y8.578053 
G1 X8.181200 Y8.751428 
G1 X8.181200 Y8.926969 
G1 X8.208659 Y9.100344 
G1 X8.262903 Y9.267288 
G1 X8.342594 Y9.423691 
G1 X8.445772 Y9.565703 
G1 X8.569894 Y9.689825 
G1 X8.711906 Y9.793003 
G1 X8.868309 Y9.872694 
G1 X9.035253 Y9.926937 
G1 X9.208628 Y9.954397 
G1 X9.384169 Y9.954397 
G1 X9.557544 Y9.926937 
G1 X9.724488 Y9.872694 
G1 X9.880891 Y9.793003 
G1 X10.022903 Y9.689825 
G1 X10.147025 Y9.565703 
G1 X10.250203 Y9.423691 
G1 X10.329894 Y9.267288 
G1 X10.384137 Y9.100344 
G1 X10.411597 Y8.926969 
G1 X10.411597 Y8.751428 
G1 X10.384137 Y8.578053 
G1 X10.329894 Y8.411109 
G1 X10.250203 Y8.254706 
G1 X10.147025 Y8.112694 
G1 X10.022903 Y7.988572 
G1 X9.880891 Y7.885394 
G1 X9.724488 Y7.805703 
G1 X9.557544 Y7.751459 
G1 X9.384169 Y7.724000 
G1 X9.208628 Y7.724000 
G1 X9.035253 Y7.751459 
G1 X8.868309 Y7.805703 
G1 X8.711906 Y7.885394 
G1 X8.569894 Y7.988572 
G1 X8.445772 Y8.112694 
G0 Z5.000000 
G0 X16.545128 Y8.253772 
G1 Z-0.200000 F80    
G1 X16.439763 Y8.411463 F200   
G1 X16.367184 Y8.586681 
G1 X16.330184 Y8.772691 
G1 X16.330184 Y8.962350 
G1 X16.367184 Y9.148359 
G1 X16.439763 Y9.323578 
G1 X16.545128 Y9.481269 
G1 X16.679234 Y9.615375 
G1 X16.836925 Y9.720741 
G1 X17.012144 Y9.793319 
G1 X17.198153 Y9.830319 
G1 X17.387812 Y9.830319 
G1 X17.573822 Y9.793319 
G1 X17.749041 Y9.720741 
G1 X17.906731 Y9.615375 
G1 X18.040837 Y9.481269 
G1 X18.146203 Y9.323578 
G1 X18.218781 Y9.148359 
G1 X18.255781 Y8.962350 
G1 X18.255781 Y8.772691 
G1 X18.218781 Y8.586681 
G1 X18.146203 Y8.411463 
G1 X18.040837 Y8.253772 
G1 X17.906731 Y8.119666 
G1 X17.749041 Y8.014300 
G1 X17.573822 Y7.941722 
G1 X17.387812 Y7.904722 
G1 X17.198153 Y7.904722 
G1 X17.012144 Y7.941722 
G1 X16.836925 Y8.014300 
G1 X16.679234 Y8.119666 
G1 X16.545128 Y8.253772 
G0 Z5.000000 
G0 X18.870184 Y8.468716 
G1 Z-0.200000 F80    
G1 X18.870184 Y9.266325 F200   
G1 X19.434178 Y9.830319 
G1 X20.231787 Y9.830319 
G1 X20.795781 Y9.266325 
G1 X20.795781 Y8.468716 
G1 X20.231787 Y7.904722 
G1 X19.434178 Y7.904722 
G1 X18.870184 Y8.468716 
G0 Z5.000000 
G0 X18.970569 Y15.466363 
G1 Z-0.200000 F80    
G1 X18.802156 Y15.536122 F200   
G1 X18.650591 Y15.637394 
G1 X18.521694 Y15.766291 
G1 X18.420422 Y15.917856 
G1 X18.350662 Y16.086269 
G1 X18.315100 Y16.265053 
G1 X18.315100 Y17.947344 
G1 X18.350662 Y18.126128 
G1 X18.420422 Y18.294541 
G1 X18.521694 Y18.446106 
G1 X18.650591 Y18.575003 
G1 X18.802156 Y18.676275 
G1 X18.970569 Y18.746034 
G1 X19.149353 Y18.781597 
G1 X19.331644 Y18.781597 
G1 X19.510428 Y18.746034 
G1 X19.678841 Y18.676275 
G1 X19.830406 Y18.575003 
G1 X19.959303 Y18.446106 
G1 X20.060575 Y18.294541 
G1 X20.130334 Y18.126128 
G1 X20.165897 Y17.947344 
G1 X20.165897 Y16.265053 
G1 X20.130334 Y16.086269 
G1 X20.060575 Y15.917856 
G1 X19.959303 Y15.766291 
G1 X19.830406 Y15.637394 
G1 X19.678841 Y15.536122 
G1 X19.510428 Y15.466363 
G1 X19.331644 Y15.430800 
G1 X19.149353 Y15.430800 
G1 X18.970569 Y15.466363 
G0 Z5.000000 
G0 X17.290406 Y15.637394 
G1 Z-0.200000 F80    
G1 X17.138841 Y15.536122 F200   
G1 X16.970428 Y15.466363 
G1 X16.791644 Y15.430800 
G1 X16.609353 Y15.430800 
G1 X16.430569 Y15.466363 
G1 X16.262156 Y15.536122 
G1 X16.110591 Y15.637394 
G1 X15.981694 Y15.766291 
G1 X15.880422 Y15.917856 
G1 X15.810662 Y16.086269 
G1 X15.775100 Y16.265053 
G1 X15.775100 Y17.947344 
G1 X15.810662 Y18.126128 
G1 X15.880422 Y18.294541 
G1 X15.981694 Y18.446106 
G1 X16.110591 Y18.575003 
G1 X16.262156 Y18.676275 
G1 X16.430569 Y18.746034 
G1 X16.609353 Y18.781597 
G1 X16.791644 Y18.781597 
G1 X16.970428 Y18.746034 
G1 X17.138841 Y18.676275 
G1 X17.290406 Y18.575003 
G1 X17.419303 Y18.446106 
G1 X17.520575 Y18.294541 
G1 X17.590334 Y18.126128 
G1 X17.625897 Y17.947344 
G1 X17.625897 Y16.265053 
G1 X17.590334 Y16.086269 
G1 X17.520575 Y15.917856 
G1 X17.419303 Y15.766291 
G1 X17.290406 Y15.637394 
G0 Z5.000000 
G0 X14.750406 Y15.637394 
G1 Z-0.200000 F80    
G1 X14.598841 Y15.536122 F200   
G1 X14.430428 Y15.466363 
G1 X14.251644 Y15.430800 
G1 X14.069353 Y15.430800 
G1 X13.890569 Y15.466363 
G1 X13.722156 Y15.536122 
G1 X13.570591 Y15.637394 
G1 X13.441694 Y15.766291 
G1 X13.340422 Y15.917856 
G1 X13.270663 Y16.086269 
G1 X13.235100 Y16.265053 
G1 X13.235100 Y17.947344 
G1 X13.270663 Y18.126128 
G1 X13.340422 Y18.294541 
G1 X13.441694 Y18.446106 
G1 X13.570591 Y18.575003 
G1 X13.722156 Y18.676275 
G1 X13.890569 Y18.746034 
G1 X14.069353 Y18.781597 
G1 X14.251644 Y18.781597 
G1 X14.430428 Y18.746034 
G1 X14.598841 Y18.676275 
G1 X14.750406 Y18.575003 
G1 X14.879303 Y18.446106 
G1 X14.980575 Y18.294541 
G1 X15.050334 Y18.126128 
G1 X15.085897 Y17.947344 
G1 X15.085897 Y16.265053 
G1 X15.050334 Y16.086269 
G1 X14.980575 Y15.917856 
G1 X14.879303 Y15.766291 
G1 X14.750406 Y15.637394 
G0 Z5.000000 
G0 X12.210406 Y15.637394 
G1 Z-0.200000 F80    
G1 X12.058841 Y15.536122 F200   
G1 X11.890428 Y15.466363 
G1 X11.711644 Y15.430800 
G1 X11.529353 Y15.430800 
G1 X11.350569 Y15.466363 
G1 X11.182156 Y15.536122 
G1 X11.030591 Y15.637394 
G1 X10.901694 Y15.766291 
G1 X10.800422 Y15.917856 
G1 X10.730662 Y16.086269 
G1 X10.695100 Y16.265053 
G1 X10.695100 Y17.947344 
G1 X10.730662 Y18.126128 
G1 X10.800422 Y18.294541 
G1 X10.901694 Y18.446106 
G1 X11.030591 Y18.575003 
G1 X11.182156 Y18.676275 
G1 X11.350569 Y18.746034 
G1 X11.529353 Y18.781597 
G1 X11.711644 Y18.781597 
G1 X11.890428 Y18.746034 
G1 X12.058841 Y18.676275 
G1 X12.210406 Y18.575003 
G1 X12.339303 Y18.446106 
G1 X12.440575 Y18.294541 
G1 X12.510334 Y18.126128 
G1 X12.545897 Y17.947344 
G1 X12.545897 Y16.265053 
G1 X12.510334 Y16.086269 
G1 X12.440575 Y15.917856 
G1 X12.339303 Y15.766291 
G1 X12.210406 Y15.637394 
G0 Z5.000000 
G0 X21.061694 Y15.766291 
G1 Z-0.200000 F80    
G1 X20.960422 Y15.917856 F200   
G1 X20.890663 Y16.086269 
G1 X20.855100 Y16.265053 
G1 X20.855100 Y17.947344 
G1 X20.890663 Y18.126128 
G1 X20.960422 Y18.294541 
G1 X21.061694 Y18.446106 
G1 X21.190591 Y18.575003 
G1 X21.342156 Y18.676275 
G1 X21.510569 Y18.746034 
G1 X21.689353 Y18.781597 
G1 X21.871644 Y18.781597 
G1 X22.050428 Y18.746034 
G1 X22.218841 Y18.676275 
G1 X22.370406 Y18.575003 
G1 X22.499303 Y18.446106 
G1 X22.600575 Y18.294541 
G1 X22.670334 Y18.126128 
G1 X22.705897 Y17.947344 
G1 X22.705897 Y16.265053 
G1 X22.670334 Y16.086269 
G1 X22.600575 Y15.917856 
G1 X22.499303 Y15.766291 
G1 X22.370406 Y15.637394 
G1 X22.218841 Y15.536122 
G1 X22.050428 Y15.466363 
G1 X21.871644 Y15.430800 
G1 X21.689353 Y15.430800 
G1 X21.510569 Y15.466363 
G1 X21.342156 Y15.536122 
G1 X21.190591 Y15.637394 
G1 X21.061694 Y15.766291 
G0 Z5.000000 
G0 X23.601694 Y15.766291 
G1 Z-0.200000 F80    
G1 X23.500422 Y15.917856 F200   
G1 X23.430663 Y16.086269 
G1 X23.395100 Y16.265053 
G1 X23.395100 Y17.947344 
G1 X23.430663 Y18.126128 
G1 X23.500422 Y18.294541 
G1 X23.601694 Y18.446106 
G1 X23.730591 Y18.575003 
G1 X23.882156 Y18.676275 
G1 X24.050569 Y18.746034 
G1 X24.229353 Y18.781597 
G1 X24.411644 Y18.781597 
G1 X24.590428 Y18.746034 
G1 X24.758841 Y18.676275 
G1 X24.910406 Y18.575003 
G1 X25.039303 Y18.446106 
G1 X25.140575 Y18.294541 
G1 X25.210334 Y18.126128 
G1 X25.245897 Y17.947344 
G1 X25.245897 Y16.265053 
G1 X25.210334 Y16.086269 
G1 X25.140575 Y15.917856 
G1 X25.039303 Y15.766291 
G1 X24.910406 Y15.637394 
G1 X24.758841 Y15.536122 
G1 X24.590428 Y15.466363 
G1 X24.411644 Y15.430800 
G1 X24.229353 Y15.430800 
G1 X24.050569 Y15.466363 
G1 X23.882156 Y15.536122 
G1 X23.730591 Y15.637394 
G1 X23.601694 Y15.766291 
G0 Z5.000000 
G0 X26.141694 Y15.766291 
G1 Z-0.200000 F80    
G1 X26.040422 Y15.917856 F200   
G1 X25.970662 Y16.086269 
G1 X25.935100 Y16.265053 
G1 X25.935100 Y17.947344 
G1 X25.970662 Y18.126128 
G1 X26.040422 Y18.294541 
G1 X26.141694 Y18.446106 
G1 X26.270591 Y18.575003 
G1 X26.422156 Y18.676275 
G1 X26.590569 Y18.746034 
G1 X26.769353 Y18.781597 
G1 X26.951644 Y18.781597 
G1 X27.130428 Y18.746034 
G1 X27.298841 Y18.676275 
G1 X27.450406 Y18.575003 
G1 X27.579303 Y18.446106 
G1 X27.680575 Y18.294541 
G1 X27.750334 Y18.126128 
G1 X27.785897 Y17.947344 
G1 X27.785897 Y16.265053 
G1 X27.750334 Y16.086269 
G1 X27.680575 Y15.917856 
G1 X27.579303 Y15.766291 
G1 X27.450406 Y15.637394 
G1 X27.298841 Y15.536122 
G1 X27.130428 Y15.466363 
G1 X26.951644 Y15.430800 
G1 X26.769353 Y15.430800 
G1 X26.590569 Y15.466363 
G1 X26.422156 Y15.536122 
G1 X26.270591 Y15.637394 
G1 X26.141694 Y15.766291 
G0 Z5.000000 
G0 X28.681694 Y15.766291 
G1 Z-0.200000 F80    
G1 X28.580422 Y15.917856 F200   
G1 X28.510662 Y16.086269 
G1 X28.475100 Y16.265053 
G1 X28.475100 Y17.947344 
G1 X28.510662 Y18.126128 
G1 X28.580422 Y18.294541 
G1 X28.681694 Y18.446106 
G1 X28.810591 Y18.575003 
G1 X28.962156 Y18.676275 
G1 X29.130569 Y18.746034 
G1 X29.309353 Y18.781597 
G1 X29.491644 Y18.781597 
G1 X29.670428 Y18.746034 
G1 X29.838841 Y18.676275 
G1 X29.990406 Y18.575003 
G1 X30.119303 Y18.446106 
G1 X30.220575 Y18.294541 
G1 X30.290334 Y18.126128 
G1 X30.325897 Y17.947344 
G1 X30.325897 Y16.265053 
G1 X30.290334 Y16.086269 
G1 X30.220575 Y15.917856 
G1 X30.119303 Y15.766291 
G1 X29.990406 Y15.637394 
G1 X29.838841 Y15.536122 
G1 X29.670428 Y15.466363 
G1 X29.491644 Y15.430800 
G1 X29.309353 Y15.430800 
G1 X29.130569 Y15.466363 
G1 X28.962156 Y15.536122 
G1 X28.810591 Y15.637394 
G1 X28.681694 Y15.766291 
G0 Z5.000000 
G0 X31.221694 Y15.766291 
G1 Z-0.200000 F80    
G1 X31.120422 Y15.917856 F200   
G1 X31.050663 Y16.086269 
G1 X31.015100 Y16.265053 
G1 X31.015100 Y17.947344 
G1 X31.050663 Y18.126128 
G1 X31.120422 Y18.294541 
G1 X31.221694 Y18.446106 
G1 X31.350591 Y18.575003 
G1 X31.502156 Y18.676275 
G1 X31.670569 Y18.746034 
G1 X31.849353 Y18.781597 
G1 X32.031644 Y18.781597 
G1 X32.210428 Y18.746034 
G1 X32.378841 Y18.676275 
G1 X32.530406 Y18.575003 
G1 X32.659303 Y18.446106 
G1 X32.760575 Y18.294541 
G1 X32.830334 Y18.126128 
G1 X32.865897 Y17.947344 
G1 X32.865897 Y16.265053 
G1 X32.830334 Y16.086269 
G1 X32.760575 Y15.917856 
G1 X32.659303 Y15.766291 
G1 X32.530406 Y15.637394 
G1 X32.378841 Y15.536122 
G1 X32.210428 Y15.466363 
G1 X32.031644 Y15.430800 
G1 X31.849353 Y15.430800 
G1 X31.670569 Y15.466363 
G1 X31.502156 Y15.536122 
G1 X31.350591 Y15.637394 
G1 X31.221694 Y15.766291 
G0 Z5.000000 
G0 X33.761694 Y15.766291 
G1 Z-0.200000 F80    
G1 X33.660422 Y15.917856 F200   
G1 X33.590663 Y16.086269 
G1 X33.555100 Y16.265053 
G1 X33.555100 Y17.947344 
G1 X33.590663 Y18.126128 
G1 X33.660422 Y18.294541 
G1 X33.761694 Y18.446106 
G1 X33.890591 Y18.575003 
G1 X34.042156 Y18.676275 
G1 X34.210569 Y18.746034 
G1 X34.389353 Y18.781597 
G1 X34.571644 Y18.781597 
G1 X34.750428 Y18.746034 
G1 X34.918841 Y18.676275 
G1 X35.070406 Y18.575003 
G1 X35.199303 Y18.446106 
G1 X35.300575 Y18.294541 
G1 X35.370334 Y18.126128 
G1 X35.405897 Y17.947344 
G1 X35.405897 Y16.265053 
G1 X35.370334 Y16.086269 
G1 X35.300575 Y15.917856 
G1 X35.199303 Y15.766291 
G1 X35.070406 Y15.637394 
G1 X34.918841 Y15.536122 
G1 X34.750428 Y15.466363 
G1 X34.571644 Y15.430800 
G1 X34.389353 Y15.430800 
G1 X34.210569 Y15.466363 
G1 X34.042156 Y15.536122 
G1 X33.890591 Y15.637394 
G1 X33.761694 Y15.766291 
G0 Z5.000000 
G0 X36.301694 Y15.766291 
G1 Z-0.200000 F80    
G1 X36.200422 Y15.917856 F200   
G1 X36.130662 Y16.086269 
G1 X36.095100 Y16.265053 
G1 X36.095100 Y17.947344 
G1 X36.130662 Y18.126128 
G1 X36.200422 Y18.294541 
G1 X36.301694 Y18.446106 
G1 X36.430591 Y18.575003 
G1 X36.582156 Y18.676275 
G1 X36.750569 Y18.746034 
G1 X36.929353 Y18.781597 
G1 X37.111644 Y18.781597 
G1 X37.290428 Y18.746034 
G1 X37.458841 Y18.676275 
G1 X37.610406 Y18.575003 
G1 X37.739303 Y18.446106 
G1 X37.840575 Y18.294541 
G1 X37.910334 Y18.126128 
G1 X37.945897 Y17.947344 
G1 X37.945897 Y16.265053 
G1 X37.910334 Y16.086269 
G1 X37.840575 Y15.917856 
G1 X37.739303 Y15.766291 
G1 X37.610406 Y15.637394 
G1 X37.458841 Y15.536122 
G1 X37.290428 Y15.466363 
G1 X37.111644 Y15.430800 
G1 X36.929353 Y15.430800 
G1 X36.750569 Y15.466363 
G1 X36.582156 Y15.536122 
G1 X36.430591 Y15.637394 
G1 X36.301694 Y15.766291 
G0 Z5.000000 
G0 X38.841694 Y15.766291 
G1 Z-0.200000 F80    
G1 X38.740422 Y15.917856 F200   
G1 X38.670662 Y16.086269 
G1 X38.635100 Y16.265053 
G1 X38.635100 Y17.947344 
G1 X38.670662 Y18.126128 
G1 X38.740422 Y18.294541 
G1 X38.841694 Y18.446106 
G1 X38.970591 Y18.575003 
G1 X39.122156 Y18.676275 
G1 X39.290569 Y18.746034 
G1 X39.469353 Y18.781597 
G1 X39.651644 Y18.781597 
G1 X39.830428 Y18.746034 
G1 X39.998841 Y18.676275 
G1 X40.150406 Y18.575003 
G1 X40.279303 Y18.446106 
G1 X40.380575 Y18.294541 
G1 X40.450334 Y18.126128 
G1 X40.485897 Y17.947344 
G1 X40.485897 Y16.265053 
G1 X40.450334 Y16.086269 
G1 X40.380575 Y15.917856 
G1 X40.279303 Y15.766291 
G1 X40.150406 Y15.637394 
G1 X39.998841 Y15.536122 
G1 X39.830428 Y15.466363 
G1 X39.651644 Y15.430800 
G1 X39.469353 Y15.430800 
G1 X39.290569 Y15.466363 
G1 X39.122156 Y15.536122 
G1 X38.970591 Y15.637394 
G1 X38.841694 Y15.766291 
G0 Z5.000000 
G0 X41.381694 Y15.766291 
G1 Z-0.200000 F80    
G1 X41.280422 Y15.917856 F200   
G1 X41.210662 Y16.086269 
G1 X41.175100 Y16.265053 
G1 X41.175100 Y17.947344 
G1 X41.210662 Y18.126128 
G1 X41.280422 Y18.294541 
G1 X41.381694 Y18.446106 
G1 X41.510591 Y18.575003 
G1 X41.662156 Y18.676275 
G1 X41.830569 Y18.746034 
G1 X42.009353 Y18.781597 
G1 X42.191644 Y18.781597 
G1 X42.370428 Y18.746034 
G1 X42.538841 Y18.676275 
G1 X42.690406 Y18.575003 
G1 X42.819303 Y18.446106 
G1 X42.920575 Y18.294541 
G1 X42.990334 Y18.126128 
G1 X43.025897 Y17.947344 
G1 X43.025897 Y16.265053 
G1 X42.990334 Y16.086269 
G1 X42.920575 Y15.917856 
G1 X42.819303 Y15.766291 
G1 X42.690406 Y15.637394 
G1 X42.538841 Y15.536122 
G1 X42.370428 Y15.466363 
G1 X42.191644 Y15.430800 
G1 X42.009353 Y15.430800 
G1 X41.830569 Y15.466363 
G1 X41.662156 Y15.536122 
G1 X41.510591 Y15.637394 
G1 X41.381694 Y15.766291 
G0 Z5.000000 
G0 X43.921694 Y15.766291 
G1 Z-0.200000 F80    
G1 X43.820422 Y15.917856 F200   
G1 X43.750662 Y16.086269 
G1 X43.715100 Y16.265053 
G1 X43.715100 Y17.947344 
G1 X43.750662 Y18.126128 
G1 X43.820422 Y18.294541 
G1 X43.921694 Y18.446106 
G1 X44.050591 Y18.575003 
G1 X44.202156 Y18.676275 
G1 X44.370569 Y18.746034 
G1 X44.549353 Y18.781597 
G1 X44.731644 Y18.781597 
G1 X44.910428 Y18.746034 
G1 X45.078841 Y18.676275 
G1 X45.230406 Y18.575003 
G1 X45.359303 Y18.446106 
G1 X45.460575 Y18.294541 
G1 X45.530334 Y18.126128 
G1 X45.565897 Y17.947344 
G1 X45.565897 Y16.265053 
G1 X45.530334 Y16.086269 
G1 X45.460575 Y15.917856 
G1 X45.359303 Y15.766291 
G1 X45.230406 Y15.637394 
G1 X45.078841 Y15.536122 
G1 X44.910428 Y15.466363 
G1 X44.731644 Y15.430800 
G1 X44.549353 Y15.430800 
G1 X44.370569 Y15.466363 
G1 X44.202156 Y15.536122 
G1 X44.050591 Y15.637394 
G1 X43.921694 Y15.766291 
G0 Z5.000000 
G0 X43.537097 Y10.016797 
G1 Z-0.200000 F80    
G1 X44.026697 Y9.527197 F200   
G1 X44.026697 Y8.834800 
G1 X43.537097 Y8.345200 
G1 X42.844700 Y8.345200 
G1 X42.355100 Y8.834800 
G1 X42.355100 Y9.527197 
G1 X42.844700 Y10.016797 
G1 X43.537097 Y10.016797 
G0 Z5.000000 
G0 X38.946697 Y9.527197 
G1 Z-0.200000 F80    
G1 X38.946697 Y8.834800 F200   
G1 X38.457097 Y8.345200 
G1 X37.764700 Y8.345200 
G1 X37.275100 Y8.834800 
G1 X37.275100 Y9.527197 
G1 X37.764700 Y10.016797 
G1 X38.457097 Y10.016797 
G1 X38.946697 Y9.527197 
G0 Z5.000000 
G0 X38.519844 Y3.553597 
G1 Z-0.200000 F80    
G1 X39.113597 Y2.959844 F200   
G1 X39.113597 Y2.120153 
G1 X38.519844 Y1.526400 
G1 X37.680153 Y1.526400 
G1 X37.086400 Y2.120153 
G1 X37.086400 Y2.959844 
G1 X37.680153 Y3.553597 
G1 X38.519844 Y3.553597 
G0 Z5.000000 
G0 X40.220153 Y3.553597 
G1 Z-0.200000 F80    
G1 X41.059844 Y3.553597 F200   
G1 X41.653597 Y2.959844 
G1 X41.653597 Y2.120153 
G1 X41.059844 Y1.526400 
G1 X40.220153 Y1.526400 
G1 X39.626400 Y2.120153 
G1 X39.626400 Y2.959844 
G1 X40.220153 Y3.553597 
G0 Z5.000000 
G0 X42.760153 Y3.553597 
G1 Z-0.200000 F80    
G1 X43.599844 Y3.553597 F200   
G1 X44.193597 Y2.959844 
G1 X44.193597 Y2.120153 
G1 X43.599844 Y1.526400 
G1 X42.760153 Y1.526400 
G1 X42.166400 Y2.120153 
G1 X42.166400 Y2.959844 
G1 X42.760153 Y3.553597 
G0 Z5.000000 
G0 X45.300153 Y3.553597 
G1 Z-0.200000 F80    
G1 X46.139844 Y3.553597 F200   
G1 X46.733597 Y2.959844 
G1 X46.733597 Y2.120153 
G1 X46.139844 Y1.526400 
G1 X45.300153 Y1.526400 
G1 X44.706400 Y2.120153 
G1 X44.706400 Y2.959844 
G1 X45.300153 Y3.553597 
G0 Z5.000000 
G0 X50.380153 Y3.553597 
G1 Z-0.200000 F80    
G1 X51.219844 Y3.553597 F200   
G1 X51.813597 Y2.959844 
G1 X51.813597 Y2.120153 
G1 X51.219844 Y1.526400 
G1 X50.380153 Y1.526400 
G1 X49.786400 Y2.120153 
G1 X49.786400 Y2.959844 
G1 X50.380153 Y3.553597 
G0 Z5.000000 
G0 X52.920153 Y3.553597 
G1 Z-0.200000 F80    
G1 X53.759844 Y3.553597 F200   
G1 X54.353597 Y2.959844 
G1 X54.353597 Y2.120153 
G1 X53.759844 Y1.526400 
G1 X52.920153 Y1.526400 
G1 X52.326400 Y2.120153 
G1 X52.326400 Y2.959844 
G1 X52.920153 Y3.553597 
G0 Z5.000000 
G0 X55.460153 Y3.553597 
G1 Z-0.200000 F80    
G1 X56.299844 Y3.553597 F200   
G1 X56.893597 Y2.959844 
G1 X56.893597 Y2.120153 
G1 X56.299844 Y1.526400 
G1 X55.460153 Y1.526400 
G1 X54.866400 Y2.120153 
G1 X54.866400 Y2.959844 
G1 X55.460153 Y3.553597 
G0 Z5.000000 
G0 X58.000153 Y3.553597 
G1 Z-0.200000 F80    
G1 X58.839844 Y3.553597 F200   
G1 X59.433597 Y2.959844 
G1 X59.433597 Y2.120153 
G1 X58.839844 Y1.526400 
G1 X58.000153 Y1.526400 
G1 X57.406400 Y2.120153 
G1 X57.406400 Y2.959844 
G1 X58.000153 Y3.553597 
G0 Z5.000000 
G0 X60.540153 Y3.553597 
G1 Z-0.200000 F80    
G1 X61.379844 Y3.553597 F200   
G1 X61.973597 Y2.959844 
G1 X61.973597 Y2.120153 
G1 X61.379844 Y1.526400 
G1 X60.540153 Y1.526400 
G1 X59.946400 Y2.120153 
G1 X59.946400 Y2.959844 
G1 X60.540153 Y3.553597 
G0 Z5.000000 
G0 X63.080153 Y3.553597 
G1 Z-0.200000 F80    
G1 X63.919844 Y3.553597 F200   
G1 X64.513597 Y2.959844 
G1 X64.513597 Y2.120153 
G1 X63.919844 Y1.526400 
G1 X63.080153 Y1.526400 
G1 X62.486400 Y2.120153 
G1 X62.486400 Y2.959844 
G1 X63.080153 Y3.553597 
G0 Z5.000000 
G0 X62.988350 Y18.504853 
G1 Z-0.200000 F80    
G1 X62.439234 Y19.053969 F200   
G1 X62.439234 Y19.830534 
G1 X62.988350 Y20.379650 
G1 X63.764916 Y20.379650 
G1 X64.314031 Y19.830534 
G1 X64.314031 Y19.053969 
G1 X63.764916 Y18.504853 
G1 X62.988350 Y18.504853 
G0 Z5.000000 
G0 X61.774031 Y19.053969 
G1 Z-0.200000 F80    
G1 X61.224916 Y18.504853 F200   
G1 X60.448350 Y18.504853 
G1 X59.899234 Y19.053969 
G1 X59.899234 Y19.830534 
G1 X60.448350 Y20.379650 
G1 X61.224916 Y20.379650 
G1 X61.774031 Y19.830534 
G1 X61.774031 Y19.053969 
G0 Z5.000000 
G0 X61.774031 Y21.593969 
G1 Z-0.200000 F80    
G1 X61.224916 Y21.044853 F200   
G1 X60.448350 Y21.044853 
G1 X59.899234 Y21.593969 
G1 X59.899234 Y22.370534 
G1 X60.448350 Y22.919650 
G1 X61.224916 Y22.919650 
G1 X61.774031 Y22.370534 
G1 X61.774031 Y21.593969 
G0 Z5.000000 
G0 X62.439234 Y21.593969 
G1 Z-0.200000 F80    
G1 X62.439234 Y22.370534 F200   
G1 X62.988350 Y22.919650 
G1 X63.764916 Y22.919650 
G1 X64.314031 Y22.370534 
G1 X64.314031 Y21.593969 
G1 X63.764916 Y21.044853 
G1 X62.988350 Y21.044853 
G1 X62.439234 Y21.593969 
G0 Z5.000000 
G0 X62.439234 Y24.133969 
G1 Z-0.200000 F80    
G1 X62.439234 Y24.910534 F200   
G1 X62.988350 Y25.459650 
G1 X63.764916 Y25.459650 
G1 X64.314031 Y24.910534 
G1 X64.314031 Y24.133969 
G1 X63.764916 Y23.584853 
G1 X62.988350 Y23.584853 
G1 X62.439234 Y24.133969 
G0 Z5.000000 
G0 X61.774031 Y23.725362 
G1 Z-0.200000 F80    
G1 X61.747328 Y23.660897 F200   
G1 X61.697988 Y23.611556 
G1 X61.633522 Y23.584853 
G1 X60.039744 Y23.584853 
G1 X59.975278 Y23.611556 
G1 X59.925938 Y23.660897 
G1 X59.899234 Y23.725362 
G1 X59.899234 Y25.319141 
G1 X59.925938 Y25.383606 
G1 X59.975278 Y25.432947 
G1 X60.039744 Y25.459650 
G1 X61.633522 Y25.459650 
G1 X61.697988 Y25.432947 
G1 X61.747328 Y25.383606 
G1 X61.774031 Y25.319141 
G1 X61.774031 Y23.725362 
G0 Z5.000000 
G0 X57.896897 Y20.434075 
G1 Z-0.200000 F80    
G1 X57.899466 Y20.417725 F200   
G1 X57.934997 Y20.229522 
G1 X57.934997 Y18.632475 
G1 X57.900925 Y18.461188 
G1 X57.834091 Y18.299834 
G1 X57.737066 Y18.154625 
G1 X57.613572 Y18.031131 
G1 X57.468362 Y17.934106 
G1 X57.307009 Y17.867272 
G1 X57.135722 Y17.833200 
G1 X56.961075 Y17.833200 
G1 X56.789788 Y17.867272 
G1 X56.628434 Y17.934106 
G1 X56.483225 Y18.031131 
G1 X56.359731 Y18.154625 
G1 X56.262706 Y18.299834 
G1 X56.195872 Y18.461188 
G1 X56.161800 Y18.632475 
G1 X56.161800 Y20.229522 
G1 X56.195872 Y20.400809 
G1 X56.262706 Y20.562162 
G1 X56.276100 Y31.056975 
G1 X56.380294 Y31.161169 
G1 X56.457022 Y31.275997 
G1 X56.569900 Y31.388875 
G1 X56.684728 Y31.465603 
G1 X56.750822 Y31.531697 
G1 X56.833319 Y31.531697 
G1 X57.006681 Y31.569797 
G1 X57.166316 Y31.569797 
G1 X57.322884 Y31.538653 
G1 X57.422175 Y31.531697 
G1 X57.488269 Y31.465603 
G1 X57.603097 Y31.388875 
G1 X57.715975 Y31.275997 
G1 X57.792703 Y31.161169 
G1 X57.896897 Y31.056975 
G1 X57.896897 Y30.839216 
G1 X57.896897 Y20.434075 
G0 Z5.000000 
G0 X55.360925 Y20.400809 
G1 Z-0.200000 F80    
G1 X55.394997 Y20.229522 F200   
G1 X55.394997 Y18.632475 
G1 X55.360925 Y18.461188 
G1 X55.294091 Y18.299834 
G1 X55.197066 Y18.154625 
G1 X55.073572 Y18.031131 
G1 X54.928362 Y17.934106 
G1 X54.767009 Y17.867272 
G1 X54.595722 Y17.833200 
G1 X54.421075 Y17.833200 
G1 X54.249787 Y17.867272 
G1 X54.088434 Y17.934106 
G1 X53.943225 Y18.031131 
G1 X53.819731 Y18.154625 
G1 X53.722706 Y18.299834 
G1 X53.655872 Y18.461188 
G1 X53.621800 Y18.632475 
G1 X53.621800 Y20.229522 
G1 X53.655872 Y20.400809 
G1 X53.722706 Y20.562162 
G1 X53.819731 Y20.707372 
G1 X53.943225 Y20.830866 
G1 X54.088434 Y20.927891 
G1 X54.249787 Y20.994725 
G1 X54.421075 Y21.028797 
G1 X54.595722 Y21.028797 
G1 X54.767009 Y20.994725 
G1 X54.928362 Y20.927891 
G1 X55.073572 Y20.830866 
G1 X55.197066 Y20.707372 
G1 X55.294091 Y20.562162 
G1 X55.360925 Y20.400809 
G0 Z5.000000 
G0 X45.230406 Y24.757394 
G1 Z-0.200000 F80    
G1 X45.078841 Y24.656122 F200   
G1 X44.910428 Y24.586362 
G1 X44.731644 Y24.550800 
G1 X44.549353 Y24.550800 
G1 X44.370569 Y24.586362 
G1 X44.202156 Y24.656122 
G1 X44.050591 Y24.757394 
G1 X43.921694 Y24.886291 
G1 X43.820422 Y25.037856 
G1 X43.750662 Y25.206269 
G1 X43.715100 Y25.385053 
G1 X43.715100 Y27.067344 
G1 X43.750662 Y27.246128 
G1 X43.820422 Y27.414541 
G1 X43.921694 Y27.566106 
G1 X44.050591 Y27.695003 
G1 X44.202156 Y27.796275 
G1 X44.370569 Y27.866034 
G1 X44.549353 Y27.901597 
G1 X44.731644 Y27.901597 
G1 X44.910428 Y27.866034 
G1 X45.078841 Y27.796275 
G1 X45.230406 Y27.695003 
G1 X45.359303 Y27.566106 
G1 X45.460575 Y27.414541 
G1 X45.530334 Y27.246128 
G1 X45.565897 Y27.067344 
G1 X45.565897 Y25.385053 
G1 X45.530334 Y25.206269 
G1 X45.460575 Y25.037856 
G1 X45.359303 Y24.886291 
G1 X45.230406 Y24.757394 
G0 Z5.000000 
G0 X42.690406 Y24.757394 
G1 Z-0.200000 F80    
G1 X42.538841 Y24.656122 F200   
G1 X42.370428 Y24.586362 
G1 X42.191644 Y24.550800 
G1 X42.009353 Y24.550800 
G1 X41.830569 Y24.586362 
G1 X41.662156 Y24.656122 
G1 X41.510591 Y24.757394 
G1 X41.381694 Y24.886291 
G1 X41.280422 Y25.037856 
G1 X41.210662 Y25.206269 
G1 X41.175100 Y25.385053 
G1 X41.175100 Y27.067344 
G1 X41.210662 Y27.246128 
G1 X41.280422 Y27.414541 
G1 X41.381694 Y27.566106 
G1 X41.510591 Y27.695003 
G1 X41.662156 Y27.796275 
G1 X41.830569 Y27.866034 
G1 X42.009353 Y27.901597 
G1 X42.191644 Y27.901597 
G1 X42.370428 Y27.866034 
G1 X42.538841 Y27.796275 
G1 X42.690406 Y27.695003 
G1 X42.819303 Y27.566106 
G1 X42.920575 Y27.414541 
G1 X42.990334 Y27.246128 
G1 X43.025897 Y27.067344 
G1 X43.025897 Y25.385053 
G1 X42.990334 Y25.206269 
G1 X42.920575 Y25.037856 
G1 X42.819303 Y24.886291 
G1 X42.690406 Y24.757394 
G0 Z5.000000 
G0 X40.150406 Y24.757394 
G1 Z-0.200000 F80    
G1 X39.998841 Y24.656122 F200   
G1 X39.830428 Y24.586362 
G1 X39.651644 Y24.550800 
G1 X39.469353 Y24.550800 
G1 X39.290569 Y24.586362 
G1 X39.122156 Y24.656122 
G1 X38.970591 Y24.757394 
G1 X38.841694 Y24.886291 
G1 X38.740422 Y25.037856 
G1 X38.670662 Y25.206269 
G1 X38.635100 Y25.385053 
G1 X38.635100 Y27.067344 
G1 X38.670662 Y27.246128 
G1 X38.740422 Y27.414541 
G1 X38.841694 Y27.566106 
G1 X38.970591 Y27.695003 
G1 X39.122156 Y27.796275 
G1 X39.290569 Y27.866034 
G1 X39.469353 Y27.901597 
G1 X39.651644 Y27.901597 
G1 X39.830428 Y27.866034 
G1 X39.998841 Y27.796275 
G1 X40.150406 Y27.695003 
G1 X40.279303 Y27.566106 
G1 X40.380575 Y27.414541 
G1 X40.450334 Y27.246128 
G1 X40.485897 Y27.067344 
G1 X40.485897 Y25.385053 
G1 X40.450334 Y25.206269 
G1 X40.380575 Y25.037856 
G1 X40.279303 Y24.886291 
G1 X40.150406 Y24.757394 
G0 Z5.000000 
G0 X37.610406 Y24.757394 
G1 Z-0.200000 F80    
G1 X37.458841 Y24.656122 F200   
G1 X37.290428 Y24.586362 
G1 X37.111644 Y24.550800 
G1 X36.929353 Y24.550800 
G1 X36.750569 Y24.586362 
G1 X36.582156 Y24.656122 
G1 X36.430591 Y24.757394 
G1 X36.301694 Y24.886291 
G1 X36.200422 Y25.037856 
G1 X36.130662 Y25.206269 
G1 X36.095100 Y25.385053 
G1 X36.095100 Y27.067344 
G1 X36.130662 Y27.246128 
G1 X36.200422 Y27.414541 
G1 X36.301694 Y27.566106 
G1 X36.430591 Y27.695003 
G1 X36.582156 Y27.796275 
G1 X36.750569 Y27.866034 
G1 X36.929353 Y27.901597 
G1 X37.111644 Y27.901597 
G1 X37.290428 Y27.866034 
G1 X37.458841 Y27.796275 
G1 X37.610406 Y27.695003 
G1 X37.739303 Y27.566106 
G1 X37.840575 Y27.414541 
G1 X37.910334 Y27.246128 
G1 X37.945897 Y27.067344 
G1 X37.945897 Y25.385053 
G1 X37.910334 Y25.206269 
G1 X37.840575 Y25.037856 
G1 X37.739303 Y24.886291 
G1 X37.610406 Y24.757394 
G0 Z5.000000 
G0 X35.070406 Y24.757394 
G1 Z-0.200000 F80    
G1 X34.918841 Y24.656122 F200   
G1 X34.750428 Y24.586362 
G1 X34.571644 Y24.550800 
G1 X34.389353 Y24.550800 
G1 X34.210569 Y24.586362 
G1 X34.042156 Y24.656122 
G1 X33.890591 Y24.757394 
G1 X33.761694 Y24.886291 
G1 X33.660422 Y25.037856 
G1 X33.590663 Y25.206269 
G1 X33.555100 Y25.385053 
G1 X33.555100 Y27.067344 
G1 X33.590663 Y27.246128 
G1 X33.660422 Y27.414541 
G1 X33.761694 Y27.566106 
G1 X33.890591 Y27.695003 
G1 X34.042156 Y27.796275 
G1 X34.210569 Y27.866034 
G1 X34.389353 Y27.901597 
G1 X34.571644 Y27.901597 
G1 X34.750428 Y27.866034 
G1 X34.918841 Y27.796275 
G1 X35.070406 Y27.695003 
G1 X35.199303 Y27.566106 
G1 X35.300575 Y27.414541 
G1 X35.370334 Y27.246128 
G1 X35.405897 Y27.067344 
G1 X35.405897 Y25.385053 
G1 X35.370334 Y25.206269 
G1 X35.300575 Y25.037856 
G1 X35.199303 Y24.886291 
G1 X35.070406 Y24.757394 
G0 Z5.000000 
G0 X32.530406 Y24.757394 
G1 Z-0.200000 F80    
G1 X32.378841 Y24.656122 F200   
G1 X32.210428 Y24.586362 
G1 X32.031644 Y24.550800 
G1 X31.849353 Y24.550800 
G1 X31.670569 Y24.586362 
G1 X31.502156 Y24.656122 
G1 X31.350591 Y24.757394 
G1 X31.221694 Y24.886291 
G1 X31.120422 Y25.037856 
G1 X31.050663 Y25.206269 
G1 X31.015100 Y25.385053 
G1 X31.015100 Y27.067344 
G1 X31.050663 Y27.246128 
G1 X31.120422 Y27.414541 
G1 X31.221694 Y27.566106 
G1 X31.350591 Y27.695003 
G1 X31.502156 Y27.796275 
G1 X31.670569 Y27.866034 
G1 X31.849353 Y27.901597 
G1 X32.031644 Y27.901597 
G1 X32.210428 Y27.866034 
G1 X32.378841 Y27.796275 
G1 X32.530406 Y27.695003 
G1 X32.659303 Y27.566106 
G1 X32.760575 Y27.414541 
G1 X32.830334 Y27.246128 
G1 X32.865897 Y27.067344 
G1 X32.865897 Y25.385053 
G1 X32.830334 Y25.206269 
G1 X32.760575 Y25.037856 
G1 X32.659303 Y24.886291 
G1 X32.530406 Y24.757394 
G0 Z5.000000 
G0 X29.990406 Y24.757394 
G1 Z-0.200000 F80    
G1 X29.838841 Y24.656122 F200   
G1 X29.670428 Y24.586362 
G1 X29.491644 Y24.550800 
G1 X29.309353 Y24.550800 
G1 X29.130569 Y24.586362 
G1 X28.962156 Y24.656122 
G1 X28.810591 Y24.757394 
G1 X28.681694 Y24.886291 
G1 X28.580422 Y25.037856 
G1 X28.510662 Y25.206269 
G1 X28.475100 Y25.385053 
G1 X28.475100 Y27.067344 
G1 X28.510662 Y27.246128 
G1 X28.580422 Y27.414541 
G1 X28.681694 Y27.566106 
G1 X28.810591 Y27.695003 
G1 X28.962156 Y27.796275 
G1 X29.130569 Y27.866034 
G1 X29.309353 Y27.901597 
G1 X29.491644 Y27.901597 
G1 X29.670428 Y27.866034 
G1 X29.838841 Y27.796275 
G1 X29.990406 Y27.695003 
G1 X30.119303 Y27.566106 
G1 X30.220575 Y27.414541 
G1 X30.290334 Y27.246128 
G1 X30.325897 Y27.067344 
G1 X30.325897 Y25.385053 
G1 X30.290334 Y25.206269 
G1 X30.220575 Y25.037856 
G1 X30.119303 Y24.886291 
G1 X29.990406 Y24.757394 
G0 Z5.000000 
G0 X27.450406 Y24.757394 
G1 Z-0.200000 F80    
G1 X27.298841 Y24.656122 F200   
G1 X27.130428 Y24.586362 
G1 X26.951644 Y24.550800 
G1 X26.769353 Y24.550800 
G1 X26.590569 Y24.586362 
G1 X26.422156 Y24.656122 
G1 X26.270591 Y24.757394 
G1 X26.141694 Y24.886291 
G1 X26.040422 Y25.037856 
G1 X25.970662 Y25.206269 
G1 X25.935100 Y25.385053 
G1 X25.935100 Y27.067344 
G1 X25.970662 Y27.246128 
G1 X26.040422 Y27.414541 
G1 X26.141694 Y27.566106 
G1 X26.270591 Y27.695003 
G1 X26.422156 Y27.796275 
G1 X26.590569 Y27.866034 
G1 X26.769353 Y27.901597 
G1 X26.951644 Y27.901597 
G1 X27.130428 Y27.866034 
G1 X27.298841 Y27.796275 
G1 X27.450406 Y27.695003 
G1 X27.579303 Y27.566106 
G1 X27.680575 Y27.414541 
G1 X27.750334 Y27.246128 
G1 X27.785897 Y27.067344 
G1 X27.785897 Y25.385053 
G1 X27.750334 Y25.206269 
G1 X27.680575 Y25.037856 
G1 X27.579303 Y24.886291 
G1 X27.450406 Y24.757394 
G0 Z5.000000 
G0 X24.910406 Y24.757394 
G1 Z-0.200000 F80    
G1 X24.758841 Y24.656122 F200   
G1 X24.590428 Y24.586362 
G1 X24.411644 Y24.550800 
G1 X24.229353 Y24.550800 
G1 X24.050569 Y24.586362 
G1 X23.882156 Y24.656122 
G1 X23.730591 Y24.757394 
G1 X23.601694 Y24.886291 
G1 X23.500422 Y25.037856 
G1 X23.430663 Y25.206269 
G1 X23.395100 Y25.385053 
G1 X23.395100 Y27.067344 
G1 X23.430663 Y27.246128 
G1 X23.500422 Y27.414541 
G1 X23.601694 Y27.566106 
G1 X23.730591 Y27.695003 
G1 X23.882156 Y27.796275 
G1 X24.050569 Y27.866034 
G1 X24.229353 Y27.901597 
G1 X24.411644 Y27.901597 
G1 X24.590428 Y27.866034 
G1 X24.758841 Y27.796275 
G1 X24.910406 Y27.695003 
G1 X25.039303 Y27.566106 
G1 X25.140575 Y27.414541 
G1 X25.210334 Y27.246128 
G1 X25.245897 Y27.067344 
G1 X25.245897 Y25.385053 
G1 X25.210334 Y25.206269 
G1 X25.140575 Y25.037856 
G1 X25.039303 Y24.886291 
G1 X24.910406 Y24.757394 
G0 Z5.000000 
G0 X22.370406 Y24.757394 
G1 Z-0.200000 F80    
G1 X22.218841 Y24.656122 F200   
G1 X22.050428 Y24.586362 
G1 X21.871644 Y24.550800 
G1 X21.689353 Y24.550800 
G1 X21.510569 Y24.586362 
G1 X21.342156 Y24.656122 
G1 X21.190591 Y24.757394 
G1 X21.061694 Y24.886291 
G1 X20.960422 Y25.037856 
G1 X20.890663 Y25.206269 
G1 X20.855100 Y25.385053 
G1 X20.855100 Y27.067344 
G1 X20.890663 Y27.246128 
G1 X20.960422 Y27.414541 
G1 X21.061694 Y27.566106 
G1 X21.190591 Y27.695003 
G1 X21.342156 Y27.796275 
G1 X21.510569 Y27.866034 
G1 X21.689353 Y27.901597 
G1 X21.871644 Y27.901597 
G1 X22.050428 Y27.866034 
G1 X22.218841 Y27.796275 
G1 X22.370406 Y27.695003 
G1 X22.499303 Y27.566106 
G1 X22.600575 Y27.414541 
G1 X22.670334 Y27.246128 
G1 X22.705897 Y27.067344 
G1 X22.705897 Y25.385053 
G1 X22.670334 Y25.206269 
G1 X22.600575 Y25.037856 
G1 X22.499303 Y24.886291 
G1 X22.370406 Y24.757394 
G0 Z5.000000 
G0 X19.830406 Y24.757394 
G1 Z-0.200000 F80    
G1 X19.678841 Y24.656122 F200   
G1 X19.510428 Y24.586362 
G1 X19.331644 Y24.550800 
G1 X19.149353 Y24.550800 
G1 X18.970569 Y24.586362 
G1 X18.802156 Y24.656122 
G1 X18.650591 Y24.757394 
G1 X18.521694 Y24.886291 
G1 X18.420422 Y25.037856 
G1 X18.350662 Y25.206269 
G1 X18.315100 Y25.385053 
G1 X18.315100 Y27.067344 
G1 X18.350662 Y27.246128 
G1 X18.420422 Y27.414541 
G1 X18.521694 Y27.566106 
G1 X18.650591 Y27.695003 
G1 X18.802156 Y27.796275 
G1 X18.970569 Y27.866034 
G1 X19.149353 Y27.901597 
G1 X19.331644 Y27.901597 
G1 X19.510428 Y27.866034 
G1 X19.678841 Y27.796275 
G1 X19.830406 Y27.695003 
G1 X19.959303 Y27.566106 
G1 X20.060575 Y27.414541 
G1 X20.130334 Y27.246128 
G1 X20.165897 Y27.067344 
G1 X20.165897 Y25.385053 
G1 X20.130334 Y25.206269 
G1 X20.060575 Y25.037856 
G1 X19.959303 Y24.886291 
G1 X19.830406 Y24.757394 
G0 Z5.000000 
G0 X17.290406 Y24.757394 
G1 Z-0.200000 F80    
G1 X17.138841 Y24.656122 F200   
G1 X16.970428 Y24.586362 
G1 X16.791644 Y24.550800 
G1 X16.609353 Y24.550800 
G1 X16.430569 Y24.586362 
G1 X16.262156 Y24.656122 
G1 X16.110591 Y24.757394 
G1 X15.981694 Y24.886291 
G1 X15.880422 Y25.037856 
G1 X15.810662 Y25.206269 
G1 X15.775100 Y25.385053 
G1 X15.775100 Y27.067344 
G1 X15.810662 Y27.246128 
G1 X15.880422 Y27.414541 
G1 X15.981694 Y27.566106 
G1 X16.110591 Y27.695003 
G1 X16.262156 Y27.796275 
G1 X16.430569 Y27.866034 
G1 X16.609353 Y27.901597 
G1 X16.791644 Y27.901597 
G1 X16.970428 Y27.866034 
G1 X17.138841 Y27.796275 
G1 X17.290406 Y27.695003 
G1 X17.419303 Y27.566106 
G1 X17.520575 Y27.414541 
G1 X17.590334 Y27.246128 
G1 X17.625897 Y27.067344 
G1 X17.625897 Y25.385053 
G1 X17.590334 Y25.206269 
G1 X17.520575 Y25.037856 
G1 X17.419303 Y24.886291 
G1 X17.290406 Y24.757394 
G0 Z5.000000 
G0 X14.750406 Y24.757394 
G1 Z-0.200000 F80    
G1 X14.598841 Y24.656122 F200   
G1 X14.430428 Y24.586362 
G1 X14.251644 Y24.550800 
G1 X14.069353 Y24.550800 
G1 X13.890569 Y24.586362 
G1 X13.722156 Y24.656122 
G1 X13.570591 Y24.757394 
G1 X13.441694 Y24.886291 
G1 X13.340422 Y25.037856 
G1 X13.270663 Y25.206269 
G1 X13.235100 Y25.385053 
G1 X13.235100 Y27.067344 
G1 X13.270663 Y27.246128 
G1 X13.340422 Y27.414541 
G1 X13.441694 Y27.566106 
G1 X13.570591 Y27.695003 
G1 X13.722156 Y27.796275 
G1 X13.890569 Y27.866034 
G1 X14.069353 Y27.901597 
G1 X14.251644 Y27.901597 
G1 X14.430428 Y27.866034 
G1 X14.598841 Y27.796275 
G1 X14.750406 Y27.695003 
G1 X14.879303 Y27.566106 
G1 X14.980575 Y27.414541 
G1 X15.050334 Y27.246128 
G1 X15.085897 Y27.067344 
G1 X15.085897 Y25.385053 
G1 X15.050334 Y25.206269 
G1 X14.980575 Y25.037856 
G1 X14.879303 Y24.886291 
G1 X14.750406 Y24.757394 
G0 Z5.000000 
G0 X12.210406 Y24.757394 
G1 Z-0.200000 F80    
G1 X12.058841 Y24.656122 F200   
G1 X11.890428 Y24.586362 
G1 X11.711644 Y24.550800 
G1 X11.529353 Y24.550800 
G1 X11.350569 Y24.586362 
G1 X11.182156 Y24.656122 
G1 X11.030591 Y24.757394 
G1 X10.901694 Y24.886291 
G1 X10.800422 Y25.037856 
G1 X10.730662 Y25.206269 
G1 X10.695100 Y25.385053 
G1 X10.695100 Y27.067344 
G1 X10.730662 Y27.246128 
G1 X10.800422 Y27.414541 
G1 X10.901694 Y27.566106 
G1 X11.030591 Y27.695003 
G1 X11.182156 Y27.796275 
G1 X11.350569 Y27.866034 
G1 X11.529353 Y27.901597 
G1 X11.711644 Y27.901597 
G1 X11.890428 Y27.866034 
G1 X12.058841 Y27.796275 
G1 X12.210406 Y27.695003 
G1 X12.339303 Y27.566106 
G1 X12.440575 Y27.414541 
G1 X12.510334 Y27.246128 
G1 X12.545897 Y27.067344 
G1 X12.545897 Y25.385053 
G1 X12.510334 Y25.206269 
G1 X12.440575 Y25.037856 
G1 X12.339303 Y24.886291 
G1 X12.210406 Y24.757394 
G0 Z5.000000 
G0 X14.276931 Y31.653800 
G1 Z-0.200000 F80    
G1 X14.276931 Y32.346197 F200   
G1 X14.766531 Y32.835797 
G1 X15.458928 Y32.835797 
G1 X15.948528 Y32.346197 
G1 X15.948528 Y31.653800 
G1 X15.458928 Y31.164200 
G1 X14.766531 Y31.164200 
G1 X14.276931 Y31.653800 
G0 Z5.000000 
G0 X14.389288 Y33.689241 
G1 Z-0.200000 F80    
G1 X14.286703 Y33.842772 F200   
G1 X14.216041 Y34.013369 
G1 X14.180016 Y34.194472 
G1 X14.180016 Y35.903125 
G1 X14.216041 Y36.084228 
G1 X14.286703 Y36.254825 
G1 X14.389288 Y36.408356 
G1 X14.519856 Y36.538925 
G1 X14.673388 Y36.641509 
G1 X14.843984 Y36.712172 
G1 X15.025087 Y36.748197 
G1 X15.209741 Y36.748197 
G1 X15.390844 Y36.712172 
G1 X15.561441 Y36.641509 
G1 X15.714972 Y36.538925 
G1 X15.845541 Y36.408356 
G1 X15.948125 Y36.254825 
G1 X16.018787 Y36.084228 
G1 X16.054813 Y35.903125 
G1 X16.054813 Y34.194472 
G1 X16.018787 Y34.013369 
G1 X15.948125 Y33.842772 
G1 X15.845541 Y33.689241 
G1 X15.714972 Y33.558672 
G1 X15.561441 Y33.456088 
G1 X15.390844 Y33.385425 
G1 X15.209741 Y33.349400 
G1 X15.025087 Y33.349400 
G1 X14.843984 Y33.385425 
G1 X14.673388 Y33.456088 
G1 X14.519856 Y33.558672 
G1 X14.389288 Y33.689241 
G0 Z5.000000 
G0 X18.910487 Y33.689241 
G1 Z-0.200000 F80    
G1 X18.807903 Y33.842772 F200   
G1 X18.737241 Y34.013369 
G1 X18.701216 Y34.194472 
G1 X18.701216 Y35.903125 
G1 X18.737241 Y36.084228 
G1 X18.807903 Y36.254825 
G1 X18.910487 Y36.408356 
G1 X19.041056 Y36.538925 
G1 X19.194588 Y36.641509 
G1 X19.365184 Y36.712172 
G1 X19.546287 Y36.748197 
G1 X19.730941 Y36.748197 
G1 X19.912044 Y36.712172 
G1 X20.082641 Y36.641509 
G1 X20.236172 Y36.538925 
G1 X20.366741 Y36.408356 
G1 X20.469325 Y36.254825 
G1 X20.539987 Y36.084228 
G1 X20.576013 Y35.903125 
G1 X20.576013 Y34.194472 
G1 X20.539987 Y34.013369 
G1 X20.469325 Y33.842772 
G1 X20.366741 Y33.689241 
G1 X20.236172 Y33.558672 
G1 X20.082641 Y33.456088 
G1 X19.912044 Y33.385425 
G1 X19.730941 Y33.349400 
G1 X19.546287 Y33.349400 
G1 X19.365184 Y33.385425 
G1 X19.194588 Y33.456088 
G1 X19.041056 Y33.558672 
G1 X18.910487 Y33.689241 
G0 Z5.000000 
G0 X22.386531 Y32.835797 
G1 Z-0.200000 F80    
G1 X23.078928 Y32.835797 F200   
G1 X23.568528 Y32.346197 
G1 X23.568528 Y31.653800 
G1 X23.078928 Y31.164200 
G1 X22.386531 Y31.164200 
G1 X21.896931 Y31.653800 
G1 X21.896931 Y32.346197 
G1 X22.386531 Y32.835797 
G0 Z5.000000 
G0 X24.970600 Y37.964322 
G1 Z-0.200000 F80    
G1 X24.970600 Y38.635675 F200   
G1 X25.151522 Y38.816597 
G1 X25.264400 Y38.929475 
G1 X25.445322 Y39.110397 
G1 X25.701181 Y39.110397 
G1 X37.088022 Y39.110397 
G1 X38.904200 Y40.926575 
G1 X39.085122 Y41.107497 
G1 X39.756475 Y41.107497 
G1 X39.937397 Y40.926575 
G1 X40.050275 Y40.813697 
G1 X40.231197 Y40.632775 
G1 X40.231197 Y39.961422 
G1 X40.050275 Y39.780500 
G1 X37.940297 Y37.670522 
G1 X37.807566 Y37.581831 
G1 X37.660084 Y37.520744 
G1 X37.503516 Y37.489600 
G1 X25.445322 Y37.489600 
G1 X25.264400 Y37.670522 
G1 X25.151522 Y37.783400 
G1 X24.970600 Y37.964322 
G0 Z5.000000 
G0 X24.675353 Y40.629700 
G1 Z-0.200000 F80    
G1 X24.081600 Y41.223453 F200   
G1 X24.081600 Y42.063144 
G1 X24.675353 Y42.656897 
G1 X25.515044 Y42.656897 
G1 X26.108797 Y42.063144 
G1 X26.108797 Y41.223453 
G1 X25.515044 Y40.629700 
G1 X24.675353 Y40.629700 
G0 Z5.000000 
G0 X20.576013 Y40.696872 
G1 Z-0.200000 F80    
G1 X20.539987 Y40.515769 F200   
G1 X20.469325 Y40.345172 
G1 X20.366741 Y40.191641 
G1 X20.236172 Y40.061072 
G1 X20.082641 Y39.958487 
G1 X19.912044 Y39.887825 
G1 X19.730941 Y39.851800 
G1 X19.546287 Y39.851800 
G1 X19.365184 Y39.887825 
G1 X19.194588 Y39.958487 
G1 X19.041056 Y40.061072 
G1 X18.910487 Y40.191641 
G1 X18.807903 Y40.345172 
G1 X18.737241 Y40.515769 
G1 X18.701216 Y40.696872 
G1 X18.701216 Y42.405525 
G1 X18.737241 Y42.586628 
G1 X18.807903 Y42.757225 
G1 X18.910487 Y42.910756 
G1 X19.041056 Y43.041325 
G1 X19.194588 Y43.143909 
G1 X19.365184 Y43.214572 
G1 X19.546287 Y43.250597 
G1 X19.730941 Y43.250597 
G1 X19.912044 Y43.214572 
G1 X20.082641 Y43.143909 
G1 X20.236172 Y43.041325 
G1 X20.366741 Y42.910756 
G1 X20.469325 Y42.757225 
G1 X20.539987 Y42.586628 
G1 X20.576013 Y42.405525 
G1 X20.576013 Y40.696872 
G0 Z5.000000 
G0 X16.054813 Y40.696872 
G1 Z-0.200000 F80    
G1 X16.018787 Y40.515769 F200   
G1 X15.948125 Y40.345172 
G1 X15.845541 Y40.191641 
G1 X15.714972 Y40.061072 
G1 X15.561441 Y39.958487 
G1 X15.390844 Y39.887825 
G1 X15.209741 Y39.851800 
G1 X15.025087 Y39.851800 
G1 X14.843984 Y39.887825 
G1 X14.673388 Y39.958487 
G1 X14.519856 Y40.061072 
G1 X14.389288 Y40.191641 
G1 X14.286703 Y40.345172 
G1 X14.216041 Y40.515769 
G1 X14.180016 Y40.696872 
G1 X14.180016 Y42.405525 
G1 X14.216041 Y42.586628 
G1 X14.286703 Y42.757225 
G1 X14.389288 Y42.910756 
G1 X14.519856 Y43.041325 
G1 X14.673388 Y43.143909 
G1 X14.843984 Y43.214572 
G1 X15.025087 Y43.250597 
G1 X15.209741 Y43.250597 
G1 X15.390844 Y43.214572 
G1 X15.561441 Y43.143909 
G1 X15.714972 Y43.041325 
G1 X15.845541 Y42.910756 
G1 X15.948125 Y42.757225 
G1 X16.018787 Y42.586628 
G1 X16.054813 Y42.405525 
G1 X16.054813 Y40.696872 
G0 Z5.000000 
G0 X17.782400 Y50.380153 
G1 Z-0.200000 F80    
G1 X17.782400 Y51.219844 F200   
G1 X18.376153 Y51.813597 
G1 X19.215844 Y51.813597 
G1 X19.809597 Y51.219844 
G1 X19.809597 Y50.380153 
G1 X19.215844 Y49.786400 
G1 X18.376153 Y49.786400 
G1 X17.782400 Y50.380153 
G0 Z5.000000 
G0 X20.322400 Y50.380153 
G1 Z-0.200000 F80    
G1 X20.322400 Y51.219844 F200   
G1 X20.916153 Y51.813597 
G1 X21.755844 Y51.813597 
G1 X22.349597 Y51.219844 
G1 X22.349597 Y50.380153 
G1 X21.755844 Y49.786400 
G1 X20.916153 Y49.786400 
G1 X20.322400 Y50.380153 
G0 Z5.000000 
G0 X22.862400 Y50.380153 
G1 Z-0.200000 F80    
G1 X22.862400 Y51.219844 F200   
G1 X23.456153 Y51.813597 
G1 X24.295844 Y51.813597 
G1 X24.889597 Y51.219844 
G1 X24.889597 Y50.380153 
G1 X24.295844 Y49.786400 
G1 X23.456153 Y49.786400 
G1 X22.862400 Y50.380153 
G0 Z5.000000 
G0 X25.402400 Y50.380153 
G1 Z-0.200000 F80    
G1 X25.402400 Y51.219844 F200   
G1 X25.996153 Y51.813597 
G1 X26.835844 Y51.813597 
G1 X27.429597 Y51.219844 
G1 X27.429597 Y50.380153 
G1 X26.835844 Y49.786400 
G1 X25.996153 Y49.786400 
G1 X25.402400 Y50.380153 
G0 Z5.000000 
G0 X27.942400 Y50.380153 
G1 Z-0.200000 F80    
G1 X27.942400 Y51.219844 F200   
G1 X28.536153 Y51.813597 
G1 X29.375844 Y51.813597 
G1 X29.969597 Y51.219844 
G1 X29.969597 Y50.380153 
G1 X29.375844 Y49.786400 
G1 X28.536153 Y49.786400 
G1 X27.942400 Y50.380153 
G0 Z5.000000 
G0 X30.482400 Y50.380153 
G1 Z-0.200000 F80    
G1 X30.482400 Y51.219844 F200   
G1 X31.076153 Y51.813597 
G1 X31.915844 Y51.813597 
G1 X32.509597 Y51.219844 
G1 X32.509597 Y50.380153 
G1 X31.915844 Y49.786400 
G1 X31.076153 Y49.786400 
G1 X30.482400 Y50.380153 
G0 Z5.000000 
G0 X33.022400 Y50.380153 
G1 Z-0.200000 F80    
G1 X33.022400 Y51.219844 F200   
G1 X33.616153 Y51.813597 
G1 X34.455844 Y51.813597 
G1 X35.049597 Y51.219844 
G1 X35.049597 Y50.380153 
G1 X34.455844 Y49.786400 
G1 X33.616153 Y49.786400 
G1 X33.022400 Y50.380153 
G0 Z5.000000 
G0 X35.562400 Y50.380153 
G1 Z-0.200000 F80    
G1 X35.562400 Y51.219844 F200   
G1 X36.156153 Y51.813597 
G1 X36.995844 Y51.813597 
G1 X37.589597 Y51.219844 
G1 X37.589597 Y50.380153 
G1 X36.995844 Y49.786400 
G1 X36.156153 Y49.786400 
G1 X35.562400 Y50.380153 
G0 Z5.000000 
G0 X38.102400 Y50.380153 
G1 Z-0.200000 F80    
G1 X38.102400 Y51.219844 F200   
G1 X38.696153 Y51.813597 
G1 X39.535844 Y51.813597 
G1 X40.129597 Y51.219844 
G1 X40.129597 Y50.380153 
G1 X39.535844 Y49.786400 
G1 X38.696153 Y49.786400 
G1 X38.102400 Y50.380153 
G0 Z5.000000 
G0 X40.642400 Y50.380153 
G1 Z-0.200000 F80    
G1 X40.642400 Y51.219844 F200   
G1 X41.236153 Y51.813597 
G1 X42.075844 Y51.813597 
G1 X42.669597 Y51.219844 
G1 X42.669597 Y50.380153 
G1 X42.075844 Y49.786400 
G1 X41.236153 Y49.786400 
G1 X40.642400 Y50.380153 
G0 Z5.000000 
G0 X41.303394 Y47.110188 
G1 Z-0.200000 F80    
G1 X41.995791 Y47.110188 F200   
G1 X42.485388 Y46.620591 
G1 X42.485388 Y45.928194 
G1 X41.995791 Y45.438597 
G1 X41.303394 Y45.438597 
G1 X40.813797 Y45.928194 
