(.../Documents/EAGLE/ulps/pcb-gcode.ulp)
(Copyright 2005 - 2012 by John Johnson)
(See readme.txt for licensing terms.)
(This file generated from the board:)
(.../minimal-version/programmer shield.brd)
(Current profile is .../pcb-gcode-3.6.2.4/profiles/grbl-NuggetMill.pp  )
(This file generated 3/30/2020 2:02 PM)
(Settings from pcb-machine.h)
(spindle on time = 0.0000)
(  Tool Size)
(0.100000 )
(spindle speed = 18000.0000)
(tool change at 0.000000 0.000000 10.000000 )
(feed rate xy = F200   )
(feed rate z  = F80    )
(Z Axis Settings)
(  High     Up        Down     Drill)
(10.000000 	5.000000 	-0.200000 	-1.650000 )
(Settings from pcb-defaults.h)
(isolate min = 0.0254)
(isolate max = 0.5000)
(isolate step = 0.1000)
(Generated top outlines, bottom outlines, )
(Unit of measure: mm)
(Metric Mode)
G21
(Absolute Coordinates)
G90
G0 Z10.000000 
G0 X0.000000 Y0.000000 
M3
G4 P0
G0 Z5.000000 
G0 X-0.975278 Y1.252950 
G1 Z-0.200000 F80    
G1 X-1.039356 Y1.188872 F200   
G1 X-1.252950 Y0.975278 
G1 X-1.336675 Y0.940597 
G1 X-11.535234 Y0.940597 
G1 X-11.580159 Y0.940597 
G1 X-11.610537 Y0.940597 
G1 X-11.639884 Y0.948459 
G1 X-11.666203 Y0.963656 
G1 X-11.694263 Y0.975278 
G1 X-11.736863 Y1.017881 
G1 X-11.764200 Y1.053509 
G1 X-11.781397 Y1.095022 
G1 X-11.793022 Y1.123081 
G1 X-11.796988 Y1.153206 
G1 X-11.793022 Y1.183331 
G1 X-11.793022 Y1.213709 
G1 X-11.785159 Y1.243056 
G1 X-11.769963 Y1.269375 
G1 X-11.758341 Y1.297434 
G1 X-11.602534 Y1.559362 
G1 X-11.429397 Y2.205516 
G1 X-11.429397 Y2.874478 
G1 X-11.602534 Y3.520634 
G1 X-11.937009 Y4.099963 
G1 X-12.355631 Y4.518581 
G1 X-12.411453 Y4.574403 
G1 X-12.454394 Y4.666384 
G1 X-12.454394 Y4.757013 
G1 X-12.440437 Y4.790703 
G1 X-12.419716 Y4.840734 
G1 X-12.355634 Y4.904816 
G1 X-12.271909 Y4.939497 
G1 X-7.738206 Y4.939497 
G1 X-7.476516 Y5.047891 
G1 X-7.212150 Y5.312259 
G1 X-5.974991 Y6.549416 
G1 X-5.866597 Y6.811106 
G1 X-5.866597 Y8.064181 
G1 X-5.831916 Y8.147906 
G1 X-5.767837 Y8.211984 
G1 X-5.716594 Y8.263225 
G1 X-5.561797 Y8.636941 
G1 X-5.561797 Y9.041453 
G1 X-5.716594 Y9.415169 
G1 X-6.002625 Y9.701200 
G1 X-6.376341 Y9.855997 
G1 X-6.780850 Y9.855997 
G1 X-7.154569 Y9.701200 
G1 X-7.440600 Y9.415169 
G1 X-7.595397 Y9.041453 
G1 X-7.595397 Y8.636941 
G1 X-7.440600 Y8.263225 
G1 X-7.325278 Y8.147906 
G1 X-7.290597 Y8.064181 
G1 X-7.290597 Y7.296700 
G1 X-7.325278 Y7.212975 
G1 X-7.389356 Y7.148897 
G1 X-8.140075 Y6.398178 
G1 X-8.223800 Y6.363497 
G1 X-31.968909 Y6.363497 
G1 X-32.230600 Y6.255103 
G1 X-33.423313 Y5.062387 
G1 X-33.623603 Y4.862100 
G1 X-33.731997 Y4.600409 
G1 X-33.731997 Y3.171328 
G1 X-33.766678 Y3.087603 
G1 X-33.830756 Y3.023525 
G1 X-33.935197 Y2.919084 
G1 X-33.935197 Y2.160909 
G1 X-33.399084 Y1.624797 
G1 X-32.640909 Y1.624797 
G1 X-32.104797 Y2.160909 
G1 X-32.104797 Y2.919084 
G1 X-32.273316 Y3.087603 
G1 X-32.307997 Y3.171328 
G1 X-32.307997 Y4.114816 
G1 X-32.273316 Y4.198541 
G1 X-32.209238 Y4.262619 
G1 X-31.567041 Y4.904816 
G1 X-31.483316 Y4.939497 
G1 X-15.668084 Y4.939497 
G1 X-15.584359 Y4.904816 
G1 X-15.520281 Y4.840738 
G1 X-15.500375 Y4.792678 
G1 X-15.485600 Y4.757013 
G1 X-15.485600 Y4.666384 
G1 X-15.520281 Y4.582659 
G1 X-15.584359 Y4.518581 
G1 X-16.002984 Y4.099963 
G1 X-16.337459 Y3.520631 
G1 X-16.510597 Y2.874478 
G1 X-16.510597 Y2.205516 
G1 X-16.337459 Y1.559362 
G1 X-16.192484 Y1.308263 
G1 X-16.170031 Y1.269375 
G1 X-16.154834 Y1.243056 
G1 X-16.146972 Y1.213709 
G1 X-16.146972 Y1.183331 
G1 X-16.143006 Y1.153206 
G1 X-16.146972 Y1.123081 
G1 X-16.158597 Y1.095022 
G1 X-16.166459 Y1.065669 
G1 X-16.181653 Y1.039356 
G1 X-16.221628 Y0.993772 
G1 X-16.273791 Y0.963656 
G1 X-16.300109 Y0.948459 
G1 X-16.329456 Y0.940597 
G1 X-16.359834 Y0.940597 
G1 X-16.389959 Y0.936631 
G1 X-64.916912 Y0.940597 
G1 X-65.000637 Y0.975278 
G1 X-65.064716 Y1.039356 
G1 X-65.099397 Y1.123081 
G1 X-65.099397 Y2.727097 
G1 X-65.242594 Y3.072806 
G1 X-66.957653 Y4.787866 
G1 X-66.989409 Y4.819622 
G1 X-67.011872 Y4.858528 
G1 X-67.027066 Y4.884837 
G1 X-67.034928 Y4.914181 
G1 X-67.034928 Y4.944562 
G1 X-67.038894 Y4.974687 
G1 X-67.034928 Y5.004809 
G1 X-67.023300 Y5.032878 
G1 X-67.015438 Y5.062225 
G1 X-67.000247 Y5.088534 
G1 X-66.960269 Y5.134119 
G1 X-66.908097 Y5.164237 
G1 X-66.881788 Y5.179431 
G1 X-66.852444 Y5.187294 
G1 X-66.822063 Y5.187294 
G1 X-66.791938 Y5.191259 
G1 X-66.761816 Y5.187294 
G1 X-66.733747 Y5.175666 
G1 X-66.374475 Y5.079397 
G1 X-65.705516 Y5.079397 
G1 X-65.059359 Y5.252534 
G1 X-64.480031 Y5.587009 
G1 X-64.007009 Y6.060031 
G1 X-63.672534 Y6.639362 
G1 X-63.499397 Y7.285509 
G1 X-63.499397 Y7.954478 
G1 X-63.672534 Y8.600631 
G1 X-64.007009 Y9.179963 
G1 X-64.480031 Y9.652984 
G1 X-65.059363 Y9.987459 
G1 X-65.705516 Y10.160597 
G1 X-66.374478 Y10.160597 
G1 X-67.020631 Y9.987459 
G1 X-67.271731 Y9.842484 
G1 X-67.310619 Y9.820031 
G1 X-67.336938 Y9.804834 
G1 X-67.366284 Y9.796972 
G1 X-67.396663 Y9.796972 
G1 X-67.426788 Y9.793006 
G1 X-67.456913 Y9.796972 
G1 X-67.484972 Y9.808597 
G1 X-67.514325 Y9.816459 
G1 X-67.540638 Y9.831653 
G1 X-67.586222 Y9.871628 
G1 X-67.616338 Y9.923791 
G1 X-67.631534 Y9.950109 
G1 X-67.639397 Y9.979456 
G1 X-67.639397 Y10.009834 
G1 X-67.643362 Y10.039959 
G1 X-67.639397 Y33.125234 
G1 X-67.639397 Y33.170159 
G1 X-67.639397 Y33.200538 
G1 X-67.631534 Y33.229884 
G1 X-67.616338 Y33.256203 
G1 X-67.604716 Y33.284262 
G1 X-67.562112 Y33.326866 
G1 X-67.526484 Y33.354200 
G1 X-67.484972 Y33.371397 
G1 X-67.456913 Y33.383022 
G1 X-67.426788 Y33.386987 
G1 X-67.396663 Y33.383022 
G1 X-67.366284 Y33.383022 
G1 X-67.336938 Y33.375159 
G1 X-67.310619 Y33.359963 
G1 X-67.282559 Y33.348341 
G1 X-67.020631 Y33.192534 
G1 X-66.374478 Y33.019397 
G1 X-65.705516 Y33.019397 
G1 X-65.059363 Y33.192534 
G1 X-64.480031 Y33.527009 
G1 X-64.007009 Y34.000031 
G1 X-63.672534 Y34.579363 
G1 X-63.499397 Y35.225516 
G1 X-63.499397 Y35.894478 
G1 X-63.672534 Y36.540634 
G1 X-64.007009 Y37.119962 
G1 X-64.327131 Y37.440081 
G1 X-64.384469 Y37.497419 
G1 X-64.425894 Y37.587884 
G1 X-64.425894 Y37.678512 
G1 X-64.411937 Y37.712203 
G1 X-64.391216 Y37.762234 
G1 X-64.327134 Y37.826316 
G1 X-64.243409 Y37.860997 
G1 X-63.922472 Y37.860997 
G1 X-63.430997 Y38.352472 
G1 X-63.430997 Y38.421394 
G1 X-63.534200 Y38.421394 
G1 X-63.534200 Y38.395222 
G1 X-63.965222 Y37.964200 
G1 X-64.574775 Y37.964200 
G1 X-65.005797 Y38.395222 
G1 X-65.005797 Y38.421394 
G1 X-65.108997 Y38.421394 
G1 X-65.108997 Y38.343000 
G1 X-65.088875 Y38.304791 
G1 X-65.081016 Y38.275459 
G1 X-65.081012 Y38.245072 
G1 X-65.077047 Y38.214941 
G1 X-65.081009 Y38.184831 
G1 X-65.092641 Y38.156747 
G1 X-65.100503 Y38.127406 
G1 X-65.115684 Y38.101106 
G1 X-65.155669 Y38.055509 
G1 X-65.207834 Y38.025394 
G1 X-65.234153 Y38.010197 
G1 X-65.263484 Y38.002338 
G1 X-65.293872 Y38.002334 
G1 X-65.324003 Y37.998369 
G1 X-65.354112 Y38.002331 
G1 X-65.382194 Y38.013962 
G1 X-65.705516 Y38.100597 
G1 X-66.374472 Y38.100597 
G1 X-66.414844 Y38.085672 
G1 X-66.444959 Y38.081706 
G1 X-66.475094 Y38.085672 
G1 X-66.505472 Y38.085672 
G1 X-66.534809 Y38.093531 
G1 X-66.561134 Y38.108731 
G1 X-66.589197 Y38.120353 
G1 X-66.631794 Y38.162950 
G1 X-66.659137 Y38.198588 
G1 X-66.676325 Y38.240081 
G1 X-66.687956 Y38.268156 
G1 X-66.691922 Y38.298272 
G1 X-66.687956 Y38.328406 
G1 X-66.687956 Y38.358784 
G1 X-66.680097 Y38.388122 
G1 X-66.664897 Y38.414447 
G1 X-66.653275 Y38.442509 
G1 X-66.610678 Y38.485106 
G1 X-65.242594 Y39.853187 
G1 X-65.099397 Y40.198897 
G1 X-65.099397 Y42.288234 
G1 X-65.064716 Y42.371959 
G1 X-65.000637 Y42.436037 
G1 X-64.952578 Y42.455944 
G1 X-64.916912 Y42.470719 
G1 X-64.826284 Y42.470719 
G1 X-64.742559 Y42.436037 
G1 X-64.678481 Y42.371959 
G1 X-64.617522 Y42.310997 
G1 X-64.548597 Y42.310997 
G1 X-64.548597 Y42.414200 
G1 X-64.574775 Y42.414200 
G1 X-65.005797 Y42.845222 
G1 X-65.005797 Y43.454775 
G1 X-64.574775 Y43.885797 
G1 X-64.548597 Y43.885797 
G1 X-64.548597 Y43.988997 
G1 X-64.617522 Y43.988997 
G1 X-64.678481 Y43.928038 
G1 X-64.739113 Y43.867406 
G1 X-64.826284 Y43.829275 
G1 X-64.916912 Y43.829275 
G1 X-64.950603 Y43.843231 
G1 X-65.000634 Y43.863953 
G1 X-65.064716 Y43.928034 
G1 X-65.099397 Y44.011759 
G1 X-65.099397 Y46.763234 
G1 X-65.064716 Y46.846959 
G1 X-65.000637 Y46.911037 
G1 X-64.952578 Y46.930944 
G1 X-64.916912 Y46.945719 
G1 X-64.826284 Y46.945719 
G1 X-64.742559 Y46.911037 
G1 X-64.678481 Y46.846959 
G1 X-64.617522 Y46.785997 
G1 X-64.548597 Y46.785997 
G1 X-64.548597 Y46.889200 
G1 X-64.574775 Y46.889200 
G1 X-65.005797 Y47.320222 
G1 X-65.005797 Y47.929775 
G1 X-64.574775 Y48.360797 
G1 X-64.548597 Y48.360797 
G1 X-64.548597 Y48.463997 
G1 X-64.617522 Y48.463997 
G1 X-64.678481 Y48.403038 
G1 X-64.739113 Y48.342406 
G1 X-64.826284 Y48.304275 
G1 X-64.916912 Y48.304275 
G1 X-64.950603 Y48.318231 
G1 X-65.000634 Y48.338953 
G1 X-65.064716 Y48.403034 
G1 X-65.099397 Y48.486759 
G1 X-65.099397 Y52.003322 
G1 X-65.064716 Y52.087047 
G1 X-65.000637 Y52.151125 
G1 X-64.787041 Y52.364719 
G1 X-64.737009 Y52.385441 
G1 X-64.703319 Y52.399397 
G1 X-17.674759 Y52.399397 
G1 X-17.629834 Y52.399397 
G1 X-17.599456 Y52.399397 
G1 X-17.570109 Y52.391534 
G1 X-17.543791 Y52.376337 
G1 X-17.515731 Y52.364716 
G1 X-17.473131 Y52.322113 
G1 X-17.445794 Y52.286484 
G1 X-17.428597 Y52.244972 
G1 X-17.416972 Y52.216912 
G1 X-17.413006 Y52.186788 
G1 X-17.416972 Y52.156663 
G1 X-17.416972 Y52.126284 
G1 X-17.424834 Y52.096938 
G1 X-17.440031 Y52.070619 
G1 X-17.451653 Y52.042559 
G1 X-17.607459 Y51.780631 
G1 X-17.682462 Y51.500716 
G1 X-17.694094 Y51.457313 
G1 X-17.701953 Y51.427975 
G1 X-17.717144 Y51.401663 
G1 X-17.757119 Y51.356078 
G1 X-17.809287 Y51.325959 
G1 X-17.835600 Y51.310766 
G1 X-17.864950 Y51.302903 
G1 X-17.895328 Y51.302903 
G1 X-17.925453 Y51.298938 
G1 X-17.955575 Y51.302903 
G1 X-17.983647 Y51.314531 
G1 X-18.012988 Y51.322394 
G1 X-18.039300 Y51.337584 
G1 X-18.070525 Y51.366544 
G1 X-17.882400 Y51.178422 
G1 X-17.882400 Y50.421575 
G1 X-18.070538 Y50.233441 
G1 X-18.039300 Y50.262409 
G1 X-18.012988 Y50.277600 
G1 X-17.983647 Y50.285459 
G1 X-17.955575 Y50.297091 
G1 X-17.925453 Y50.301056 
G1 X-17.895328 Y50.297091 
G1 X-17.864950 Y50.297091 
G1 X-17.835600 Y50.289228 
G1 X-17.809287 Y50.274034 
G1 X-17.781225 Y50.262413 
G1 X-17.738625 Y50.219809 
G1 X-17.711281 Y50.184172 
G1 X-17.694094 Y50.142681 
G1 X-17.682462 Y50.114606 
G1 X-17.607459 Y49.819359 
G1 X-17.272984 Y49.240031 
G1 X-16.799962 Y48.767009 
G1 X-16.220631 Y48.432534 
G1 X-15.574478 Y48.259397 
G1 X-14.905516 Y48.259397 
G1 X-14.259359 Y48.432534 
G1 X-13.680031 Y48.767009 
G1 X-13.207012 Y49.240028 
G1 X-12.872534 Y49.819362 
G1 X-12.699397 Y50.465516 
G1 X-12.699397 Y51.134478 
G1 X-12.872534 Y51.780631 
G1 X-13.017509 Y52.031731 
G1 X-13.039962 Y52.070619 
G1 X-13.055159 Y52.096938 
G1 X-13.063022 Y52.126284 
G1 X-13.063022 Y52.156663 
G1 X-13.066987 Y52.186788 
G1 X-13.063022 Y52.216912 
G1 X-13.051397 Y52.244972 
G1 X-13.043534 Y52.274325 
G1 X-13.028341 Y52.300638 
G1 X-12.988366 Y52.346222 
G1 X-12.936203 Y52.376337 
G1 X-12.909884 Y52.391534 
G1 X-12.880538 Y52.399397 
G1 X-12.850159 Y52.399397 
G1 X-12.820034 Y52.403363 
G1 X-9.683850 Y52.399397 
G1 X-9.600125 Y52.364716 
G1 X-9.536047 Y52.300638 
G1 X-9.475278 Y52.239869 
G1 X-9.440597 Y52.156144 
G1 X-9.440597 Y46.832759 
G1 X-9.297400 Y46.487050 
G1 X-8.968725 Y46.158378 
G1 X-8.012944 Y45.202594 
G1 X-7.667234 Y45.059397 
G1 X-1.132641 Y45.059397 
G1 X-1.048916 Y45.024716 
G1 X-0.984838 Y44.960637 
G1 X-0.940597 Y44.867353 
G1 X-0.940597 Y1.336675 
G1 X-0.975278 Y1.252950 
G0 Z5.000000 
G0 X-3.284825 Y7.977194 
G1 Z-0.200000 F80    
G1 X-2.998794 Y8.263225 F200   
G1 X-2.843997 Y8.636941 
G1 X-2.843997 Y9.041453 
G1 X-2.998794 Y9.415169 
G1 X-3.114116 Y9.530487 
G1 X-3.148797 Y9.614213 
G1 X-3.148797 Y10.969325 
G1 X-3.257191 Y11.231016 
G1 X-4.469091 Y12.442913 
G1 X-4.669375 Y12.643200 
G1 X-4.931069 Y12.751597 
G1 X-15.973900 Y12.751597 
G1 X-16.235591 Y12.643203 
G1 X-17.696297 Y11.182494 
G1 X-17.896587 Y10.982206 
G1 X-18.004981 Y10.720516 
G1 X-18.004981 Y9.407381 
G1 X-18.157381 Y9.039459 
G1 X-18.157381 Y8.695578 
G1 X-18.025784 Y8.377872 
G1 X-17.782628 Y8.134716 
G1 X-17.464922 Y8.003119 
G1 X-17.121041 Y8.003119 
G1 X-16.803334 Y8.134716 
G1 X-16.560178 Y8.377872 
G1 X-16.428581 Y8.695578 
G1 X-16.428581 Y9.039459 
G1 X-16.580981 Y9.407381 
G1 X-16.580981 Y10.234922 
G1 X-16.546300 Y10.318647 
G1 X-16.482222 Y10.382725 
G1 X-15.572031 Y11.292916 
G1 X-15.488306 Y11.327597 
G1 X-5.416663 Y11.327597 
G1 X-5.332937 Y11.292916 
G1 X-5.268859 Y11.228837 
G1 X-4.607478 Y10.567456 
G1 X-4.572797 Y10.483731 
G1 X-4.572797 Y9.614213 
G1 X-4.607478 Y9.530487 
G1 X-4.671556 Y9.466409 
G1 X-4.722800 Y9.415169 
G1 X-4.877597 Y9.041453 
G1 X-4.877597 Y8.636941 
G1 X-4.722800 Y8.263225 
G1 X-4.436769 Y7.977194 
G1 X-4.063053 Y7.822397 
G1 X-3.658541 Y7.822397 
G1 X-3.284825 Y7.977194 
G0 Z5.000000 
G0 X-3.379922 Y7.939541 
G1 Z-0.200000 F80    
G1 X-3.564675 Y7.863012 F200   
G1 X-3.760809 Y7.824000 
G1 X-3.960787 Y7.824000 
G1 X-4.156922 Y7.863012 
G1 X-4.341675 Y7.939541 
G1 X-4.507950 Y8.050641 
G1 X-4.649356 Y8.192047 
G1 X-4.760456 Y8.358322 
G1 X-4.836984 Y8.543075 
G1 X-4.875997 Y8.739209 
G1 X-4.875997 Y8.939187 
G1 X-4.836984 Y9.135322 
G1 X-4.760456 Y9.320075 
G1 X-4.649356 Y9.486350 
G1 X-4.571197 Y9.564509 
G1 X-4.571197 Y10.533441 
G1 X-5.366956 Y11.329200 
G1 X-15.538016 Y11.329200 
G1 X-16.582584 Y10.284631 
G1 X-16.582584 Y9.357328 
G1 X-16.528381 Y9.276209 
G1 X-16.463341 Y9.119191 
G1 X-16.430184 Y8.952500 
G1 X-16.430184 Y8.782541 
G1 X-16.463341 Y8.615850 
G1 X-16.528381 Y8.458831 
G1 X-16.622803 Y8.317519 
G1 X-16.742981 Y8.197341 
G1 X-16.884294 Y8.102919 
G1 X-17.041313 Y8.037878 
G1 X-17.208003 Y8.004722 
G1 X-17.377962 Y8.004722 
G1 X-17.544653 Y8.037878 
G1 X-17.701672 Y8.102919 
G1 X-17.842984 Y8.197341 
G1 X-17.963162 Y8.317519 
G1 X-18.057584 Y8.458831 
G1 X-18.122625 Y8.615850 
G1 X-18.155781 Y8.782541 
G1 X-18.155781 Y8.952500 
G1 X-18.122625 Y9.119191 
G1 X-18.057584 Y9.276209 
G1 X-18.003381 Y9.357328 
G1 X-18.003381 Y10.648859 
G1 X-17.976081 Y10.786106 
G1 X-17.922531 Y10.915391 
G1 X-17.844784 Y11.031744 
G1 X-17.745838 Y11.130691 
G1 X-16.285128 Y12.591400 
G1 X-16.168775 Y12.669147 
G1 X-16.039491 Y12.722697 
G1 X-15.902244 Y12.749997 
G1 X-5.002728 Y12.749997 
G1 X-4.865481 Y12.722697 
G1 X-4.736197 Y12.669147 
G1 X-4.619844 Y12.591400 
G1 X-4.520897 Y12.492453 
G1 X-3.308997 Y11.280553 
G1 X-3.231250 Y11.164200 
G1 X-3.177700 Y11.034916 
G1 X-3.150400 Y10.897669 
G1 X-3.150400 Y9.564509 
G1 X-3.072241 Y9.486350 
G1 X-2.961141 Y9.320075 
G1 X-2.884612 Y9.135322 
G1 X-2.845600 Y8.939187 
G1 X-2.845600 Y8.739209 
G1 X-2.884612 Y8.543075 
G1 X-2.961141 Y8.358322 
G1 X-3.072241 Y8.192047 
G1 X-3.213647 Y8.050641 
G1 X-3.379922 Y7.939541 
G0 Z5.000000 
G0 X-5.790041 Y8.192047 
G1 Z-0.200000 F80    
G1 X-5.868200 Y8.113888 F200   
G1 X-5.868200 Y6.882766 
G1 X-5.895500 Y6.745519 
G1 X-5.949050 Y6.616234 
G1 X-6.026797 Y6.499881 
G1 X-7.328034 Y5.198644 
G1 X-7.426981 Y5.099697 
G1 X-7.543334 Y5.021950 
G1 X-7.672619 Y4.968400 
G1 X-7.809866 Y4.941100 
G1 X-31.533025 Y4.941100 
G1 X-32.309600 Y4.164525 
G1 X-32.309600 Y3.121619 
G1 X-32.106400 Y2.918422 
G1 X-32.106400 Y2.161575 
G1 X-32.641575 Y1.626400 
G1 X-33.398422 Y1.626400 
G1 X-33.933597 Y2.161575 
G1 X-33.933597 Y2.918422 
G1 X-33.730397 Y3.121619 
G1 X-33.730397 Y4.528753 
G1 X-33.703097 Y4.666000 
G1 X-33.649547 Y4.795284 
G1 X-33.571800 Y4.911638 
G1 X-33.472853 Y5.010584 
G1 X-32.280138 Y6.203300 
G1 X-32.163784 Y6.281047 
G1 X-32.034500 Y6.334597 
G1 X-31.897253 Y6.361897 
G1 X-8.174094 Y6.361897 
G1 X-7.288997 Y7.246994 
G1 X-7.288997 Y8.113888 
G1 X-7.367156 Y8.192047 
G1 X-7.478256 Y8.358322 
G1 X-7.554784 Y8.543075 
G1 X-7.593797 Y8.739209 
G1 X-7.593797 Y8.939187 
G1 X-7.554784 Y9.135322 
G1 X-7.478256 Y9.320075 
G1 X-7.367156 Y9.486350 
G1 X-7.225750 Y9.627756 
G1 X-7.059475 Y9.738856 
G1 X-6.874722 Y9.815384 
G1 X-6.678587 Y9.854397 
G1 X-6.478609 Y9.854397 
G1 X-6.282475 Y9.815384 
G1 X-6.097722 Y9.738856 
G1 X-5.931447 Y9.627756 
G1 X-5.790041 Y9.486350 
G1 X-5.678941 Y9.320075 
G1 X-5.602412 Y9.135322 
G1 X-5.563400 Y8.939187 
G1 X-5.563400 Y8.739209 
G1 X-5.602412 Y8.543075 
G1 X-5.678941 Y8.358322 
G1 X-5.790041 Y8.192047 
G0 Z5.000000 
G0 X-8.434394 Y8.263225 
G1 Z-0.200000 F80    
G1 X-8.279597 Y8.636938 F200   
G1 X-8.279597 Y9.041453 
G1 X-8.434394 Y9.415169 
G1 X-8.720425 Y9.701200 
G1 X-9.094141 Y9.855997 
G1 X-9.498653 Y9.855997 
G1 X-9.872369 Y9.701200 
G1 X-10.158400 Y9.415169 
G1 X-10.313197 Y9.041453 
G1 X-10.313197 Y8.636938 
G1 X-10.158400 Y8.263225 
G1 X-9.872369 Y7.977194 
G1 X-9.498653 Y7.822397 
G1 X-9.094141 Y7.822397 
G1 X-8.720425 Y7.977194 
G1 X-8.434394 Y8.263225 
G0 Z5.000000 
G0 X-8.396741 Y8.358322 
G1 Z-0.200000 F80    
G1 X-8.507841 Y8.192047 F200   
G1 X-8.649247 Y8.050641 
G1 X-8.815522 Y7.939541 
G1 X-9.000275 Y7.863012 
G1 X-9.196409 Y7.824000 
G1 X-9.396387 Y7.824000 
G1 X-9.592522 Y7.863012 
G1 X-9.777275 Y7.939541 
G1 X-9.943550 Y8.050641 
G1 X-10.084956 Y8.192047 
G1 X-10.196056 Y8.358322 
G1 X-10.272584 Y8.543075 
G1 X-10.311597 Y8.739209 
G1 X-10.311597 Y8.939187 
G1 X-10.272584 Y9.135322 
G1 X-10.196056 Y9.320075 
G1 X-10.084956 Y9.486350 
G1 X-9.943550 Y9.627756 
G1 X-9.777275 Y9.738856 
G1 X-9.592522 Y9.815384 
G1 X-9.396387 Y9.854397 
G1 X-9.196409 Y9.854397 
G1 X-9.000275 Y9.815384 
G1 X-8.815522 Y9.738856 
G1 X-8.649247 Y9.627756 
G1 X-8.507841 Y9.486350 
G1 X-8.396741 Y9.320075 
G1 X-8.320213 Y9.135322 
G1 X-8.281200 Y8.939187 
G1 X-8.281200 Y8.739209 
G1 X-8.320213 Y8.543075 
G1 X-8.396741 Y8.358322 
G0 Z5.000000 
G0 X-11.152038 Y15.655100 
G1 Z-0.200000 F80    
G1 X-10.919403 Y15.887734 F200   
G1 X-10.793497 Y16.191694 
G1 X-10.793497 Y16.961713 
G1 X-10.758816 Y17.045437 
G1 X-10.694738 Y17.109516 
G1 X-10.611012 Y17.144197 
G1 X-10.048288 Y17.144197 
G1 X-9.786597 Y17.252591 
G1 X-8.499381 Y18.539809 
G1 X-8.299091 Y18.740097 
G1 X-8.190697 Y19.001787 
G1 X-8.190697 Y28.115347 
G1 X-8.299091 Y28.377038 
G1 X-9.640459 Y29.718406 
G1 X-9.671959 Y29.749903 
G1 X-9.704497 Y29.782412 
G1 X-9.900759 Y29.978703 
G1 X-10.152628 Y30.083028 
G1 X-10.445694 Y30.087097 
G1 X-13.310378 Y30.087094 
G1 X-13.355250 Y30.086931 
G1 X-13.397622 Y30.104303 
G1 X-13.439103 Y30.121303 
G1 X-13.471312 Y30.153278 
G1 X-14.301687 Y30.977612 
G1 X-14.334122 Y31.009809 
G1 X-14.365687 Y31.041144 
G1 X-14.383359 Y31.083372 
G1 X-14.400675 Y31.124741 
G1 X-14.400841 Y31.170553 
G1 X-14.401003 Y31.215366 
G1 X-14.400787 Y31.571613 
G1 X-14.400784 Y31.620069 
G1 X-14.381991 Y31.665428 
G1 X-14.375328 Y32.317641 
G1 X-14.401312 Y32.380181 
G1 X-14.401381 Y32.424959 
G1 X-14.403378 Y33.727247 
G1 X-14.403450 Y33.772875 
G1 X-14.403519 Y33.817694 
G1 X-14.386250 Y33.859563 
G1 X-14.368969 Y33.901472 
G1 X-14.278412 Y34.119906 
G1 X-14.278412 Y35.977688 
G1 X-14.405413 Y36.284287 
G1 X-14.405413 Y40.315706 
G1 X-14.278412 Y40.622306 
G1 X-14.278412 Y42.480088 
G1 X-14.406141 Y42.788453 
G1 X-14.642156 Y43.024469 
G1 X-14.950522 Y43.152197 
G1 X-15.284303 Y43.152197 
G1 X-15.592669 Y43.024469 
G1 X-15.828684 Y42.788453 
G1 X-15.956413 Y42.480088 
G1 X-15.956413 Y40.622306 
G1 X-15.829413 Y40.315706 
G1 X-15.829413 Y39.194481 
G1 X-15.864094 Y39.110756 
G1 X-15.928172 Y39.046678 
G1 X-16.011897 Y39.011997 
G1 X-26.075916 Y39.011997 
G1 X-26.120228 Y38.967684 
G1 X-26.181116 Y38.906797 
G1 X-26.384600 Y38.703319 
G1 X-26.448681 Y38.639228 
G1 X-26.492997 Y38.594916 
G1 X-26.492997 Y38.005078 
G1 X-26.448684 Y37.960766 
G1 X-26.387797 Y37.899878 
G1 X-26.184319 Y37.696394 
G1 X-26.120228 Y37.632312 
G1 X-26.075916 Y37.587997 
G1 X-16.011897 Y37.587997 
G1 X-15.928172 Y37.553316 
G1 X-15.864094 Y37.489238 
G1 X-15.829413 Y37.405513 
G1 X-15.829413 Y36.284287 
G1 X-15.956413 Y35.977688 
G1 X-15.956413 Y34.119906 
G1 X-15.845106 Y33.851191 
G1 X-15.827506 Y33.808891 
G1 X-15.827438 Y33.764075 
G1 X-15.825453 Y32.470013 
G1 X-15.825381 Y32.424397 
G1 X-15.825313 Y32.379575 
G1 X-15.842603 Y32.337650 
G1 X-15.850128 Y31.681362 
G1 X-15.824787 Y31.620184 
G1 X-15.824784 Y31.575081 
G1 X-15.824781 Y31.529559 
G1 X-15.824869 Y30.965275 
G1 X-15.824700 Y30.920406 
G1 X-15.825059 Y30.823619 
G1 X-15.824894 Y30.778206 
G1 X-15.824728 Y30.733441 
G1 X-15.824912 Y30.638522 
G1 X-15.787731 Y30.547872 
G1 X-15.770181 Y30.505934 
G1 X-15.752919 Y30.464688 
G1 X-15.716659 Y30.376669 
G1 X-15.647531 Y30.307131 
G1 X-15.615572 Y30.275403 
G1 X-15.583538 Y30.243606 
G1 X-15.516600 Y30.176406 
G1 X-15.483534 Y30.144331 
G1 X-14.232516 Y28.902419 
G1 X-14.200344 Y28.870481 
G1 X-14.168506 Y28.838878 
G1 X-14.101553 Y28.771691 
G1 X-14.010816 Y28.733809 
G1 X-13.968869 Y28.716613 
G1 X-13.927366 Y28.699600 
G1 X-13.840022 Y28.663241 
G1 X-13.741972 Y28.662928 
G1 X-13.696912 Y28.663094 
G1 X-13.651781 Y28.663259 
G1 X-10.738666 Y28.663097 
G1 X-10.648037 Y28.663097 
G1 X-10.564312 Y28.628416 
G1 X-10.500234 Y28.564338 
G1 X-9.649378 Y27.713478 
G1 X-9.614697 Y27.629753 
G1 X-9.614697 Y19.487381 
G1 X-9.649378 Y19.403656 
G1 X-9.713456 Y19.339578 
G1 X-10.450156 Y18.602878 
G1 X-10.533881 Y18.568197 
G1 X-11.178366 Y18.568197 
G1 X-11.455994 Y18.683197 
G1 X-11.785000 Y18.683197 
G1 X-12.088956 Y18.557294 
G1 X-12.321594 Y18.324656 
G1 X-12.447497 Y18.020700 
G1 X-12.447497 Y16.191694 
G1 X-12.321594 Y15.887738 
G1 X-12.088956 Y15.655100 
G1 X-11.785000 Y15.529197 
G1 X-11.455994 Y15.529197 
G1 X-11.152038 Y15.655100 
G0 Z5.000000 
G0 X-11.229525 Y15.624741 
G1 Z-0.200000 F80    
G1 X-11.379737 Y15.562519 F200   
G1 X-11.539203 Y15.530800 
G1 X-11.701794 Y15.530800 
G1 X-11.861259 Y15.562519 
G1 X-12.011472 Y15.624741 
G1 X-12.146659 Y15.715069 
G1 X-12.261628 Y15.830037 
G1 X-12.351956 Y15.965225 
G1 X-12.414178 Y16.115437 
G1 X-12.445897 Y16.274903 
G1 X-12.445897 Y17.937494 
G1 X-12.414178 Y18.096959 
G1 X-12.351956 Y18.247172 
G1 X-12.261628 Y18.382359 
G1 X-12.146659 Y18.497328 
G1 X-12.011472 Y18.587656 
G1 X-11.861259 Y18.649878 
G1 X-11.701794 Y18.681597 
G1 X-11.539203 Y18.681597 
G1 X-11.379737 Y18.649878 
G1 X-11.229525 Y18.587656 
G1 X-11.198006 Y18.566597 
G1 X-10.484175 Y18.566597 
G1 X-9.613097 Y19.437675 
G1 X-9.613097 Y27.679462 
G1 X-10.598331 Y28.664700 
G1 X-13.696703 Y28.664697 
G1 X-13.765413 Y28.664447 
G1 X-13.835400 Y28.678103 
G1 X-13.902759 Y28.691244 
G1 X-13.968666 Y28.718263 
G1 X-14.032238 Y28.744322 
G1 X-14.091762 Y28.783784 
G1 X-14.148872 Y28.821641 
G1 X-14.199494 Y28.871897 
G1 X-15.564697 Y30.227156 
G1 X-15.614172 Y30.276272 
G1 X-15.663041 Y30.324781 
G1 X-15.702728 Y30.383716 
G1 X-15.741209 Y30.440850 
G1 X-15.768700 Y30.506544 
G1 X-15.795231 Y30.569938 
G1 X-15.809397 Y30.639816 
G1 X-15.823034 Y30.707084 
G1 X-15.823294 Y30.778372 
G1 X-15.823544 Y30.847022 
G1 X-15.823172 Y31.669869 
G1 X-15.848528 Y32.304775 
G1 X-15.825953 Y33.839928 
G1 X-15.859506 Y33.890141 
G1 X-15.922631 Y34.042538 
G1 X-15.954812 Y34.204322 
G1 X-15.954812 Y35.893275 
G1 X-15.922631 Y36.055059 
G1 X-15.859506 Y36.207456 
G1 X-15.827813 Y36.254888 
G1 X-15.827813 Y37.589600 
G1 X-26.075253 Y37.589600 
G1 X-26.233844 Y37.748191 
G1 X-26.332800 Y37.847144 
G1 X-26.491397 Y38.005744 
G1 X-26.491397 Y38.594253 
G1 X-26.332806 Y38.752844 
G1 X-26.233853 Y38.851800 
G1 X-26.075253 Y39.010397 
G1 X-15.827813 Y39.010397 
G1 X-15.827813 Y40.345109 
G1 X-15.859506 Y40.392541 
G1 X-15.922631 Y40.544938 
G1 X-15.954812 Y40.706722 
G1 X-15.954812 Y42.395675 
G1 X-15.922631 Y42.557459 
G1 X-15.859506 Y42.709856 
G1 X-15.767866 Y42.847009 
G1 X-15.651225 Y42.963650 
G1 X-15.514072 Y43.055291 
G1 X-15.361675 Y43.118416 
G1 X-15.199891 Y43.150597 
G1 X-15.034937 Y43.150597 
G1 X-14.873153 Y43.118416 
G1 X-14.720756 Y43.055291 
G1 X-14.583603 Y42.963650 
G1 X-14.466962 Y42.847009 
G1 X-14.375322 Y42.709856 
G1 X-14.312197 Y42.557459 
G1 X-14.280016 Y42.395675 
G1 X-14.280016 Y40.706722 
G1 X-14.312197 Y40.544938 
G1 X-14.375322 Y40.392541 
G1 X-14.407016 Y40.345109 
G1 X-14.407016 Y36.254888 
G1 X-14.375322 Y36.207456 
G1 X-14.312197 Y36.055059 
G1 X-14.280016 Y35.893275 
G1 X-14.280016 Y34.204322 
G1 X-14.312197 Y34.042538 
G1 X-14.375322 Y33.890141 
G1 X-14.405169 Y33.845475 
G1 X-14.402841 Y32.330681 
G1 X-14.376931 Y32.304775 
G1 X-14.376931 Y31.695222 
G1 X-14.402378 Y31.669778 
G1 X-14.402456 Y31.075388 
G1 X-13.405300 Y30.085494 
G1 X-10.374047 Y30.085497 
G1 X-10.234106 Y30.085497 
G1 X-10.096859 Y30.058197 
G1 X-9.967575 Y30.004647 
G1 X-9.851225 Y29.926903 
G1 X-9.752275 Y29.827953 
G1 X-8.350897 Y28.426575 
G1 X-8.273150 Y28.310222 
G1 X-8.219600 Y28.180937 
G1 X-8.192300 Y28.043691 
G1 X-8.192300 Y19.073447 
G1 X-8.219600 Y18.936200 
G1 X-8.273150 Y18.806916 
G1 X-8.350897 Y18.690562 
G1 X-8.449844 Y18.591616 
G1 X-9.737063 Y17.304397 
G1 X-9.853416 Y17.226650 
G1 X-9.982700 Y17.173100 
G1 X-10.119947 Y17.145800 
G1 X-10.795100 Y17.145800 
G1 X-10.795100 Y16.274903 
G1 X-10.826819 Y16.115437 
G1 X-10.889041 Y15.965225 
G1 X-10.979369 Y15.830037 
G1 X-11.094337 Y15.715069 
G1 X-11.229525 Y15.624741 
G0 Z5.000000 
G0 X-13.692037 Y15.655100 
G1 Z-0.200000 F80    
G1 X-13.459400 Y15.887738 F200   
G1 X-13.333497 Y16.191694 
G1 X-13.333497 Y18.020700 
G1 X-13.459400 Y18.324656 
G1 X-13.692037 Y18.557294 
G1 X-13.995994 Y18.683197 
G1 X-14.325000 Y18.683197 
G1 X-14.628956 Y18.557294 
G1 X-14.861594 Y18.324656 
G1 X-14.987497 Y18.020700 
G1 X-14.987497 Y16.191694 
G1 X-14.861594 Y15.887738 
G1 X-14.628956 Y15.655100 
G1 X-14.325000 Y15.529197 
G1 X-13.995994 Y15.529197 
G1 X-13.692037 Y15.655100 
G0 Z5.000000 
G0 X-13.769525 Y15.624741 
G1 Z-0.200000 F80    
G1 X-13.919738 Y15.562519 F200   
G1 X-14.079203 Y15.530800 
G1 X-14.241794 Y15.530800 
G1 X-14.401259 Y15.562519 
G1 X-14.551472 Y15.624741 
G1 X-14.686659 Y15.715069 
G1 X-14.801628 Y15.830037 
G1 X-14.891956 Y15.965225 
G1 X-14.954178 Y16.115437 
G1 X-14.985897 Y16.274903 
G1 X-14.985897 Y17.937494 
G1 X-14.954178 Y18.096959 
G1 X-14.891956 Y18.247172 
G1 X-14.801628 Y18.382359 
G1 X-14.686659 Y18.497328 
G1 X-14.551472 Y18.587656 
G1 X-14.401259 Y18.649878 
G1 X-14.241794 Y18.681597 
G1 X-14.079203 Y18.681597 
G1 X-13.919738 Y18.649878 
G1 X-13.769525 Y18.587656 
G1 X-13.634338 Y18.497328 
G1 X-13.519369 Y18.382359 
G1 X-13.429041 Y18.247172 
G1 X-13.366819 Y18.096959 
G1 X-13.335100 Y17.937494 
G1 X-13.335100 Y16.274903 
G1 X-13.366819 Y16.115437 
G1 X-13.429041 Y15.965225 
G1 X-13.519369 Y15.830037 
G1 X-13.634338 Y15.715069 
G1 X-13.769525 Y15.624741 
G0 Z5.000000 
G0 X-16.232038 Y15.655100 
G1 Z-0.200000 F80    
G1 X-15.999400 Y15.887738 F200   
G1 X-15.873497 Y16.191694 
G1 X-15.873497 Y18.020700 
G1 X-15.999400 Y18.324656 
G1 X-16.232038 Y18.557294 
G1 X-16.535991 Y18.683197 
G1 X-16.865000 Y18.683197 
G1 X-17.168956 Y18.557294 
G1 X-17.401594 Y18.324656 
G1 X-17.527497 Y18.020700 
G1 X-17.527497 Y16.191691 
G1 X-17.401594 Y15.887738 
G1 X-17.168956 Y15.655100 
G1 X-16.865000 Y15.529197 
G1 X-16.535994 Y15.529197 
G1 X-16.232038 Y15.655100 
G0 Z5.000000 
G0 X-16.309525 Y15.624741 
G1 Z-0.200000 F80    
G1 X-16.459737 Y15.562519 F200   
G1 X-16.619203 Y15.530800 
G1 X-16.781794 Y15.530800 
G1 X-16.941259 Y15.562519 
G1 X-17.091472 Y15.624741 
G1 X-17.226659 Y15.715069 
G1 X-17.341628 Y15.830037 
G1 X-17.431956 Y15.965225 
G1 X-17.494178 Y16.115437 
G1 X-17.525897 Y16.274903 
G1 X-17.525897 Y17.937494 
G1 X-17.494178 Y18.096959 
G1 X-17.431956 Y18.247172 
G1 X-17.341628 Y18.382359 
G1 X-17.226659 Y18.497328 
G1 X-17.091472 Y18.587656 
G1 X-16.941259 Y18.649878 
G1 X-16.781794 Y18.681597 
G1 X-16.619203 Y18.681597 
G1 X-16.459737 Y18.649878 
G1 X-16.309525 Y18.587656 
G1 X-16.174338 Y18.497328 
G1 X-16.059369 Y18.382359 
G1 X-15.969041 Y18.247172 
G1 X-15.906819 Y18.096959 
G1 X-15.875100 Y17.937494 
G1 X-15.875100 Y16.274903 
G1 X-15.906819 Y16.115437 
G1 X-15.969041 Y15.965225 
G1 X-16.059369 Y15.830037 
G1 X-16.174338 Y15.715069 
G1 X-16.309525 Y15.624741 
G0 Z5.000000 
G0 X-18.772037 Y15.655100 
G1 Z-0.200000 F80    
G1 X-18.539400 Y15.887738 F200   
G1 X-18.413497 Y16.191694 
G1 X-18.413497 Y18.020700 
G1 X-18.539400 Y18.324656 
G1 X-18.772037 Y18.557294 
G1 X-19.075994 Y18.683197 
G1 X-19.405000 Y18.683197 
G1 X-19.708956 Y18.557294 
G1 X-19.941594 Y18.324656 
G1 X-20.067497 Y18.020700 
G1 X-20.067497 Y16.191694 
G1 X-19.941594 Y15.887738 
G1 X-19.708956 Y15.655100 
G1 X-19.405000 Y15.529197 
G1 X-19.075994 Y15.529197 
G1 X-18.772037 Y15.655100 
G0 Z5.000000 
G0 X-18.849525 Y15.624741 
G1 Z-0.200000 F80    
G1 X-18.999737 Y15.562519 F200   
G1 X-19.159203 Y15.530800 
G1 X-19.321794 Y15.530800 
G1 X-19.481259 Y15.562519 
G1 X-19.631472 Y15.624741 
G1 X-19.766659 Y15.715069 
G1 X-19.881628 Y15.830037 
G1 X-19.971956 Y15.965225 
G1 X-20.034178 Y16.115437 
G1 X-20.065897 Y16.274903 
G1 X-20.065897 Y17.937494 
G1 X-20.034178 Y18.096959 
G1 X-19.971956 Y18.247172 
G1 X-19.881628 Y18.382359 
G1 X-19.766659 Y18.497328 
G1 X-19.631472 Y18.587656 
G1 X-19.481259 Y18.649878 
G1 X-19.321794 Y18.681597 
G1 X-19.159203 Y18.681597 
G1 X-18.999737 Y18.649878 
G1 X-18.849525 Y18.587656 
G1 X-18.714337 Y18.497328 
G1 X-18.599369 Y18.382359 
G1 X-18.509041 Y18.247172 
G1 X-18.446819 Y18.096959 
G1 X-18.415100 Y17.937494 
G1 X-18.415100 Y16.274903 
G1 X-18.446819 Y16.115437 
G1 X-18.509041 Y15.965225 
G1 X-18.599369 Y15.830037 
G1 X-18.714337 Y15.715069 
G1 X-18.849525 Y15.624741 
G0 Z5.000000 
G0 X-21.312037 Y15.655100 
G1 Z-0.200000 F80    
G1 X-21.079400 Y15.887738 F200   
G1 X-20.953497 Y16.191694 
G1 X-20.953497 Y18.020700 
G1 X-21.079400 Y18.324656 
G1 X-21.312037 Y18.557294 
G1 X-21.615994 Y18.683197 
G1 X-21.945000 Y18.683197 
G1 X-22.248956 Y18.557294 
G1 X-22.481594 Y18.324656 
G1 X-22.607497 Y18.020703 
G1 X-22.607497 Y16.191691 
G1 X-22.481594 Y15.887738 
G1 X-22.248956 Y15.655100 
G1 X-21.945000 Y15.529197 
G1 X-21.615994 Y15.529197 
G1 X-21.312037 Y15.655100 
G0 Z5.000000 
G0 X-21.389525 Y15.624741 
G1 Z-0.200000 F80    
G1 X-21.539738 Y15.562519 F200   
G1 X-21.699203 Y15.530800 
G1 X-21.861794 Y15.530800 
G1 X-22.021259 Y15.562519 
G1 X-22.171472 Y15.624741 
G1 X-22.306659 Y15.715069 
G1 X-22.421628 Y15.830037 
G1 X-22.511956 Y15.965225 
G1 X-22.574178 Y16.115437 
G1 X-22.605897 Y16.274903 
G1 X-22.605897 Y17.937494 
G1 X-22.574178 Y18.096959 
G1 X-22.511956 Y18.247172 
G1 X-22.421628 Y18.382359 
G1 X-22.306659 Y18.497328 
G1 X-22.171472 Y18.587656 
G1 X-22.021259 Y18.649878 
G1 X-21.861794 Y18.681597 
G1 X-21.699203 Y18.681597 
G1 X-21.539738 Y18.649878 
G1 X-21.389525 Y18.587656 
G1 X-21.254337 Y18.497328 
G1 X-21.139369 Y18.382359 
G1 X-21.049041 Y18.247172 
G1 X-20.986819 Y18.096959 
G1 X-20.955100 Y17.937494 
G1 X-20.955100 Y16.274903 
G1 X-20.986819 Y16.115437 
G1 X-21.049041 Y15.965225 
G1 X-21.139369 Y15.830037 
G1 X-21.254337 Y15.715069 
G1 X-21.389525 Y15.624741 
G0 Z5.000000 
G0 X-23.852038 Y15.655100 
G1 Z-0.200000 F80    
G1 X-23.619400 Y15.887738 F200   
G1 X-23.493497 Y16.191694 
G1 X-23.493497 Y18.020700 
G1 X-23.619400 Y18.324656 
G1 X-23.852038 Y18.557294 
G1 X-24.155994 Y18.683197 
G1 X-24.485000 Y18.683197 
G1 X-24.788956 Y18.557294 
G1 X-25.021594 Y18.324656 
G1 X-25.147497 Y18.020700 
G1 X-25.147497 Y16.191694 
G1 X-25.021594 Y15.887738 
G1 X-24.788956 Y15.655100 
G1 X-24.485000 Y15.529197 
G1 X-24.155994 Y15.529197 
G1 X-23.852038 Y15.655100 
G0 Z5.000000 
G0 X-23.929525 Y15.624741 
G1 Z-0.200000 F80    
G1 X-24.079738 Y15.562519 F200   
G1 X-24.239203 Y15.530800 
G1 X-24.401794 Y15.530800 
G1 X-24.561259 Y15.562519 
G1 X-24.711472 Y15.624741 
G1 X-24.846659 Y15.715069 
G1 X-24.961628 Y15.830037 
G1 X-25.051956 Y15.965225 
G1 X-25.114178 Y16.115437 
G1 X-25.145897 Y16.274903 
G1 X-25.145897 Y17.937494 
G1 X-25.114178 Y18.096959 
G1 X-25.051956 Y18.247172 
G1 X-24.961628 Y18.382359 
G1 X-24.846659 Y18.497328 
G1 X-24.711472 Y18.587656 
G1 X-24.561259 Y18.649878 
G1 X-24.401794 Y18.681597 
G1 X-24.239203 Y18.681597 
G1 X-24.079738 Y18.649878 
G1 X-23.929525 Y18.587656 
G1 X-23.794338 Y18.497328 
G1 X-23.679369 Y18.382359 
G1 X-23.589041 Y18.247172 
G1 X-23.526819 Y18.096959 
G1 X-23.495100 Y17.937494 
G1 X-23.495100 Y16.274903 
G1 X-23.526819 Y16.115437 
G1 X-23.589041 Y15.965225 
G1 X-23.679369 Y15.830037 
G1 X-23.794338 Y15.715069 
G1 X-23.929525 Y15.624741 
G0 Z5.000000 
G0 X-26.148497 Y15.914066 
G1 Z-0.200000 F80    
G1 X-26.146431 Y15.919047 F200   
G1 X-26.033497 Y16.191694 
G1 X-26.033497 Y18.020697 
G1 X-26.148497 Y18.298328 
G1 X-26.148497 Y20.545256 
G1 X-26.256891 Y20.806947 
G1 X-27.544859 Y22.094912 
G1 X-27.745147 Y22.295203 
G1 X-28.006837 Y22.403597 
G1 X-30.183634 Y22.403597 
G1 X-30.267359 Y22.438278 
G1 X-30.331437 Y22.502356 
G1 X-31.193816 Y23.364734 
G1 X-31.228497 Y23.448459 
G1 X-31.228497 Y25.034069 
G1 X-31.113497 Y25.311694 
G1 X-31.113497 Y27.140700 
G1 X-31.228497 Y27.418325 
G1 X-31.228497 Y28.074453 
G1 X-31.193816 Y28.158178 
G1 X-31.129738 Y28.222256 
G1 X-28.098678 Y31.253316 
G1 X-28.014953 Y31.287997 
G1 X-23.203228 Y31.287997 
G1 X-23.158403 Y31.287997 
G1 X-23.112609 Y31.287997 
G1 X-23.058584 Y31.265619 
G1 X-22.427287 Y31.262597 
G1 X-21.995328 Y31.694556 
G1 X-21.995328 Y32.305437 
G1 X-22.427287 Y32.737397 
G1 X-23.051291 Y32.737397 
G1 X-23.112597 Y32.712000 
G1 X-23.157416 Y32.711997 
G1 X-23.203222 Y32.711994 
G1 X-28.500547 Y32.711997 
G1 X-28.762238 Y32.603603 
G1 X-32.343812 Y29.022025 
G1 X-32.544103 Y28.821738 
G1 X-32.652497 Y28.560047 
G1 X-32.652497 Y27.418325 
G1 X-32.767497 Y27.140700 
G1 X-32.767497 Y25.311694 
G1 X-32.652497 Y25.034069 
G1 X-32.652497 Y22.962866 
G1 X-32.544103 Y22.701175 
G1 X-32.279734 Y22.436809 
G1 X-30.930919 Y21.087991 
G1 X-30.669231 Y20.979597 
G1 X-28.492431 Y20.979597 
G1 X-28.408706 Y20.944916 
G1 X-28.344628 Y20.880837 
G1 X-27.607178 Y20.143387 
G1 X-27.572497 Y20.059663 
G1 X-27.572497 Y18.298328 
G1 X-27.687497 Y18.020700 
G1 X-27.687497 Y16.191694 
G1 X-27.572497 Y15.914066 
G1 X-27.572497 Y15.120531 
G1 X-27.607178 Y15.036806 
G1 X-27.671256 Y14.972728 
G1 X-28.308306 Y14.335678 
G1 X-28.392031 Y14.300997 
G1 X-63.325050 Y14.300997 
G1 X-63.408775 Y14.335678 
G1 X-63.472853 Y14.399756 
G1 X-64.772616 Y15.699519 
G1 X-64.807297 Y15.783244 
G1 X-64.807297 Y23.287803 
G1 X-64.772616 Y23.371528 
G1 X-64.708538 Y23.435606 
G1 X-64.368575 Y23.775569 
G1 X-64.284850 Y23.810250 
G1 X-63.900200 Y23.810250 
G1 X-63.816475 Y23.775569 
G1 X-63.752397 Y23.711491 
G1 X-63.724156 Y23.683250 
G1 X-63.029106 Y23.683250 
G1 X-62.918413 Y23.793944 
G1 X-62.858547 Y23.853809 
G1 X-62.770609 Y23.892706 
G1 X-62.679981 Y23.892706 
G1 X-62.646291 Y23.878750 
G1 X-62.596259 Y23.858028 
G1 X-62.532178 Y23.793947 
G1 X-62.497497 Y23.710222 
G1 X-62.497497 Y23.450375 
G1 X-62.532178 Y23.366650 
G1 X-62.596256 Y23.302572 
G1 X-63.042897 Y22.855931 
G1 X-63.126622 Y22.821250 
G1 X-63.724156 Y22.821250 
G1 X-64.215631 Y22.329775 
G1 X-64.215631 Y21.634725 
G1 X-63.724156 Y21.143250 
G1 X-63.029106 Y21.143250 
G1 X-62.537631 Y21.634725 
G1 X-62.537631 Y22.232259 
G1 X-62.502950 Y22.315984 
G1 X-62.438872 Y22.380063 
G1 X-61.899425 Y22.919509 
G1 X-61.792022 Y23.026909 
G1 X-61.767825 Y23.085325 
G1 X-61.811462 Y23.009737 
G1 X-61.882250 Y22.938950 
G1 X-62.539234 Y22.281966 
G1 X-62.539234 Y21.635391 
G1 X-63.029772 Y21.144853 
G1 X-63.723494 Y21.144853 
G1 X-64.214031 Y21.635391 
G1 X-64.214031 Y22.329113 
G1 X-63.723494 Y22.819650 
G1 X-63.076919 Y22.819650 
G1 X-62.495897 Y23.400672 
G1 X-62.495897 Y26.926350 
G1 X-62.473316 Y27.010619 
G1 X-62.497497 Y26.952241 
G1 X-62.497497 Y25.334278 
G1 X-62.532178 Y25.250553 
G1 X-62.596256 Y25.186475 
G1 X-62.644316 Y25.166569 
G1 X-62.679981 Y25.151794 
G1 X-62.770609 Y25.151794 
G1 X-62.854334 Y25.186475 
G1 X-62.918413 Y25.250553 
G1 X-63.029106 Y25.361250 
G1 X-63.724156 Y25.361250 
G1 X-63.816475 Y25.268931 
G1 X-63.900200 Y25.234250 
G1 X-64.770444 Y25.234250 
G1 X-65.032134 Y25.125856 
G1 X-66.122903 Y24.035087 
G1 X-66.231297 Y23.773397 
G1 X-66.231297 Y15.297650 
G1 X-66.122903 Y15.035959 
G1 X-65.858534 Y14.771594 
G1 X-64.072334 Y12.985391 
G1 X-63.810644 Y12.876997 
G1 X-39.005381 Y12.876997 
G1 X-38.921656 Y12.842316 
G1 X-38.857578 Y12.778237 
G1 X-38.822897 Y12.694513 
G1 X-38.822897 Y9.560881 
G1 X-38.848297 Y9.499562 
G1 X-38.848297 Y8.863416 
G1 X-38.822275 Y8.800788 
G1 X-38.822200 Y8.755084 
G1 X-38.813181 Y3.261016 
G1 X-38.813106 Y3.216294 
G1 X-38.813031 Y3.170591 
G1 X-38.830281 Y3.128753 
G1 X-38.847575 Y3.086809 
G1 X-38.879438 Y3.054844 
G1 X-38.911550 Y3.022622 
G1 X-39.015197 Y2.919084 
G1 X-39.015197 Y2.160909 
G1 X-38.479084 Y1.624797 
G1 X-37.720909 Y1.624797 
G1 X-37.184797 Y2.160909 
G1 X-37.184797 Y2.919084 
G1 X-37.322025 Y3.056313 
G1 X-37.354219 Y3.088397 
G1 X-37.371587 Y3.130144 
G1 X-37.389034 Y3.172066 
G1 X-37.389109 Y3.217778 
G1 X-37.398125 Y8.711016 
G1 X-37.398200 Y8.755756 
G1 X-37.398275 Y8.801438 
G1 X-37.380919 Y8.843531 
G1 X-37.373497 Y9.499562 
G1 X-37.398897 Y9.560881 
G1 X-37.398897 Y12.694513 
G1 X-37.364216 Y12.778237 
G1 X-37.300137 Y12.842316 
G1 X-37.216412 Y12.876997 
G1 X-27.906437 Y12.876997 
G1 X-27.644747 Y12.985391 
G1 X-27.380381 Y13.249759 
G1 X-26.256891 Y14.373247 
G1 X-26.148497 Y14.634937 
G1 X-26.148497 Y15.914066 
G0 Z5.000000 
G1 Z-0.200000 F80    
G1 X-26.150100 Y14.706597 F200   
G1 X-26.177400 Y14.569350 
G1 X-26.230950 Y14.440066 
G1 X-26.308697 Y14.323712 
G1 X-27.496266 Y13.136144 
G1 X-27.595212 Y13.037197 
G1 X-27.711566 Y12.959450 
G1 X-27.840850 Y12.905900 
G1 X-27.978097 Y12.878600 
G1 X-37.400500 Y12.878600 
G1 X-37.400500 Y9.511175 
G1 X-37.375100 Y8.876222 
G1 X-37.390556 Y3.122575 
G1 X-37.186400 Y2.918422 
G1 X-37.186400 Y2.161575 
G1 X-37.721575 Y1.626400 
G1 X-38.478422 Y1.626400 
G1 X-39.013597 Y2.161575 
G1 X-39.013597 Y2.918422 
G1 X-38.811350 Y3.120666 
G1 X-38.820753 Y8.850281 
G1 X-38.846697 Y8.876222 
G1 X-38.846697 Y9.485775 
G1 X-38.821297 Y12.878600 
G1 X-63.738988 Y12.878600 
G1 X-63.876234 Y12.905900 
G1 X-64.005519 Y12.959450 
G1 X-64.121872 Y13.037197 
G1 X-65.972150 Y14.887478 
G1 X-66.071100 Y14.986425 
G1 X-66.148847 Y15.102778 
G1 X-66.202397 Y15.232062 
G1 X-66.229697 Y15.369309 
G1 X-66.229697 Y23.701741 
G1 X-66.202397 Y23.838988 
G1 X-66.148847 Y23.968272 
G1 X-66.071100 Y24.084625 
G1 X-65.180619 Y24.975103 
G1 X-65.081672 Y25.074053 
G1 X-64.965319 Y25.151800 
G1 X-64.836034 Y25.205350 
G1 X-64.698787 Y25.232650 
G1 X-63.850491 Y25.232650 
G1 X-63.723494 Y25.359650 
G1 X-63.029772 Y25.359650 
G1 X-62.539234 Y24.869112 
G1 X-62.539234 Y24.175391 
G1 X-63.029772 Y23.684853 
G1 X-63.723494 Y23.684853 
G1 X-63.850491 Y23.811853 
G1 X-64.334559 Y23.811853 
G1 X-64.808900 Y23.337512 
G1 X-64.808900 Y15.733534 
G1 X-63.374759 Y14.299397 
G1 X-28.342325 Y14.299397 
G1 X-27.570897 Y15.070825 
G1 X-27.570897 Y15.933709 
G1 X-27.591956 Y15.965225 
G1 X-27.654178 Y16.115437 
G1 X-27.685897 Y16.274903 
G1 X-27.685897 Y17.937494 
G1 X-27.654178 Y18.096959 
G1 X-27.591956 Y18.247172 
G1 X-27.570897 Y18.278688 
G1 X-27.570897 Y20.109372 
G1 X-28.442725 Y20.981200 
G1 X-30.597572 Y20.981200 
G1 X-30.734819 Y21.008500 
G1 X-30.864103 Y21.062050 
G1 X-30.980456 Y21.139797 
G1 X-32.393353 Y22.552694 
G1 X-32.492300 Y22.651641 
G1 X-32.570047 Y22.767994 
G1 X-32.623597 Y22.897278 
G1 X-32.650897 Y23.034525 
G1 X-32.650897 Y25.053709 
G1 X-32.671956 Y25.085225 
G1 X-32.734178 Y25.235437 
G1 X-32.765897 Y25.394903 
G1 X-32.765897 Y27.057494 
G1 X-32.734178 Y27.216959 
G1 X-32.671956 Y27.367172 
G1 X-32.650897 Y27.398688 
G1 X-32.650897 Y28.488391 
G1 X-32.623597 Y28.625637 
G1 X-32.570047 Y28.754922 
G1 X-32.492300 Y28.871275 
G1 X-32.393353 Y28.970222 
G1 X-28.811775 Y32.551800 
G1 X-28.695422 Y32.629547 
G1 X-28.566137 Y32.683097 
G1 X-28.428891 Y32.710397 
G1 X-23.062903 Y32.710397 
G1 X-22.427953 Y32.735797 
G1 X-21.996931 Y32.304775 
G1 X-21.996931 Y31.695222 
G1 X-22.427953 Y31.264200 
G1 X-23.037506 Y31.264200 
G1 X-23.062903 Y31.289600 
G1 X-28.064663 Y31.289600 
G1 X-31.230100 Y28.124163 
G1 X-31.230100 Y27.398688 
G1 X-31.209041 Y27.367172 
G1 X-31.146819 Y27.216959 
G1 X-31.115100 Y27.057494 
G1 X-31.115100 Y25.394903 
G1 X-31.146819 Y25.235437 
G1 X-31.209041 Y25.085225 
G1 X-31.230100 Y25.053709 
G1 X-31.230100 Y23.398753 
G1 X-30.233344 Y22.401997 
G1 X-28.078497 Y22.401997 
G1 X-27.941250 Y22.374697 
G1 X-27.811966 Y22.321147 
G1 X-27.695612 Y22.243400 
G1 X-27.596666 Y22.144453 
G1 X-26.308697 Y20.856484 
G1 X-26.230950 Y20.740131 
G1 X-26.177400 Y20.610847 
G1 X-26.150100 Y20.473600 
G1 X-26.150100 Y18.278688 
G1 X-26.129041 Y18.247172 
G1 X-26.066819 Y18.096959 
G1 X-26.035100 Y17.937494 
G1 X-26.035100 Y16.274903 
G1 X-26.066819 Y16.115437 
G1 X-26.129041 Y15.965225 
G1 X-26.150100 Y15.933709 
G0 Z5.000000 
G0 X-28.539928 Y15.999731 
G1 Z-0.200000 F80    
G1 X-28.494763 Y16.138750 F200   
G1 X-28.471897 Y16.283113 
G1 X-28.471897 Y17.555794 
G1 X-28.575100 Y17.555794 
G1 X-28.575100 Y16.274903 
G1 X-28.606819 Y16.115437 
G1 X-28.669041 Y15.965225 
G1 X-28.759369 Y15.830037 
G1 X-28.874337 Y15.715069 
G1 X-29.009525 Y15.624741 
G1 X-29.100094 Y15.587225 
G1 X-29.100094 Y15.477416 
G1 X-29.044031 Y15.495631 
G1 X-28.913806 Y15.561984 
G1 X-28.795550 Y15.647903 
G1 X-28.692203 Y15.751250 
G1 X-28.606284 Y15.869506 
G1 X-28.539928 Y15.999731 
G0 Z5.000000 
G0 X-29.700897 Y15.587222 
G1 Z-0.200000 F80    
G1 X-29.791472 Y15.624741 F200   
G1 X-29.926659 Y15.715069 
G1 X-30.041628 Y15.830037 
G1 X-30.131956 Y15.965225 
G1 X-30.194178 Y16.115437 
G1 X-30.225897 Y16.274903 
G1 X-30.225897 Y17.555794 
G1 X-30.329097 Y17.555794 
G1 X-30.329097 Y16.283113 
G1 X-30.306231 Y16.138750 
G1 X-30.261066 Y15.999731 
G1 X-30.194709 Y15.869506 
G1 X-30.108791 Y15.751250 
G1 X-30.005444 Y15.647903 
G1 X-29.887187 Y15.561984 
G1 X-29.756963 Y15.495628 
G1 X-29.700897 Y15.477412 
G1 X-29.700897 Y15.587222 
G0 Z5.000000 
G0 X-31.472037 Y15.655100 
G1 Z-0.200000 F80    
G1 X-31.239400 Y15.887738 F200   
G1 X-31.113497 Y16.191694 
G1 X-31.113497 Y18.020700 
G1 X-31.239400 Y18.324656 
G1 X-31.472037 Y18.557294 
G1 X-31.775994 Y18.683197 
G1 X-32.105000 Y18.683197 
G1 X-32.408956 Y18.557294 
G1 X-32.641594 Y18.324656 
G1 X-32.767497 Y18.020700 
G1 X-32.767497 Y16.191694 
G1 X-32.641594 Y15.887738 
G1 X-32.408956 Y15.655100 
G1 X-32.105000 Y15.529197 
G1 X-31.775994 Y15.529197 
G1 X-31.472037 Y15.655100 
G0 Z5.000000 
G0 X-31.549525 Y15.624741 
G1 Z-0.200000 F80    
G1 X-31.699738 Y15.562519 F200   
G1 X-31.859203 Y15.530800 
G1 X-32.021794 Y15.530800 
G1 X-32.181259 Y15.562519 
G1 X-32.331472 Y15.624741 
G1 X-32.466659 Y15.715069 
G1 X-32.581628 Y15.830037 
G1 X-32.671956 Y15.965225 
G1 X-32.734178 Y16.115437 
G1 X-32.765897 Y16.274903 
G1 X-32.765897 Y17.937494 
G1 X-32.734178 Y18.096959 
G1 X-32.671956 Y18.247172 
G1 X-32.581628 Y18.382359 
G1 X-32.466659 Y18.497328 
G1 X-32.331472 Y18.587656 
G1 X-32.181259 Y18.649878 
G1 X-32.021794 Y18.681597 
G1 X-31.859203 Y18.681597 
G1 X-31.699738 Y18.649878 
G1 X-31.549525 Y18.587656 
G1 X-31.414337 Y18.497328 
G1 X-31.299369 Y18.382359 
G1 X-31.209041 Y18.247172 
G1 X-31.146819 Y18.096959 
G1 X-31.115100 Y17.937494 
G1 X-31.115100 Y16.274903 
G1 X-31.146819 Y16.115437 
G1 X-31.209041 Y15.965225 
G1 X-31.299369 Y15.830037 
G1 X-31.414337 Y15.715069 
G1 X-31.549525 Y15.624741 
G0 Z5.000000 
G0 X-34.012037 Y15.655100 
G1 Z-0.200000 F80    
G1 X-33.779400 Y15.887738 F200   
G1 X-33.653497 Y16.191694 
G1 X-33.653497 Y18.020700 
G1 X-33.779400 Y18.324656 
G1 X-34.012037 Y18.557294 
G1 X-34.315994 Y18.683197 
G1 X-34.645000 Y18.683197 
G1 X-34.948956 Y18.557294 
G1 X-35.181594 Y18.324656 
G1 X-35.307497 Y18.020700 
G1 X-35.307497 Y16.191694 
G1 X-35.181594 Y15.887738 
G1 X-34.948956 Y15.655100 
G1 X-34.645000 Y15.529197 
G1 X-34.315994 Y15.529197 
G1 X-34.012037 Y15.655100 
G0 Z5.000000 
G0 X-34.089525 Y15.624741 
G1 Z-0.200000 F80    
G1 X-34.239737 Y15.562519 F200   
G1 X-34.399203 Y15.530800 
G1 X-34.561794 Y15.530800 
G1 X-34.721259 Y15.562519 
G1 X-34.871472 Y15.624741 
G1 X-35.006659 Y15.715069 
G1 X-35.121628 Y15.830037 
G1 X-35.211956 Y15.965225 
G1 X-35.274178 Y16.115437 
G1 X-35.305897 Y16.274903 
G1 X-35.305897 Y17.937494 
G1 X-35.274178 Y18.096959 
G1 X-35.211956 Y18.247172 
G1 X-35.121628 Y18.382359 
G1 X-35.006659 Y18.497328 
G1 X-34.871472 Y18.587656 
G1 X-34.721259 Y18.649878 
G1 X-34.561794 Y18.681597 
G1 X-34.399203 Y18.681597 
G1 X-34.239737 Y18.649878 
G1 X-34.089525 Y18.587656 
G1 X-33.954338 Y18.497328 
G1 X-33.839369 Y18.382359 
G1 X-33.749041 Y18.247172 
G1 X-33.686819 Y18.096959 
G1 X-33.655100 Y17.937494 
G1 X-33.655100 Y16.274903 
G1 X-33.686819 Y16.115437 
G1 X-33.749041 Y15.965225 
G1 X-33.839369 Y15.830037 
G1 X-33.954338 Y15.715069 
G1 X-34.089525 Y15.624741 
G0 Z5.000000 
G0 X-36.552037 Y15.655100 
G1 Z-0.200000 F80    
G1 X-36.319400 Y15.887738 F200   
G1 X-36.193497 Y16.191694 
G1 X-36.193497 Y18.020700 
G1 X-36.319400 Y18.324656 
G1 X-36.552037 Y18.557294 
G1 X-36.855994 Y18.683197 
G1 X-37.185000 Y18.683197 
G1 X-37.488956 Y18.557294 
G1 X-37.721594 Y18.324656 
G1 X-37.847497 Y18.020700 
G1 X-37.847497 Y16.191694 
G1 X-37.721594 Y15.887738 
G1 X-37.488956 Y15.655100 
G1 X-37.185000 Y15.529197 
G1 X-36.855994 Y15.529197 
G1 X-36.552037 Y15.655100 
G0 Z5.000000 
G0 X-36.629525 Y15.624741 
G1 Z-0.200000 F80    
G1 X-36.779738 Y15.562519 F200   
G1 X-36.939203 Y15.530800 
G1 X-37.101794 Y15.530800 
G1 X-37.261259 Y15.562519 
G1 X-37.411472 Y15.624741 
G1 X-37.546659 Y15.715069 
G1 X-37.661628 Y15.830037 
G1 X-37.751956 Y15.965225 
G1 X-37.814178 Y16.115437 
G1 X-37.845897 Y16.274903 
G1 X-37.845897 Y17.937494 
G1 X-37.814178 Y18.096959 
G1 X-37.751956 Y18.247172 
G1 X-37.661628 Y18.382359 
G1 X-37.546659 Y18.497328 
G1 X-37.411472 Y18.587656 
G1 X-37.261259 Y18.649878 
G1 X-37.101794 Y18.681597 
G1 X-36.939203 Y18.681597 
G1 X-36.779738 Y18.649878 
G1 X-36.629525 Y18.587656 
G1 X-36.494338 Y18.497328 
G1 X-36.379369 Y18.382359 
G1 X-36.289041 Y18.247172 
G1 X-36.226819 Y18.096959 
G1 X-36.195100 Y17.937494 
G1 X-36.195100 Y16.274903 
G1 X-36.226819 Y16.115437 
G1 X-36.289041 Y15.965225 
G1 X-36.379369 Y15.830037 
G1 X-36.494338 Y15.715069 
G1 X-36.629525 Y15.624741 
G0 Z5.000000 
G0 X-39.092038 Y15.655100 
G1 Z-0.200000 F80    
G1 X-38.859400 Y15.887738 F200   
G1 X-38.733497 Y16.191694 
G1 X-38.733497 Y18.020700 
G1 X-38.859400 Y18.324656 
G1 X-39.092038 Y18.557294 
G1 X-39.395994 Y18.683197 
G1 X-39.725000 Y18.683197 
G1 X-40.028956 Y18.557294 
G1 X-40.261594 Y18.324656 
G1 X-40.387497 Y18.020700 
G1 X-40.387497 Y16.191694 
G1 X-40.261594 Y15.887738 
G1 X-40.028956 Y15.655100 
G1 X-39.725000 Y15.529197 
G1 X-39.395994 Y15.529197 
G1 X-39.092038 Y15.655100 
G0 Z5.000000 
G0 X-39.169525 Y15.624741 
G1 Z-0.200000 F80    
G1 X-39.319738 Y15.562519 F200   
G1 X-39.479203 Y15.530800 
G1 X-39.641794 Y15.530800 
G1 X-39.801259 Y15.562519 
G1 X-39.951472 Y15.624741 
G1 X-40.086659 Y15.715069 
G1 X-40.201628 Y15.830037 
G1 X-40.291956 Y15.965225 
G1 X-40.354178 Y16.115437 
G1 X-40.385897 Y16.274903 
G1 X-40.385897 Y17.937494 
G1 X-40.354178 Y18.096959 
G1 X-40.291956 Y18.247172 
G1 X-40.201628 Y18.382359 
G1 X-40.086659 Y18.497328 
G1 X-39.951472 Y18.587656 
G1 X-39.801259 Y18.649878 
G1 X-39.641794 Y18.681597 
G1 X-39.479203 Y18.681597 
G1 X-39.319738 Y18.649878 
G1 X-39.169525 Y18.587656 
G1 X-39.034337 Y18.497328 
G1 X-38.919369 Y18.382359 
G1 X-38.829041 Y18.247172 
G1 X-38.766819 Y18.096959 
G1 X-38.735100 Y17.937494 
G1 X-38.735100 Y16.274903 
G1 X-38.766819 Y16.115437 
G1 X-38.829041 Y15.965225 
G1 X-38.919369 Y15.830037 
G1 X-39.034337 Y15.715069 
G1 X-39.169525 Y15.624741 
G0 Z5.000000 
G0 X-41.632038 Y15.655100 
G1 Z-0.200000 F80    
G1 X-41.399400 Y15.887738 F200   
G1 X-41.273497 Y16.191694 
G1 X-41.273497 Y18.020700 
G1 X-41.399400 Y18.324656 
G1 X-41.632038 Y18.557294 
G1 X-41.935994 Y18.683197 
G1 X-42.264997 Y18.683197 
G1 X-42.568956 Y18.557294 
G1 X-42.801594 Y18.324656 
G1 X-42.927497 Y18.020700 
G1 X-42.927497 Y16.191691 
G1 X-42.801594 Y15.887738 
G1 X-42.568956 Y15.655100 
G1 X-42.265000 Y15.529197 
G1 X-41.935994 Y15.529197 
G1 X-41.632038 Y15.655100 
G0 Z5.000000 
G0 X-41.709525 Y15.624741 
G1 Z-0.200000 F80    
G1 X-41.859738 Y15.562519 F200   
G1 X-42.019203 Y15.530800 
G1 X-42.181794 Y15.530800 
G1 X-42.341259 Y15.562519 
G1 X-42.491472 Y15.624741 
G1 X-42.626659 Y15.715069 
G1 X-42.741628 Y15.830037 
G1 X-42.831956 Y15.965225 
G1 X-42.894178 Y16.115437 
G1 X-42.925897 Y16.274903 
G1 X-42.925897 Y17.937494 
G1 X-42.894178 Y18.096959 
G1 X-42.831956 Y18.247172 
G1 X-42.741628 Y18.382359 
G1 X-42.626659 Y18.497328 
G1 X-42.491472 Y18.587656 
G1 X-42.341259 Y18.649878 
G1 X-42.181794 Y18.681597 
G1 X-42.019203 Y18.681597 
G1 X-41.859738 Y18.649878 
G1 X-41.709525 Y18.587656 
G1 X-41.574337 Y18.497328 
G1 X-41.459369 Y18.382359 
G1 X-41.369041 Y18.247172 
G1 X-41.306819 Y18.096959 
G1 X-41.275100 Y17.937494 
G1 X-41.275100 Y16.274903 
G1 X-41.306819 Y16.115437 
G1 X-41.369041 Y15.965225 
G1 X-41.459369 Y15.830037 
G1 X-41.574337 Y15.715069 
G1 X-41.709525 Y15.624741 
G0 Z5.000000 
G0 X-44.172038 Y15.655100 
G1 Z-0.200000 F80    
G1 X-43.939400 Y15.887738 F200   
G1 X-43.813497 Y16.191694 
G1 X-43.813497 Y18.020700 
G1 X-43.939400 Y18.324656 
G1 X-44.172038 Y18.557294 
G1 X-44.475994 Y18.683197 
G1 X-44.805000 Y18.683197 
G1 X-45.108956 Y18.557294 
G1 X-45.341594 Y18.324656 
G1 X-45.467497 Y18.020700 
G1 X-45.467497 Y16.191694 
G1 X-45.341594 Y15.887738 
G1 X-45.108956 Y15.655100 
G1 X-44.805000 Y15.529197 
G1 X-44.475994 Y15.529197 
G1 X-44.172038 Y15.655100 
G0 Z5.000000 
G0 X-44.249525 Y15.624741 
G1 Z-0.200000 F80    
G1 X-44.399738 Y15.562519 F200   
G1 X-44.559203 Y15.530800 
G1 X-44.721794 Y15.530800 
G1 X-44.881259 Y15.562519 
G1 X-45.031472 Y15.624741 
G1 X-45.166659 Y15.715069 
G1 X-45.281628 Y15.830037 
G1 X-45.371956 Y15.965225 
G1 X-45.434178 Y16.115437 
G1 X-45.465897 Y16.274903 
G1 X-45.465897 Y17.937494 
G1 X-45.434178 Y18.096959 
G1 X-45.371956 Y18.247172 
G1 X-45.281628 Y18.382359 
G1 X-45.166659 Y18.497328 
G1 X-45.031472 Y18.587656 
G1 X-44.881259 Y18.649878 
G1 X-44.721794 Y18.681597 
G1 X-44.559203 Y18.681597 
G1 X-44.399738 Y18.649878 
G1 X-44.249525 Y18.587656 
G1 X-44.114337 Y18.497328 
G1 X-43.999369 Y18.382359 
G1 X-43.909041 Y18.247172 
G1 X-43.846819 Y18.096959 
G1 X-43.815100 Y17.937494 
G1 X-43.815100 Y16.274903 
G1 X-43.846819 Y16.115437 
G1 X-43.909041 Y15.965225 
G1 X-43.999369 Y15.830037 
G1 X-44.114337 Y15.715069 
G1 X-44.249525 Y15.624741 
G0 Z5.000000 
G0 X-43.538425 Y10.019997 
G1 Z-0.200000 F80    
G1 X-44.029897 Y9.528522 F200   
G1 X-44.029897 Y9.459597 
G1 X-43.926697 Y9.459597 
G1 X-43.926697 Y9.485775 
G1 X-43.495675 Y9.916797 
G1 X-43.469497 Y9.916797 
G1 X-43.469497 Y10.019997 
G1 X-43.538425 Y10.019997 
G0 Z5.000000 
G0 X-42.912294 Y10.019997 
G1 Z-0.200000 F80    
G1 X-42.912294 Y9.916797 F200   
G1 X-42.886122 Y9.916797 
G1 X-42.455100 Y9.485775 
G1 X-42.455100 Y9.459597 
G1 X-42.351894 Y9.459597 
G1 X-42.351894 Y9.528522 
G1 X-42.843372 Y10.019997 
G1 X-42.912294 Y10.019997 
G0 Z5.000000 
G0 X-42.455100 Y8.902394 
G1 Z-0.200000 F80    
G1 X-42.455100 Y8.876222 F200   
G1 X-42.886122 Y8.445200 
G1 X-42.912294 Y8.445200 
G1 X-42.912294 Y8.341997 
G1 X-42.843372 Y8.341997 
G1 X-42.351894 Y8.833472 
G1 X-42.351894 Y8.902394 
G1 X-42.455100 Y8.902394 
G0 Z5.000000 
G0 X-43.469497 Y8.445200 
G1 Z-0.200000 F80    
G1 X-43.495675 Y8.445200 F200   
G1 X-43.926697 Y8.876222 
G1 X-43.926697 Y8.902394 
G1 X-44.029897 Y8.902394 
G1 X-44.029897 Y8.833472 
G1 X-43.538422 Y8.341997 
G1 X-43.469497 Y8.341997 
G1 X-43.469497 Y8.445200 
G0 Z5.000000 
G0 X-43.505397 Y3.556797 
G1 Z-0.200000 F80    
G1 X-43.601172 Y3.556797 F200   
G1 X-44.196797 Y2.961169 
G1 X-44.196797 Y2.865397 
G1 X-44.093597 Y2.865397 
G1 X-44.093597 Y2.918422 
G1 X-43.558422 Y3.453597 
G1 X-43.505397 Y3.453597 
G1 X-43.505397 Y3.556797 
G0 Z5.000000 
G0 X-42.854594 Y3.556797 
G1 Z-0.200000 F80    
G1 X-42.854594 Y3.453597 F200   
G1 X-42.801575 Y3.453597 
G1 X-42.266400 Y2.918422 
G1 X-42.266400 Y2.865397 
G1 X-42.163197 Y2.865397 
G1 X-42.163197 Y2.961169 
G1 X-42.758825 Y3.556797 
G1 X-42.854594 Y3.556797 
G0 Z5.000000 
G0 X-41.061172 Y3.556797 
G1 Z-0.200000 F80    
G1 X-41.656797 Y2.961169 F200   
G1 X-41.656797 Y2.865397 
G1 X-41.553597 Y2.865397 
G1 X-41.553597 Y2.918422 
G1 X-41.018422 Y3.453597 
G1 X-40.965397 Y3.453597 
G1 X-40.965397 Y3.556797 
G1 X-41.061172 Y3.556797 
G0 Z5.000000 
G0 X-40.314594 Y3.556797 
G1 Z-0.200000 F80    
G1 X-40.314594 Y3.453597 F200   
G1 X-40.261575 Y3.453597 
G1 X-39.726400 Y2.918422 
G1 X-39.726400 Y2.865397 
G1 X-39.623197 Y2.865397 
G1 X-39.623197 Y2.961169 
G1 X-40.218825 Y3.556797 
G1 X-40.314594 Y3.556797 
G0 Z5.000000 
G0 X-39.726400 Y2.214594 
G1 Z-0.200000 F80    
G1 X-39.726400 Y2.161575 F200   
G1 X-40.261575 Y1.626400 
G1 X-40.314594 Y1.626400 
G1 X-40.314594 Y1.523197 
G1 X-40.218825 Y1.523197 
G1 X-39.623197 Y2.118825 
G1 X-39.623197 Y2.214594 
G1 X-39.726400 Y2.214594 
G0 Z5.000000 
G0 X-40.965397 Y1.626400 
G1 Z-0.200000 F80    
G1 X-41.018422 Y1.626400 F200   
G1 X-41.553597 Y2.161575 
G1 X-41.553597 Y2.214594 
G1 X-41.656797 Y2.214594 
G1 X-41.656797 Y2.118822 
G1 X-41.061169 Y1.523197 
G1 X-40.965397 Y1.523197 
G1 X-40.965397 Y1.626400 
G0 Z5.000000 
G0 X-42.163197 Y2.118825 
G1 Z-0.200000 F80    
G1 X-42.163197 Y2.214594 F200   
G1 X-42.266400 Y2.214594 
G1 X-42.266400 Y2.161575 
G1 X-42.801575 Y1.626400 
G1 X-42.854594 Y1.626400 
G1 X-42.854594 Y1.523197 
G1 X-42.758825 Y1.523197 
G1 X-42.163197 Y2.118825 
G0 Z5.000000 
G0 X-43.505397 Y1.626400 
G1 Z-0.200000 F80    
G1 X-43.558422 Y1.626400 F200   
G1 X-44.093597 Y2.161575 
G1 X-44.093597 Y2.214594 
G1 X-44.196797 Y2.214594 
G1 X-44.196797 Y2.118825 
G1 X-43.601169 Y1.523197 
G1 X-43.505397 Y1.523197 
G1 X-43.505397 Y1.626400 
G0 Z5.000000 
G0 X-44.804797 Y2.160909 
G1 Z-0.200000 F80    
G1 X-44.804797 Y2.919084 F200   
G1 X-45.340909 Y3.455197 
G1 X-46.099084 Y3.455197 
G1 X-46.635197 Y2.919084 
G1 X-46.635197 Y2.160909 
G1 X-46.099084 Y1.624797 
G1 X-45.340909 Y1.624797 
G1 X-44.804797 Y2.160909 
G0 Z5.000000 
G1 Z-0.200000 F80    
G1 X-45.341575 Y1.626400 F200   
G1 X-46.098422 Y1.626400 
G1 X-46.633597 Y2.161575 
G1 X-46.633597 Y2.918422 
G1 X-46.098422 Y3.453597 
G1 X-45.341575 Y3.453597 
G1 X-44.806400 Y2.918422 
G1 X-44.806400 Y2.161575 
G0 Z5.000000 
G0 X-49.884797 Y2.160909 
G1 Z-0.200000 F80    
G1 X-49.884797 Y2.919084 F200   
G1 X-50.420909 Y3.455197 
G1 X-51.179084 Y3.455197 
G1 X-51.715197 Y2.919084 
G1 X-51.715197 Y2.160909 
G1 X-51.179084 Y1.624797 
G1 X-50.420909 Y1.624797 
G1 X-49.884797 Y2.160909 
G0 Z5.000000 
G1 Z-0.200000 F80    
G1 X-50.421575 Y1.626400 F200   
G1 X-51.178422 Y1.626400 
G1 X-51.713597 Y2.161575 
G1 X-51.713597 Y2.918422 
G1 X-51.178422 Y3.453597 
G1 X-50.421575 Y3.453597 
G1 X-49.886400 Y2.918422 
G1 X-49.886400 Y2.161575 
G0 Z5.000000 
G0 X-52.424797 Y2.160909 
G1 Z-0.200000 F80    
G1 X-52.424797 Y2.919084 F200   
G1 X-52.960909 Y3.455197 
G1 X-53.719084 Y3.455197 
G1 X-54.255197 Y2.919084 
G1 X-54.255197 Y2.160909 
G1 X-53.719084 Y1.624797 
G1 X-52.960909 Y1.624797 
G1 X-52.424797 Y2.160909 
G0 Z5.000000 
G1 Z-0.200000 F80    
G1 X-52.961575 Y1.626400 F200   
G1 X-53.718422 Y1.626400 
G1 X-54.253597 Y2.161575 
G1 X-54.253597 Y2.918422 
G1 X-53.718422 Y3.453597 
G1 X-52.961575 Y3.453597 
G1 X-52.426400 Y2.918422 
G1 X-52.426400 Y2.161575 
G0 Z5.000000 
G0 X-54.964797 Y2.160909 
G1 Z-0.200000 F80    
G1 X-54.964797 Y2.919084 F200   
G1 X-55.500909 Y3.455197 
G1 X-56.259084 Y3.455197 
G1 X-56.795197 Y2.919084 
G1 X-56.795197 Y2.160909 
G1 X-56.259084 Y1.624797 
G1 X-55.500909 Y1.624797 
G1 X-54.964797 Y2.160909 
G0 Z5.000000 
G1 Z-0.200000 F80    
G1 X-55.501575 Y1.626400 F200   
G1 X-56.258422 Y1.626400 
G1 X-56.793597 Y2.161575 
G1 X-56.793597 Y2.918422 
G1 X-56.258422 Y3.453597 
G1 X-55.501575 Y3.453597 
G1 X-54.966400 Y2.918422 
G1 X-54.966400 Y2.161575 
G0 Z5.000000 
G0 X-57.504797 Y2.160906 
G1 Z-0.200000 F80    
G1 X-57.504797 Y2.919084 F200   
G1 X-58.040909 Y3.455197 
G1 X-58.799084 Y3.455197 
G1 X-59.335197 Y2.919084 
G1 X-59.335197 Y2.160906 
G1 X-58.799084 Y1.624797 
G1 X-58.040906 Y1.624797 
G1 X-57.504797 Y2.160906 
G0 Z5.000000 
G1 Z-0.200000 F80    
G1 X-58.041575 Y1.626400 F200   
G1 X-58.798422 Y1.626400 
G1 X-59.333597 Y2.161575 
G1 X-59.333597 Y2.918422 
G1 X-58.798422 Y3.453597 
G1 X-58.041575 Y3.453597 
G1 X-57.506400 Y2.918422 
G1 X-57.506400 Y2.161575 
G0 Z5.000000 
G0 X-60.044797 Y2.160909 
G1 Z-0.200000 F80    
G1 X-60.044797 Y2.919084 F200   
G1 X-60.580909 Y3.455197 
G1 X-61.339084 Y3.455197 
G1 X-61.875197 Y2.919084 
G1 X-61.875197 Y2.160909 
G1 X-61.339084 Y1.624797 
G1 X-60.580909 Y1.624797 
G1 X-60.044797 Y2.160909 
G0 Z5.000000 
G1 Z-0.200000 F80    
G1 X-60.581575 Y1.626400 F200   
G1 X-61.338422 Y1.626400 
G1 X-61.873597 Y2.161575 
G1 X-61.873597 Y2.918422 
G1 X-61.338422 Y3.453597 
G1 X-60.581575 Y3.453597 
G1 X-60.046400 Y2.918422 
G1 X-60.046400 Y2.161575 
G0 Z5.000000 
G0 X-62.584797 Y2.160909 
G1 Z-0.200000 F80    
G1 X-62.584797 Y2.919084 F200   
G1 X-63.120909 Y3.455197 
G1 X-63.879084 Y3.455197 
G1 X-64.415197 Y2.919084 
G1 X-64.415197 Y2.160909 
G1 X-63.879084 Y1.624797 
G1 X-63.120909 Y1.624797 
G1 X-62.584797 Y2.160909 
G0 Z5.000000 
G1 Z-0.200000 F80    
G1 X-63.121575 Y1.626400 F200   
G1 X-63.878422 Y1.626400 
G1 X-64.413597 Y2.161575 
G1 X-64.413597 Y2.918422 
G1 X-63.878422 Y3.453597 
G1 X-63.121575 Y3.453597 
G1 X-62.586400 Y2.918422 
G1 X-62.586400 Y2.161575 
G0 Z5.000000 
G0 X-62.987019 Y18.501650 
G1 Z-0.200000 F80    
G1 X-62.436031 Y19.052641 F200   
G1 X-62.436031 Y19.112847 
G1 X-62.539234 Y19.112847 
G1 X-63.029772 Y18.604853 
G1 X-63.047228 Y18.501650 
G1 X-62.987019 Y18.501650 
G0 Z5.000000 
G0 X-63.706031 Y18.501650 
G1 Z-0.200000 F80    
G1 X-63.706031 Y18.604853 F200   
G1 X-64.214031 Y19.095391 
G1 X-64.317231 Y19.112847 
G1 X-64.317231 Y19.052641 
G1 X-63.766241 Y18.501650 
G1 X-63.706031 Y18.501650 
G0 Z5.000000 
G0 X-64.214031 Y19.771650 
G1 Z-0.200000 F80    
G1 X-64.214031 Y19.789113 F200   
G1 X-63.723494 Y20.279650 
G1 X-63.706031 Y20.382850 
G1 X-63.766241 Y20.382850 
G1 X-64.317231 Y19.831859 
G1 X-64.317231 Y19.771650 
G1 X-64.214031 Y19.771650 
G0 Z5.000000 
G0 X-62.539234 Y19.771650 
G1 Z-0.200000 F80    
G1 X-62.436031 Y19.771650 F200   
G1 X-62.436031 Y19.831859 
G1 X-62.987022 Y20.382850 
G1 X-63.047228 Y20.382850 
G1 X-63.047228 Y20.279650 
G1 X-62.539234 Y19.789113 
G0 Z5.000000 
G0 X-61.675631 Y19.789775 
G1 Z-0.200000 F80    
G1 X-61.675631 Y19.094725 F200   
G1 X-61.184156 Y18.603250 
G1 X-60.489109 Y18.603250 
G1 X-60.450969 Y18.641391 
G1 X-60.419559 Y18.673016 
G1 X-60.377338 Y18.690669 
G1 X-60.335950 Y18.707975 
G1 X-60.290247 Y18.708128 
G1 X-58.097697 Y18.715475 
G1 X-58.052244 Y18.715628 
G1 X-58.007472 Y18.715778 
G1 X-57.964906 Y18.698313 
G1 X-57.923631 Y18.681378 
G1 X-57.891259 Y18.649222 
G1 X-57.859334 Y18.617516 
G1 X-57.841750 Y18.575453 
G1 X-57.824375 Y18.533906 
G1 X-57.716603 Y18.273316 
G1 X-57.494878 Y18.051591 
G1 X-57.205178 Y17.931597 
G1 X-56.891616 Y17.931597 
G1 X-56.601916 Y18.051591 
G1 X-56.380191 Y18.273316 
G1 X-56.274813 Y18.527728 
G1 X-56.257512 Y18.569497 
G1 X-56.240581 Y18.610378 
G1 X-56.207759 Y18.643197 
G1 X-56.176500 Y18.674459 
G1 X-56.133531 Y18.692256 
G1 X-56.092775 Y18.709141 
G1 X-56.046281 Y18.709141 
G1 X-56.002150 Y18.709141 
G1 X-55.939366 Y18.708091 
G1 X-55.896338 Y18.708519 
G1 X-55.798044 Y18.705797 
G1 X-55.752753 Y18.706259 
G1 X-55.709784 Y18.706700 
G1 X-55.620250 Y18.704959 
G1 X-55.566356 Y18.708163 
G1 X-55.510438 Y18.708738 
G1 X-55.466187 Y18.709191 
G1 X-55.423178 Y18.691887 
G1 X-55.382112 Y18.675369 
G1 X-55.348900 Y18.642825 
G1 X-55.317381 Y18.611947 
G1 X-55.299119 Y18.569100 
G1 X-55.281844 Y18.528581 
G1 X-55.176603 Y18.273316 
G1 X-54.954878 Y18.051591 
G1 X-54.665181 Y17.931597 
G1 X-54.351616 Y17.931597 
G1 X-54.061916 Y18.051591 
G1 X-53.840191 Y18.273316 
G1 X-53.720197 Y18.563016 
G1 X-53.720197 Y20.298978 
G1 X-53.840191 Y20.588678 
G1 X-54.061916 Y20.810403 
G1 X-54.140775 Y20.843066 
G1 X-54.187453 Y20.880878 
G1 X-54.219991 Y20.913409 
G1 X-54.254672 Y20.997134 
G1 X-54.254672 Y21.087766 
G1 X-54.226350 Y21.156134 
G1 X-54.188447 Y21.203031 
G1 X-54.155916 Y21.235569 
G1 X-54.072191 Y21.270250 
G1 X-51.359862 Y21.270250 
G1 X-51.276137 Y21.235569 
G1 X-51.212059 Y21.171491 
G1 X-50.023663 Y19.983091 
G1 X-49.761972 Y19.874697 
G1 X-36.939175 Y19.874697 
G1 X-36.677484 Y19.983091 
G1 X-36.413119 Y20.247459 
G1 X-33.876891 Y22.783684 
G1 X-33.768497 Y23.045375 
G1 X-33.768497 Y25.034069 
G1 X-33.653497 Y25.311694 
G1 X-33.653497 Y27.140700 
G1 X-33.768497 Y27.418325 
G1 X-33.768497 Y27.508950 
G1 X-33.768497 Y29.640731 
G1 X-33.733816 Y29.724456 
G1 X-33.669737 Y29.788534 
G1 X-28.552681 Y34.905591 
G1 X-28.352391 Y35.105878 
G1 X-28.243997 Y35.367569 
G1 X-28.243997 Y50.168666 
G1 X-28.209316 Y50.252391 
G1 X-28.145238 Y50.316469 
G1 X-28.040797 Y50.420909 
G1 X-28.040797 Y51.179084 
G1 X-28.576909 Y51.715197 
G1 X-29.335084 Y51.715197 
G1 X-29.871197 Y51.179084 
G1 X-29.871197 Y50.420909 
G1 X-29.702678 Y50.252391 
G1 X-29.667997 Y50.168666 
G1 X-29.667997 Y35.853163 
G1 X-29.702678 Y35.769438 
G1 X-29.766756 Y35.705359 
G1 X-35.084103 Y30.388016 
G1 X-35.192497 Y30.126325 
G1 X-35.192497 Y27.418325 
G1 X-35.307497 Y27.140700 
G1 X-35.307497 Y25.311694 
G1 X-35.192497 Y25.034069 
G1 X-35.192497 Y23.530969 
G1 X-35.227178 Y23.447244 
G1 X-35.291256 Y23.383166 
G1 X-37.341044 Y21.333378 
G1 X-37.424769 Y21.298697 
G1 X-49.276378 Y21.298697 
G1 X-49.360103 Y21.333378 
G1 X-49.424181 Y21.397456 
G1 X-50.412291 Y22.385566 
G1 X-50.612578 Y22.585856 
G1 X-50.874269 Y22.694250 
G1 X-60.313069 Y22.694250 
G1 X-60.396791 Y22.728931 
G1 X-60.489106 Y22.821250 
G1 X-61.184156 Y22.821250 
G1 X-61.675631 Y22.329775 
G1 X-61.675631 Y21.634725 
G1 X-61.184156 Y21.143250 
G1 X-60.489106 Y21.143250 
G1 X-60.460869 Y21.171488 
G1 X-60.399734 Y21.232622 
G1 X-60.313069 Y21.270250 
G1 X-57.484603 Y21.270250 
G1 X-57.400878 Y21.235569 
G1 X-57.369334 Y21.204019 
G1 X-57.336803 Y21.171491 
G1 X-57.302122 Y21.087766 
G1 X-57.302122 Y20.997134 
G1 X-57.336803 Y20.913409 
G1 X-57.368353 Y20.881866 
G1 X-57.400881 Y20.849334 
G1 X-57.484606 Y20.814653 
G1 X-57.716603 Y20.588678 
G1 X-57.844412 Y20.280109 
G1 X-57.861263 Y20.239037 
G1 X-57.893431 Y20.206653 
G1 X-57.925125 Y20.174741 
G1 X-57.967013 Y20.157228 
G1 X-58.008734 Y20.139781 
G1 X-58.054453 Y20.139628 
G1 X-60.200113 Y20.132441 
G1 X-60.245553 Y20.132288 
G1 X-60.290337 Y20.132137 
G1 X-60.332903 Y20.149603 
G1 X-60.374178 Y20.166538 
G1 X-60.406481 Y20.198625 
G1 X-60.438475 Y20.230400 
G1 X-60.489106 Y20.281250 
G1 X-61.184156 Y20.281250 
G1 X-61.675631 Y19.789775 
G0 Z5.000000 
G1 Z-0.200000 F80    
G1 X-61.183494 Y20.279650 F200   
G1 X-60.489772 Y20.279650 
G1 X-60.340494 Y20.130369 
G1 X-57.834997 Y20.138766 
G1 X-57.834997 Y20.219672 
G1 X-57.804769 Y20.371641 
G1 X-57.745472 Y20.514794 
G1 X-57.659391 Y20.643625 
G1 X-57.549825 Y20.753191 
G1 X-57.420994 Y20.839272 
G1 X-57.277841 Y20.898569 
G1 X-57.125872 Y20.928797 
G1 X-56.970925 Y20.928797 
G1 X-56.818956 Y20.898569 
G1 X-56.675803 Y20.839272 
G1 X-56.546972 Y20.753191 
G1 X-56.437406 Y20.643625 
G1 X-56.351325 Y20.514794 
G1 X-56.292028 Y20.371641 
G1 X-56.261800 Y20.219672 
G1 X-56.261800 Y20.133719 
G1 X-55.753119 Y20.128734 
G1 X-55.294997 Y20.133406 
G1 X-55.294997 Y20.219672 
G1 X-55.264769 Y20.371641 
G1 X-55.205472 Y20.514794 
G1 X-55.119391 Y20.643625 
G1 X-55.009825 Y20.753191 
G1 X-54.880994 Y20.839272 
G1 X-54.737841 Y20.898569 
G1 X-54.585872 Y20.928797 
G1 X-54.430925 Y20.928797 
G1 X-54.278956 Y20.898569 
G1 X-54.135803 Y20.839272 
G1 X-54.006972 Y20.753191 
G1 X-53.897406 Y20.643625 
G1 X-53.811325 Y20.514794 
G1 X-53.752028 Y20.371641 
G1 X-53.721800 Y20.219672 
G1 X-53.721800 Y18.642325 
G1 X-53.752028 Y18.490356 
G1 X-53.811325 Y18.347203 
G1 X-53.897406 Y18.218372 
G1 X-54.006972 Y18.108806 
G1 X-54.135803 Y18.022725 
G1 X-54.278956 Y17.963428 
G1 X-54.430925 Y17.933200 
G1 X-54.585872 Y17.933200 
G1 X-54.737841 Y17.963428 
G1 X-54.880994 Y18.022725 
G1 X-55.009825 Y18.108806 
G1 X-55.119391 Y18.218372 
G1 X-55.205472 Y18.347203 
G1 X-55.264769 Y18.490356 
G1 X-55.294997 Y18.642325 
G1 X-55.294997 Y18.712537 
G1 X-55.682953 Y18.708578 
G1 X-55.752866 Y18.707863 
G1 X-55.815716 Y18.707222 
G1 X-56.261800 Y18.712853 
G1 X-56.261800 Y18.642325 
G1 X-56.292028 Y18.490356 
G1 X-56.351325 Y18.347203 
G1 X-56.437406 Y18.218372 
G1 X-56.546972 Y18.108806 
G1 X-56.675803 Y18.022725 
G1 X-56.818956 Y17.963428 
G1 X-56.970925 Y17.933200 
G1 X-57.125872 Y17.933200 
G1 X-57.277841 Y17.963428 
G1 X-57.420994 Y18.022725 
G1 X-57.549825 Y18.108806 
G1 X-57.659391 Y18.218372 
G1 X-57.745472 Y18.347203 
G1 X-57.804769 Y18.490356 
G1 X-57.834997 Y18.642325 
G1 X-57.834997 Y18.717959 
G1 X-60.385216 Y18.709412 
G1 X-60.489772 Y18.604853 
G1 X-61.183494 Y18.604853 
G1 X-61.674031 Y19.095391 
G1 X-61.674031 Y19.789113 
G0 Z5.000000 
G0 X-61.674031 Y21.635391 
G1 Z-0.200000 F80    
G1 X-61.674031 Y22.329113 F200   
G1 X-61.183494 Y22.819650 
G1 X-60.489772 Y22.819650 
G1 X-60.362775 Y22.692650 
G1 X-50.945928 Y22.692650 
G1 X-50.808681 Y22.665350 
G1 X-50.679397 Y22.611800 
G1 X-50.563044 Y22.534053 
G1 X-50.464097 Y22.435106 
G1 X-49.326087 Y21.297097 
G1 X-37.375062 Y21.297097 
G1 X-35.190897 Y23.481262 
G1 X-35.190897 Y25.053709 
G1 X-35.211956 Y25.085225 
G1 X-35.274178 Y25.235437 
G1 X-35.305897 Y25.394903 
G1 X-35.305897 Y27.057494 
G1 X-35.274178 Y27.216959 
G1 X-35.211956 Y27.367172 
G1 X-35.190897 Y27.398688 
G1 X-35.190897 Y30.054669 
G1 X-35.163597 Y30.191916 
G1 X-35.110047 Y30.321200 
G1 X-35.032300 Y30.437553 
G1 X-29.666397 Y35.803456 
G1 X-29.666397 Y50.218375 
G1 X-29.869597 Y50.421575 
G1 X-29.869597 Y51.178422 
G1 X-29.334422 Y51.713597 
G1 X-28.577575 Y51.713597 
G1 X-28.042400 Y51.178422 
G1 X-28.042400 Y50.421575 
G1 X-28.245600 Y50.218375 
G1 X-28.245600 Y35.439228 
G1 X-28.272900 Y35.301981 
G1 X-28.326450 Y35.172697 
G1 X-28.404197 Y35.056344 
G1 X-28.503144 Y34.957397 
G1 X-33.770100 Y29.690441 
G1 X-33.770100 Y27.398688 
G1 X-33.749041 Y27.367172 
G1 X-33.686819 Y27.216959 
G1 X-33.655100 Y27.057494 
G1 X-33.655100 Y25.394903 
G1 X-33.686819 Y25.235437 
G1 X-33.749041 Y25.085225 
G1 X-33.770100 Y25.053709 
G1 X-33.770100 Y23.117034 
G1 X-33.797400 Y22.979788 
G1 X-33.850950 Y22.850503 
G1 X-33.928697 Y22.734150 
G1 X-36.529003 Y20.133844 
G1 X-36.627950 Y20.034897 
G1 X-36.744303 Y19.957150 
G1 X-36.873587 Y19.903600 
G1 X-37.010834 Y19.876300 
G1 X-49.690316 Y19.876300 
G1 X-49.827562 Y19.903600 
G1 X-49.956847 Y19.957150 
G1 X-50.073200 Y20.034897 
G1 X-51.310156 Y21.271853 
G1 X-60.362775 Y21.271853 
G1 X-60.489772 Y21.144853 
G1 X-61.183494 Y21.144853 
G1 X-61.674031 Y21.635391 
G0 Z5.000000 
G0 X-61.758091 Y23.108825 
G1 Z-0.200000 F80    
G1 X-61.733897 Y23.167237 F200   
G1 X-61.733897 Y23.500766 
G1 X-61.699216 Y23.584491 
G1 X-61.635137 Y23.648569 
G1 X-61.551412 Y23.683250 
G1 X-60.042738 Y23.683250 
G1 X-60.014500 Y23.711488 
G1 X-59.953366 Y23.772622 
G1 X-59.866700 Y23.810250 
G1 X-49.402616 Y23.810250 
G1 X-49.318891 Y23.775569 
G1 X-49.254812 Y23.711491 
G1 X-48.114303 Y22.570981 
G1 X-47.914016 Y22.370691 
G1 X-47.652325 Y22.262297 
G1 X-38.138156 Y22.262297 
G1 X-37.876463 Y22.370691 
G1 X-36.416891 Y23.830262 
G1 X-36.308497 Y24.091953 
G1 X-36.308497 Y25.034066 
G1 X-36.193497 Y25.311694 
G1 X-36.193497 Y27.140700 
G1 X-36.308497 Y27.418325 
G1 X-36.308497 Y32.104531 
G1 X-36.273816 Y32.188256 
G1 X-36.209738 Y32.252334 
G1 X-31.092681 Y37.369391 
G1 X-30.892391 Y37.569678 
G1 X-30.783997 Y37.831369 
G1 X-30.783997 Y50.168669 
G1 X-30.749316 Y50.252394 
G1 X-30.685237 Y50.316472 
G1 X-30.580797 Y50.420909 
G1 X-30.580797 Y51.179084 
G1 X-31.116909 Y51.715197 
G1 X-31.875084 Y51.715197 
G1 X-32.411197 Y51.179084 
G1 X-32.411197 Y50.420909 
G1 X-32.306759 Y50.316472 
G1 X-32.246797 Y50.256512 
G1 X-32.207997 Y50.168669 
G1 X-32.207997 Y38.316963 
G1 X-32.242678 Y38.233238 
G1 X-32.306756 Y38.169159 
G1 X-37.624103 Y32.851816 
G1 X-37.732497 Y32.590125 
G1 X-37.732497 Y27.418325 
G1 X-37.847497 Y27.140700 
G1 X-37.847497 Y25.311694 
G1 X-37.732497 Y25.034066 
G1 X-37.732497 Y24.577547 
G1 X-37.767178 Y24.493822 
G1 X-37.831256 Y24.429744 
G1 X-38.540022 Y23.720978 
G1 X-38.623747 Y23.686297 
G1 X-47.166731 Y23.686297 
G1 X-47.250456 Y23.720978 
G1 X-47.314534 Y23.785056 
G1 X-48.655331 Y25.125856 
G1 X-48.917022 Y25.234250 
G1 X-59.866700 Y25.234250 
G1 X-59.948037 Y25.267944 
G1 X-60.014500 Y25.333009 
G1 X-60.042738 Y25.361250 
G1 X-61.551412 Y25.361250 
G1 X-61.635137 Y25.395931 
G1 X-61.699216 Y25.460009 
G1 X-61.733897 Y25.543734 
G1 X-61.733897 Y26.669103 
G1 X-61.699216 Y26.752828 
G1 X-61.635137 Y26.816906 
G1 X-61.119606 Y27.332434 
G1 X-61.055528 Y27.396516 
G1 X-60.971803 Y27.431197 
G1 X-60.097459 Y27.431197 
G1 X-60.013734 Y27.396516 
G1 X-59.949656 Y27.332438 
G1 X-59.852013 Y27.234791 
G1 X-59.590325 Y27.126397 
G1 X-48.689869 Y27.126397 
G1 X-48.428178 Y27.234791 
G1 X-46.780556 Y28.882416 
G1 X-46.696831 Y28.917097 
G1 X-40.454981 Y28.917097 
G1 X-40.371256 Y28.882416 
G1 X-40.307178 Y28.818337 
G1 X-40.272497 Y28.734613 
G1 X-40.272497 Y27.418328 
G1 X-40.387497 Y27.140700 
G1 X-40.387497 Y25.311694 
G1 X-40.261594 Y25.007738 
G1 X-40.028956 Y24.775100 
G1 X-39.725000 Y24.649197 
G1 X-39.395994 Y24.649197 
G1 X-39.092038 Y24.775100 
G1 X-38.859400 Y25.007738 
G1 X-38.733497 Y25.311694 
G1 X-38.733497 Y27.140700 
G1 X-38.848497 Y27.418328 
G1 X-38.848497 Y34.619131 
G1 X-38.813816 Y34.702856 
G1 X-38.749738 Y34.766934 
G1 X-33.632681 Y39.883991 
G1 X-33.432391 Y40.084278 
G1 X-33.323997 Y40.345969 
G1 X-33.323997 Y50.168666 
G1 X-33.289316 Y50.252391 
G1 X-33.225237 Y50.316469 
G1 X-33.120797 Y50.420909 
G1 X-33.120797 Y51.179084 
G1 X-33.656909 Y51.715197 
G1 X-34.415084 Y51.715197 
G1 X-34.951197 Y51.179084 
G1 X-34.951197 Y50.420909 
G1 X-34.782678 Y50.252391 
G1 X-34.747997 Y50.168666 
G1 X-34.747997 Y40.831562 
G1 X-34.782678 Y40.747838 
G1 X-34.846756 Y40.683759 
G1 X-40.164103 Y35.366416 
G1 X-40.272497 Y35.104725 
G1 X-40.272497 Y30.523581 
G1 X-40.307178 Y30.439856 
G1 X-40.371256 Y30.375778 
G1 X-40.454981 Y30.341097 
G1 X-47.182422 Y30.341097 
G1 X-47.444116 Y30.232703 
G1 X-47.708481 Y29.968334 
G1 X-49.091738 Y28.585078 
G1 X-49.175463 Y28.550397 
G1 X-59.590325 Y28.550397 
G1 X-59.852016 Y28.442003 
G1 X-60.000456 Y28.293559 
G1 X-60.060272 Y28.233741 
G1 X-60.148259 Y28.194797 
G1 X-61.254941 Y28.194797 
G1 X-61.313319 Y28.170616 
G1 X-61.229050 Y28.193197 
G1 X-60.066019 Y28.193197 
G1 X-60.000500 Y28.291253 
G1 X-59.901553 Y28.390200 
G1 X-59.785200 Y28.467947 
G1 X-59.655916 Y28.521497 
G1 X-59.518669 Y28.548797 
G1 X-49.125756 Y28.548797 
G1 X-47.592600 Y30.081953 
G1 X-47.493653 Y30.180900 
G1 X-47.377300 Y30.258647 
G1 X-47.248016 Y30.312197 
G1 X-47.110769 Y30.339497 
G1 X-40.270897 Y30.339497 
G1 X-40.270897 Y35.033069 
G1 X-40.243597 Y35.170316 
G1 X-40.190047 Y35.299600 
G1 X-40.112300 Y35.415953 
G1 X-34.746397 Y40.781856 
G1 X-34.746397 Y50.218375 
G1 X-34.949597 Y50.421575 
G1 X-34.949597 Y51.178422 
G1 X-34.414422 Y51.713597 
G1 X-33.657575 Y51.713597 
G1 X-33.122400 Y51.178422 
G1 X-33.122400 Y50.421575 
G1 X-33.325600 Y50.218375 
G1 X-33.325600 Y40.417628 
G1 X-33.352900 Y40.280381 
G1 X-33.406450 Y40.151097 
G1 X-33.484197 Y40.034744 
G1 X-33.583144 Y39.935797 
G1 X-38.850100 Y34.668841 
G1 X-38.850100 Y27.398688 
G1 X-38.829041 Y27.367172 
G1 X-38.766819 Y27.216959 
G1 X-38.735100 Y27.057494 
G1 X-38.735100 Y25.394903 
G1 X-38.766819 Y25.235437 
G1 X-38.829041 Y25.085225 
G1 X-38.919369 Y24.950038 
G1 X-39.034337 Y24.835069 
G1 X-39.169525 Y24.744741 
G1 X-39.319738 Y24.682519 
G1 X-39.479203 Y24.650800 
G1 X-39.641794 Y24.650800 
G1 X-39.801259 Y24.682519 
G1 X-39.951472 Y24.744741 
G1 X-40.086659 Y24.835069 
G1 X-40.201628 Y24.950038 
G1 X-40.291956 Y25.085225 
G1 X-40.354178 Y25.235437 
G1 X-40.385897 Y25.394903 
G1 X-40.385897 Y27.057494 
G1 X-40.354178 Y27.216959 
G1 X-40.291956 Y27.367172 
G1 X-40.270897 Y27.398688 
G1 X-40.270897 Y28.918700 
G1 X-46.746541 Y28.918700 
G1 X-48.378644 Y27.286597 
G1 X-48.494997 Y27.208850 
G1 X-48.624281 Y27.155300 
G1 X-48.761528 Y27.128000 
G1 X-59.518669 Y27.128000 
G1 X-59.655916 Y27.155300 
G1 X-59.785200 Y27.208850 
G1 X-59.901553 Y27.286597 
G1 X-60.000500 Y27.385544 
G1 X-60.032075 Y27.432800 
G1 X-61.021509 Y27.432800 
G1 X-61.735500 Y26.718809 
G1 X-61.735500 Y23.193131 
G1 X-61.758091 Y23.108825 
G0 Z5.000000 
G0 X-61.641344 Y23.696331 
G1 Z-0.200000 F80    
G1 X-61.662553 Y23.717541 F200   
G1 X-61.674031 Y23.745253 
G1 X-61.674031 Y25.299250 
G1 X-61.662553 Y25.326963 
G1 X-61.613631 Y25.359650 
G1 X-60.059634 Y25.359650 
G1 X-60.031922 Y25.348172 
G1 X-59.999234 Y25.299250 
G1 X-59.999234 Y25.232650 
G1 X-48.988681 Y25.232650 
G1 X-48.851434 Y25.205350 
G1 X-48.722150 Y25.151800 
G1 X-48.605797 Y25.074053 
G1 X-47.216444 Y23.684697 
G1 X-38.574041 Y23.684697 
G1 X-37.730897 Y24.527841 
G1 X-37.730897 Y25.053709 
G1 X-37.751956 Y25.085225 
G1 X-37.814178 Y25.235437 
G1 X-37.845897 Y25.394903 
G1 X-37.845897 Y27.057494 
G1 X-37.814178 Y27.216959 
G1 X-37.751956 Y27.367172 
G1 X-37.730897 Y27.398688 
G1 X-37.730897 Y32.518469 
G1 X-37.703597 Y32.655716 
G1 X-37.650047 Y32.785000 
G1 X-37.572300 Y32.901353 
G1 X-32.206397 Y38.267256 
G1 X-32.206397 Y50.218378 
G1 X-32.409597 Y50.421575 
G1 X-32.409597 Y51.178422 
G1 X-31.874422 Y51.713597 
G1 X-31.117575 Y51.713597 
G1 X-30.582400 Y51.178422 
G1 X-30.582400 Y50.421575 
G1 X-30.785600 Y50.218378 
G1 X-30.785600 Y37.903028 
G1 X-30.812900 Y37.765781 
G1 X-30.866450 Y37.636497 
G1 X-30.944197 Y37.520144 
G1 X-31.043144 Y37.421197 
G1 X-36.310100 Y32.154241 
G1 X-36.310100 Y27.398688 
G1 X-36.289041 Y27.367172 
G1 X-36.226819 Y27.216959 
G1 X-36.195100 Y27.057494 
G1 X-36.195100 Y25.394903 
G1 X-36.226819 Y25.235437 
G1 X-36.289041 Y25.085225 
G1 X-36.310100 Y25.053709 
G1 X-36.310100 Y24.163612 
G1 X-36.337400 Y24.026366 
G1 X-36.390950 Y23.897081 
G1 X-36.468697 Y23.780728 
G1 X-36.567644 Y23.681781 
G1 X-37.826928 Y22.422497 
G1 X-37.943281 Y22.344750 
G1 X-38.072566 Y22.291200 
G1 X-38.209812 Y22.263900 
G1 X-47.580669 Y22.263900 
G1 X-47.717916 Y22.291200 
G1 X-47.847200 Y22.344750 
G1 X-47.963553 Y22.422497 
G1 X-48.062500 Y22.521444 
G1 X-49.352909 Y23.811853 
G1 X-59.999234 Y23.811853 
G1 X-59.999234 Y23.745253 
G1 X-60.010712 Y23.717541 
G1 X-60.059634 Y23.684853 
G1 X-61.613631 Y23.684853 
G1 X-61.641344 Y23.696331 
G0 Z5.000000 
G0 X-62.463553 Y27.034188 
G1 Z-0.200000 F80    
G1 X-62.419934 Y27.109744 F200   
G1 X-61.483231 Y28.046447 
G1 X-61.412444 Y28.117234 
G1 X-61.336888 Y28.160853 
G1 X-61.395269 Y28.136672 
G1 X-61.566747 Y27.965191 
G1 X-62.439372 Y27.092569 
G1 X-62.463553 Y27.034188 
G0 Z5.000000 
G0 X-57.690100 Y30.317975 
G1 Z-0.200000 F80    
G1 X-57.489819 Y30.117694 F200   
G1 X-57.425728 Y30.053612 
G1 X-57.381416 Y30.009297 
G1 X-50.391669 Y30.009297 
G1 X-50.129978 Y30.117691 
G1 X-49.865612 Y30.382059 
G1 X-48.990356 Y31.257316 
G1 X-48.906631 Y31.291997 
G1 X-42.073169 Y31.291997 
G1 X-41.811481 Y31.400391 
G1 X-41.611191 Y31.600678 
G1 X-41.502797 Y31.862369 
G1 X-41.502797 Y37.159131 
G1 X-41.468116 Y37.242856 
G1 X-41.404038 Y37.306934 
G1 X-38.753113 Y39.957859 
G1 X-36.172681 Y42.538291 
G1 X-35.972391 Y42.738578 
G1 X-35.863997 Y43.000269 
G1 X-35.863997 Y50.168666 
G1 X-35.829316 Y50.252391 
G1 X-35.765237 Y50.316469 
G1 X-35.660797 Y50.420909 
G1 X-35.660797 Y51.179084 
G1 X-36.196909 Y51.715197 
G1 X-36.955084 Y51.715197 
G1 X-37.491197 Y51.179084 
G1 X-37.491197 Y50.420909 
G1 X-37.322678 Y50.252391 
G1 X-37.287997 Y50.168666 
G1 X-37.287997 Y43.485863 
G1 X-37.322678 Y43.402138 
G1 X-37.386756 Y43.338059 
G1 X-39.824112 Y40.900703 
G1 X-42.618113 Y38.106703 
G1 X-42.818403 Y37.906416 
G1 X-42.926797 Y37.644725 
G1 X-42.926797 Y32.898481 
G1 X-42.961478 Y32.814756 
G1 X-43.025556 Y32.750678 
G1 X-43.109281 Y32.715997 
G1 X-49.392225 Y32.715997 
G1 X-49.653916 Y32.607603 
G1 X-50.793537 Y31.467978 
G1 X-50.877263 Y31.433297 
G1 X-57.381416 Y31.433297 
G1 X-57.425728 Y31.388984 
G1 X-57.486616 Y31.328097 
G1 X-57.690100 Y31.124619 
G1 X-57.754181 Y31.060528 
G1 X-57.798497 Y31.016216 
G1 X-57.798497 Y30.426378 
G1 X-57.754184 Y30.382066 
G1 X-57.693297 Y30.321178 
G0 Z5.000000 
G0 X-57.638306 Y30.268456 
G1 Z-0.200000 F80    
G1 X-57.796897 Y30.427044 F200   
G1 X-57.796897 Y31.015553 
G1 X-57.638306 Y31.174141 
G1 X-57.539353 Y31.273100 
G1 X-57.380753 Y31.431697 
G1 X-50.827556 Y31.431697 
G1 X-49.703453 Y32.555800 
G1 X-49.587100 Y32.633547 
G1 X-49.457816 Y32.687097 
G1 X-49.320569 Y32.714397 
G1 X-42.925197 Y32.714397 
G1 X-42.925197 Y37.573069 
G1 X-42.897897 Y37.710316 
G1 X-42.844347 Y37.839600 
G1 X-42.766600 Y37.955953 
G1 X-42.667653 Y38.054900 
G1 X-39.873653 Y40.848900 
G1 X-37.286397 Y43.436156 
G1 X-37.286397 Y50.218375 
G1 X-37.489597 Y50.421575 
G1 X-37.489597 Y51.178422 
G1 X-36.954422 Y51.713597 
G1 X-36.197575 Y51.713597 
G1 X-35.662400 Y51.178422 
G1 X-35.662400 Y50.421575 
G1 X-35.865600 Y50.218375 
G1 X-35.865600 Y43.071928 
G1 X-35.892900 Y42.934681 
G1 X-35.946450 Y42.805397 
G1 X-36.024197 Y42.689044 
G1 X-36.123144 Y42.590097 
G1 X-38.868997 Y39.844244 
G1 X-41.504400 Y37.208841 
G1 X-41.504400 Y31.934028 
G1 X-41.531700 Y31.796781 
G1 X-41.585250 Y31.667497 
G1 X-41.662997 Y31.551144 
G1 X-41.761944 Y31.452197 
G1 X-41.878297 Y31.374450 
G1 X-42.007581 Y31.320900 
G1 X-42.144828 Y31.293600 
G1 X-48.956341 Y31.293600 
G1 X-49.981497 Y30.268444 
G1 X-50.080444 Y30.169497 
G1 X-50.196797 Y30.091750 
G1 X-50.326081 Y30.038200 
G1 X-50.463328 Y30.010900 
G1 X-57.380753 Y30.010900 
G1 X-57.539341 Y30.169491 
G1 X-57.638300 Y30.268444 
G0 Z5.000000 
G0 X-61.350113 Y37.987997 
G1 Z-0.200000 F80    
G1 X-44.217422 Y37.987997 F200   
G1 X-43.955731 Y38.096391 
G1 X-42.481659 Y39.570466 
G1 X-42.420344 Y39.595863 
G1 X-41.979106 Y40.037103 
G1 X-41.979106 Y40.647984 
G1 X-42.411062 Y41.079941 
G1 X-43.021944 Y41.079941 
G1 X-43.463184 Y40.638703 
G1 X-43.488581 Y40.577388 
G1 X-43.552659 Y40.513309 
G1 X-44.619291 Y39.446678 
G1 X-44.703016 Y39.411997 
G1 X-61.350113 Y39.411997 
G1 X-61.411428 Y39.437397 
G1 X-62.035438 Y39.437397 
G1 X-62.467397 Y39.005437 
G1 X-62.467397 Y38.394553 
G1 X-62.035438 Y37.962597 
G1 X-61.411431 Y37.962597 
G1 X-61.350113 Y37.987997 
G0 Z5.000000 
G0 X-61.399822 Y37.989600 
G1 Z-0.200000 F80    
G1 X-61.425222 Y37.964200 F200   
G1 X-62.034775 Y37.964200 
G1 X-62.465797 Y38.395222 
G1 X-62.465797 Y39.004775 
G1 X-62.034775 Y39.435797 
G1 X-61.425222 Y39.435797 
G1 X-44.653309 Y39.410397 
G1 X-43.452300 Y40.611403 
G1 X-43.452300 Y40.647325 
G1 X-43.021284 Y41.078341 
G1 X-42.411725 Y41.078341 
G1 X-41.980709 Y40.647325 
G1 X-41.980709 Y40.037766 
G1 X-42.411725 Y39.606750 
G1 X-42.447647 Y39.606750 
G1 X-43.807250 Y38.247147 
G1 X-43.906197 Y38.148197 
G1 X-44.022550 Y38.070450 
G1 X-44.151834 Y38.016900 
G1 X-44.289081 Y37.989600 
G1 X-61.399822 Y37.989600 
G0 Z5.000000 
G0 X-63.430994 Y38.978597 
G1 Z-0.200000 F80    
G1 X-63.430994 Y39.047522 F200   
G1 X-63.922472 Y39.538997 
G1 X-63.991394 Y39.538997 
G1 X-63.991394 Y39.435797 
G1 X-63.965222 Y39.435797 
G1 X-63.534200 Y39.004775 
G1 X-63.534200 Y38.978597 
G1 X-63.430994 Y38.978597 
G0 Z5.000000 
G0 X-65.005797 Y38.978597 
G1 Z-0.200000 F80    
G1 X-65.005797 Y39.004775 F200   
G1 X-64.574775 Y39.435797 
G1 X-64.548597 Y39.435797 
G1 X-64.548597 Y39.538997 
G1 X-64.617525 Y39.538997 
G1 X-65.108997 Y39.047525 
G1 X-65.108997 Y38.978597 
G1 X-65.005797 Y38.978597 
G0 Z5.000000 
G0 X-63.991394 Y42.310997 
G1 Z-0.200000 F80    
G1 X-63.922472 Y42.310997 F200   
G1 X-63.430997 Y42.802472 
G1 X-63.430997 Y42.871394 
G1 X-63.534200 Y42.871394 
G1 X-63.534200 Y42.845222 
G1 X-63.965222 Y42.414200 
G1 X-63.991394 Y42.414200 
G1 X-63.991394 Y42.310997 
G0 Z5.000000 
G0 X-63.534200 Y43.428597 
G1 Z-0.200000 F80    
G1 X-63.430994 Y43.428597 F200   
G1 X-63.430994 Y43.497522 
G1 X-63.922472 Y43.988997 
G1 X-63.991394 Y43.988997 
G1 X-63.991394 Y43.885797 
G1 X-63.965222 Y43.885797 
G1 X-63.534200 Y43.454775 
G1 X-63.534200 Y43.428597 
G0 Z5.000000 
G0 X-62.467397 Y43.455438 
G1 Z-0.200000 F80    
G1 X-62.467397 Y42.844556 F200   
G1 X-62.011447 Y42.388603 
G1 X-61.985641 Y42.377916 
G1 X-61.950812 Y42.343084 
G1 X-61.921563 Y42.313837 
G1 X-61.899159 Y42.287744 
G1 X-61.837516 Y42.219416 
G1 X-61.805631 Y42.187534 
G1 X-61.776316 Y42.158222 
G1 X-61.719184 Y42.094912 
G1 X-61.618994 Y42.046462 
G1 X-61.577281 Y42.029184 
G1 X-61.539028 Y42.013341 
G1 X-61.462000 Y41.976709 
G1 X-61.432397 Y41.970287 
G1 X-61.350919 Y41.970287 
G1 X-61.305781 Y41.970287 
G1 X-61.264362 Y41.970287 
G1 X-61.179159 Y41.965922 
G1 X-61.119369 Y41.970287 
G1 X-45.712191 Y41.970287 
G1 X-45.667366 Y41.970287 
G1 X-45.621572 Y41.970287 
G1 X-45.567547 Y41.947909 
G1 X-44.936253 Y41.944891 
G1 X-44.504297 Y42.376847 
G1 X-44.504297 Y42.987728 
G1 X-44.936253 Y43.419684 
G1 X-45.560263 Y43.419684 
G1 X-45.621559 Y43.394291 
G1 X-45.666378 Y43.394287 
G1 X-45.712184 Y43.394284 
G1 X-60.882403 Y43.394287 
G1 X-60.966128 Y43.428969 
G1 X-61.030206 Y43.493047 
G1 X-61.424556 Y43.887397 
G1 X-62.035438 Y43.887397 
G1 X-62.467397 Y43.455438 
G0 Z5.000000 
G1 Z-0.200000 F80    
G1 X-62.034775 Y43.885797 F200   
G1 X-61.425222 Y43.885797 
G1 X-60.994200 Y43.454775 
G1 X-60.994200 Y43.402797 
G1 X-45.571872 Y43.392688 
G1 X-44.936916 Y43.418084 
G1 X-44.505900 Y42.987069 
G1 X-44.505900 Y42.377509 
G1 X-44.936916 Y41.946494 
G1 X-45.546475 Y41.946494 
G1 X-61.235831 Y41.971891 
G1 X-61.305719 Y41.971891 
G1 X-61.363438 Y41.971891 
G1 X-61.444034 Y41.987925 
G1 X-61.500684 Y41.999191 
G1 X-61.576594 Y42.030634 
G1 X-61.629969 Y42.052741 
G1 X-61.698303 Y42.098403 
G1 X-61.746322 Y42.130488 
G1 X-61.804444 Y42.188612 
G1 X-61.845269 Y42.229434 
G1 X-62.014994 Y42.414200 
G1 X-62.465797 Y42.845222 
G1 X-62.465797 Y43.454775 
G0 Z5.000000 
G0 X-62.035438 Y46.887597 
G1 Z-0.200000 F80    
G1 X-61.568666 Y46.887597 F200   
G1 X-61.484941 Y46.852916 
G1 X-61.420862 Y46.788837 
G1 X-61.209587 Y46.577562 
G1 X-61.009300 Y46.377272 
G1 X-60.747609 Y46.268878 
G1 X-51.256456 Y46.268878 
G1 X-51.211253 Y46.268878 
G1 X-51.169553 Y46.268878 
G1 X-51.133850 Y46.254444 
G1 X-50.491213 Y46.234250 
G1 X-50.045897 Y46.652428 
G1 X-50.026713 Y47.263006 
G1 X-50.444891 Y47.708322 
G1 X-51.053756 Y47.727453 
G1 X-51.098644 Y47.708859 
G1 X-51.137222 Y47.692878 
G1 X-51.186106 Y47.692878 
G1 X-60.262016 Y47.692878 
G1 X-60.345741 Y47.727559 
G1 X-60.409819 Y47.791638 
G1 X-60.646494 Y48.028312 
G1 X-60.846781 Y48.228603 
G1 X-61.108472 Y48.336997 
G1 X-61.350113 Y48.336997 
G1 X-61.411431 Y48.362397 
G1 X-62.035438 Y48.362397 
G1 X-62.467397 Y47.930437 
G1 X-62.467397 Y47.319556 
G1 X-62.035438 Y46.887597 
G0 Z5.000000 
G1 Z-0.200000 F80    
G1 X-62.465797 Y47.320222 F200   
G1 X-62.465797 Y47.929775 
G1 X-62.034775 Y48.360797 
G1 X-61.425222 Y48.360797 
G1 X-61.180131 Y48.335397 
G1 X-61.042884 Y48.308097 
G1 X-60.913600 Y48.254547 
G1 X-60.797247 Y48.176800 
G1 X-60.311725 Y47.691278 
G1 X-51.091709 Y47.691278 
G1 X-51.054856 Y47.725887 
G1 X-50.445606 Y47.706741 
G1 X-50.028334 Y47.262394 
G1 X-50.047481 Y46.653144 
G1 X-50.491828 Y46.235872 
G1 X-51.101078 Y46.255019 
G1 X-60.675953 Y46.270481 
G1 X-60.813200 Y46.297781 
G1 X-60.942484 Y46.351331 
G1 X-61.058838 Y46.429078 
G1 X-61.157784 Y46.528025 
G1 X-61.518959 Y46.889200 
G1 X-62.034775 Y46.889200 
G0 Z5.000000 
G0 X-63.430997 Y47.277472 
G1 Z-0.200000 F80    
G1 X-63.430997 Y47.346394 F200   
G1 X-63.534200 Y47.346394 
G1 X-63.534200 Y47.320222 
G1 X-63.965222 Y46.889200 
G1 X-63.991394 Y46.889200 
G1 X-63.991394 Y46.785997 
G1 X-63.922472 Y46.785997 
G1 X-63.430997 Y47.277472 
G0 Z5.000000 
G0 X-63.430994 Y47.903597 
G1 Z-0.200000 F80    
G1 X-63.430997 Y47.972522 F200   
G1 X-63.922472 Y48.463997 
G1 X-63.991394 Y48.463997 
G1 X-63.991394 Y48.360797 
G1 X-63.965222 Y48.360797 
G1 X-63.534200 Y47.929775 
G1 X-63.534200 Y47.903597 
G1 X-63.430994 Y47.903597 
G0 Z5.000000 
G0 X-63.120909 Y49.884797 
G1 Z-0.200000 F80    
G1 X-62.584797 Y50.420909 F200   
G1 X-62.584797 Y51.179084 
G1 X-63.120909 Y51.715197 
G1 X-63.879084 Y51.715197 
G1 X-64.415197 Y51.179084 
G1 X-64.415197 Y50.420909 
G1 X-63.879084 Y49.884797 
G1 X-63.120909 Y49.884797 
G0 Z5.000000 
G1 Z-0.200000 F80    
G1 X-63.878422 Y49.886400 F200   
G1 X-64.413597 Y50.421575 
G1 X-64.413597 Y51.178422 
G1 X-63.878422 Y51.713597 
G1 X-63.121575 Y51.713597 
G1 X-62.586400 Y51.178422 
G1 X-62.586400 Y50.421575 
G1 X-63.121575 Y49.886400 
G0 Z5.000000 
G0 X-61.875197 Y50.420909 
G1 Z-0.200000 F80    
G1 X-61.339084 Y49.884797 F200   
G1 X-60.580909 Y49.884797 
G1 X-60.044797 Y50.420909 
G1 X-60.044797 Y51.179084 
G1 X-60.580909 Y51.715197 
G1 X-61.339084 Y51.715197 
G1 X-61.875197 Y51.179084 
G1 X-61.875197 Y50.420909 
G0 Z5.000000 
G1 Z-0.200000 F80    
G1 X-61.873597 Y51.178422 F200   
G1 X-61.338422 Y51.713597 
G1 X-60.581575 Y51.713597 
G1 X-60.046400 Y51.178422 
G1 X-60.046400 Y50.421575 
G1 X-60.581575 Y49.886400 
G1 X-61.338422 Y49.886400 
G1 X-61.873597 Y50.421575 
G0 Z5.000000 
G0 X-59.335197 Y50.420909 
G1 Z-0.200000 F80    
G1 X-58.799084 Y49.884797 F200   
G1 X-58.040909 Y49.884797 
G1 X-57.504797 Y50.420909 
G1 X-57.504797 Y51.179084 
G1 X-58.040909 Y51.715197 
G1 X-58.799084 Y51.715197 
G1 X-59.335197 Y51.179084 
G1 X-59.335197 Y50.420909 
G0 Z5.000000 
G1 Z-0.200000 F80    
G1 X-59.333597 Y51.178422 F200   
G1 X-58.798422 Y51.713597 
G1 X-58.041575 Y51.713597 
G1 X-57.506400 Y51.178422 
G1 X-57.506400 Y50.421575 
G1 X-58.041575 Y49.886400 
G1 X-58.798422 Y49.886400 
G1 X-59.333597 Y50.421575 
G0 Z5.000000 
G0 X-56.795197 Y50.420906 
G1 Z-0.200000 F80    
G1 X-56.259084 Y49.884797 F200   
G1 X-55.500906 Y49.884797 
G1 X-54.964797 Y50.420909 
G1 X-54.964797 Y51.179084 
G1 X-55.500909 Y51.715197 
G1 X-56.259084 Y51.715197 
G1 X-56.795197 Y51.179084 
G1 X-56.795197 Y50.420906 
G0 Z5.000000 
G1 Z-0.200000 F80    
G1 X-56.793597 Y51.178422 F200   
G1 X-56.258422 Y51.713597 
G1 X-55.501575 Y51.713597 
G1 X-54.966400 Y51.178422 
G1 X-54.966400 Y50.421575 
G1 X-55.501575 Y49.886400 
G1 X-56.258422 Y49.886400 
G1 X-56.793597 Y50.421575 
G0 Z5.000000 
G0 X-54.255197 Y50.420909 
G1 Z-0.200000 F80    
G1 X-53.719084 Y49.884797 F200   
G1 X-52.960909 Y49.884797 
G1 X-52.424797 Y50.420909 
G1 X-52.424797 Y51.179084 
G1 X-52.960909 Y51.715197 
G1 X-53.719084 Y51.715197 
G1 X-54.255197 Y51.179084 
G1 X-54.255197 Y50.420909 
G0 Z5.000000 
G1 Z-0.200000 F80    
G1 X-54.253597 Y51.178422 F200   
G1 X-53.718422 Y51.713597 
G1 X-52.961575 Y51.713597 
G1 X-52.426400 Y51.178422 
G1 X-52.426400 Y50.421575 
G1 X-52.961575 Y49.886400 
G1 X-53.718422 Y49.886400 
G1 X-54.253597 Y50.421575 
G0 Z5.000000 
G0 X-51.715197 Y50.420909 
G1 Z-0.200000 F80    
G1 X-51.179084 Y49.884797 F200   
G1 X-50.420909 Y49.884797 
G1 X-49.884797 Y50.420909 
G1 X-49.884797 Y51.179084 
G1 X-50.420909 Y51.715197 
G1 X-51.179084 Y51.715197 
G1 X-51.715197 Y51.179084 
G1 X-51.715197 Y50.420909 
G0 Z5.000000 
G1 Z-0.200000 F80    
G1 X-51.713597 Y51.178422 F200   
G1 X-51.178422 Y51.713597 
G1 X-50.421575 Y51.713597 
G1 X-49.886400 Y51.178422 
G1 X-49.886400 Y50.421575 
G1 X-50.421575 Y49.886400 
G1 X-51.178422 Y49.886400 
G1 X-51.713597 Y50.421575 
G0 Z5.000000 
G0 X-49.175197 Y50.420909 
G1 Z-0.200000 F80    
G1 X-48.639084 Y49.884797 F200   
G1 X-47.880909 Y49.884797 
G1 X-47.344797 Y50.420909 
G1 X-47.344797 Y51.179084 
G1 X-47.880909 Y51.715197 
G1 X-48.639088 Y51.715197 
G1 X-49.175197 Y51.179084 
G1 X-49.175197 Y50.420909 
G0 Z5.000000 
G1 Z-0.200000 F80    
G1 X-49.173597 Y51.178422 F200   
G1 X-48.638422 Y51.713597 
G1 X-47.881575 Y51.713597 
G1 X-47.346400 Y51.178422 
G1 X-47.346400 Y50.421575 
G1 X-47.881575 Y49.886400 
G1 X-48.638422 Y49.886400 
G1 X-49.173597 Y50.421575 
G0 Z5.000000 
G0 X-46.635197 Y50.420909 
G1 Z-0.200000 F80    
G1 X-46.530759 Y50.316472 F200   
G1 X-46.470797 Y50.256512 
G1 X-46.431997 Y50.168669 
G1 X-46.431997 Y46.971747 
G1 X-46.430397 Y50.218378 
G1 X-46.633597 Y50.421575 
G1 X-46.633597 Y51.178422 
G1 X-46.098422 Y51.713597 
G1 X-45.341575 Y51.713597 
G1 X-44.806400 Y51.178422 
G1 X-44.806400 Y50.421575 
G1 X-45.009600 Y50.218378 
G1 X-45.009600 Y47.165394 
G1 X-44.950844 Y47.102828 
G1 X-44.969991 Y46.493578 
G1 X-45.414338 Y46.076306 
G1 X-46.023587 Y46.095453 
G1 X-46.440859 Y46.539800 
G1 X-46.433331 Y46.779309 
G1 X-46.435894 Y46.748722 
G1 X-46.442481 Y46.539184 
G1 X-46.024300 Y46.093869 
G1 X-45.413722 Y46.074681 
G1 X-44.968406 Y46.492863 
G1 X-44.949231 Y47.103100 
G1 X-44.974734 Y47.130609 
G1 X-44.992016 Y47.172328 
G1 X-45.007997 Y47.210906 
G1 X-45.007997 Y47.259791 
G1 X-45.007997 Y50.168669 
G1 X-44.973316 Y50.252394 
G1 X-44.909238 Y50.316472 
G1 X-44.804797 Y50.420909 
G1 X-44.804797 Y51.179084 
G1 X-45.340909 Y51.715197 
G1 X-46.099084 Y51.715197 
G1 X-46.635197 Y51.179084 
G1 X-46.635197 Y50.420909 
G0 Z5.000000 
G0 X-46.430397 Y46.945850 
G1 Z-0.200000 F80    
G1 X-46.431997 Y46.926747 F200   
G0 Z5.000000 
G0 X-46.433744 Y46.886734 
G1 Z-0.200000 F80    
G1 X-46.435759 Y46.881872 F200   
G1 X-46.441113 Y46.818016 
G1 X-46.433019 Y46.789244 
G1 X-46.430784 Y46.860297 
G1 X-46.433759 Y46.886556 
G0 Z5.000000 
G0 X-42.362256 Y46.744447 
G1 Z-0.200000 F80    
G1 X-42.362187 Y46.744281 F200   
G1 X-42.362191 Y46.698203 
G1 X-42.362128 Y46.653994 
G1 X-42.379716 Y46.611362 
G1 X-42.386987 Y45.968950 
G1 X-41.955034 Y45.536994 
G1 X-41.344150 Y45.536994 
G1 X-40.912194 Y45.968950 
G1 X-40.912194 Y46.592109 
G1 X-40.938128 Y46.654550 
G1 X-40.938194 Y46.700978 
G1 X-40.942975 Y50.078844 
G1 X-40.943041 Y50.125122 
G1 X-40.943103 Y50.169303 
G1 X-40.925787 Y50.211275 
G1 X-40.908544 Y50.253075 
G1 X-40.876697 Y50.285013 
G1 X-40.844553 Y50.317247 
G1 X-40.740797 Y50.420909 
G1 X-40.740797 Y51.179084 
G1 X-41.276909 Y51.715197 
G1 X-42.035084 Y51.715197 
G1 X-42.571197 Y51.179084 
G1 X-42.571197 Y50.420909 
G1 X-42.434103 Y50.283816 
G1 X-42.401900 Y50.251706 
G1 X-42.384375 Y50.209559 
G1 X-42.367103 Y50.168031 
G1 X-42.367038 Y50.121653 
G1 X-42.362256 Y46.744447 
G0 Z5.000000 
G0 X-42.360456 Y46.604100 
G1 Z-0.200000 F80    
G1 X-42.365572 Y50.217553 F200   
G1 X-42.569597 Y50.421575 
G1 X-42.569597 Y51.178422 
G1 X-42.034422 Y51.713597 
G1 X-41.277575 Y51.713597 
G1 X-40.742400 Y51.178422 
G1 X-40.742400 Y50.421575 
G1 X-40.944778 Y50.219200 
G1 X-40.939662 Y46.605034 
G1 X-40.913797 Y46.579172 
G1 X-40.913797 Y45.969612 
G1 X-41.344813 Y45.538597 
G1 X-41.954372 Y45.538597 
G1 X-42.385388 Y45.969612 
G1 X-42.385388 Y46.579172 
G0 Z5.000000 
G0 X-39.835878 Y44.360722 
G1 Z-0.200000 F80    
G1 X-39.835881 Y44.315034 F200   
G1 X-39.853359 Y44.272853 
G1 X-39.861797 Y43.629203 
G1 X-39.429844 Y43.197250 
G1 X-38.818959 Y43.197250 
G1 X-38.387003 Y43.629206 
G1 X-38.387003 Y44.253891 
G1 X-38.411878 Y44.314006 
G1 X-38.411878 Y44.360213 
G1 X-38.411878 Y44.404634 
G1 X-38.404825 Y50.122194 
G1 X-38.404825 Y50.167841 
G1 X-38.387397 Y50.209909 
G1 X-38.370144 Y50.251566 
G1 X-38.337731 Y50.283975 
G1 X-38.200797 Y50.420909 
G1 X-38.200797 Y51.179084 
G1 X-38.736909 Y51.715197 
G1 X-39.495084 Y51.715197 
G1 X-40.031197 Y51.179084 
G1 X-40.031197 Y50.420909 
G1 X-39.927487 Y50.317197 
G1 X-39.895219 Y50.284928 
G1 X-39.863506 Y50.253222 
G1 X-39.845775 Y50.210412 
G1 X-39.828825 Y50.169497 
G1 X-39.828825 Y50.123288 
G1 X-39.828825 Y50.078872 
G1 X-39.835878 Y44.360722 
G0 Z5.000000 
G0 X-39.834394 Y44.265228 
G1 Z-0.200000 F80    
G1 X-39.827106 Y50.219088 F200   
G1 X-40.029597 Y50.421575 
G1 X-40.029597 Y51.178422 
G1 X-39.494422 Y51.713597 
G1 X-38.737575 Y51.713597 
G1 X-38.202400 Y51.178422 
G1 X-38.202400 Y50.421575 
G1 X-38.406312 Y50.217663 
G1 X-38.413600 Y44.264419 
G1 X-38.388606 Y43.629869 
G1 X-38.819622 Y43.198853 
G1 X-39.429181 Y43.198853 
G1 X-39.860197 Y43.629869 
G1 X-39.860197 Y44.239428 
G1 X-39.834394 Y44.265228 
G0 Z5.000000 
G0 X-25.769097 Y45.226609 
G1 Z-0.200000 F80    
G1 X-25.232984 Y44.690497 F200   
G1 X-24.474809 Y44.690497 
G1 X-23.938697 Y45.226609 
G1 X-23.938697 Y45.984784 
G1 X-24.474809 Y46.520897 
G1 X-25.232984 Y46.520897 
G1 X-25.769097 Y45.984784 
G1 X-25.769097 Y45.226609 
G0 Z5.000000 
G1 Z-0.200000 F80    
G1 X-25.767497 Y45.984122 F200   
G1 X-25.232322 Y46.519297 
G1 X-24.475475 Y46.519297 
G1 X-23.940300 Y45.984122 
G1 X-23.940300 Y45.227275 
G1 X-24.475475 Y44.692100 
G1 X-25.232322 Y44.692100 
G1 X-25.767497 Y45.227275 
G0 Z5.000000 
G0 X-25.474284 Y42.558497 
G1 Z-0.200000 F80    
G1 X-26.010397 Y42.022384 F200   
G1 X-26.010397 Y41.264206 
G1 X-25.474284 Y40.728097 
G1 X-24.716109 Y40.728097 
G1 X-24.179997 Y41.264209 
G1 X-24.179997 Y42.022388 
G1 X-24.716106 Y42.558497 
G1 X-25.474284 Y42.558497 
G0 Z5.000000 
G1 Z-0.200000 F80    
G1 X-24.716775 Y42.556897 F200   
G1 X-24.181600 Y42.021722 
G1 X-24.181600 Y41.264875 
G1 X-24.716775 Y40.729700 
G1 X-25.473622 Y40.729700 
G1 X-26.008797 Y41.264875 
G1 X-26.008797 Y42.021722 
G1 X-25.473622 Y42.556897 
G0 Z5.000000 
G0 X-20.556053 Y42.533459 
G1 Z-0.200000 F80    
G1 X-20.579213 Y42.387231 F200   
G1 X-20.579213 Y41.880597 
G1 X-20.476012 Y41.880597 
G1 X-20.476012 Y42.395675 
G1 X-20.443831 Y42.557459 
G1 X-20.380706 Y42.709856 
G1 X-20.289066 Y42.847009 
G1 X-20.172425 Y42.963650 
G1 X-20.035272 Y43.055291 
G1 X-19.968013 Y43.083150 
G1 X-19.968013 Y43.195175 
G1 X-19.999684 Y43.184884 
G1 X-20.131584 Y43.117678 
G1 X-20.251375 Y43.030647 
G1 X-20.356063 Y42.925959 
G1 X-20.443094 Y42.806169 
G1 X-20.510300 Y42.674269 
G1 X-20.556053 Y42.533459 
G0 Z5.000000 
G0 X-20.579209 Y41.221794 
G1 Z-0.200000 F80    
G1 X-20.579213 Y40.715159 F200   
G1 X-20.556053 Y40.568944 
G1 X-20.510300 Y40.428125 
G1 X-20.443094 Y40.296225 
G1 X-20.356063 Y40.176434 
G1 X-20.251375 Y40.071747 
G1 X-20.131584 Y39.984716 
G1 X-19.999684 Y39.917509 
G1 X-19.968013 Y39.907219 
G1 X-19.968013 Y40.019247 
G1 X-20.035272 Y40.047106 
G1 X-20.172425 Y40.138747 
G1 X-20.289066 Y40.255387 
G1 X-20.380706 Y40.392541 
G1 X-20.443831 Y40.544938 
G1 X-20.476012 Y40.706722 
G1 X-20.476012 Y41.221794 
G1 X-20.579209 Y41.221794 
G0 Z5.000000 
G0 X-18.801216 Y41.221794 
G1 Z-0.200000 F80    
G1 X-18.801216 Y40.706722 F200   
G1 X-18.833397 Y40.544938 
G1 X-18.896522 Y40.392541 
G1 X-18.988163 Y40.255387 
G1 X-19.104803 Y40.138747 
G1 X-19.241956 Y40.047106 
G1 X-19.309209 Y40.019250 
G1 X-19.309209 Y39.907219 
G1 X-19.277541 Y39.917509 
G1 X-19.145641 Y39.984716 
G1 X-19.025850 Y40.071747 
G1 X-18.921163 Y40.176434 
G1 X-18.834131 Y40.296225 
G1 X-18.766925 Y40.428125 
G1 X-18.721172 Y40.568944 
G1 X-18.698013 Y40.715162 
G1 X-18.698013 Y41.221794 
G1 X-18.801216 Y41.221794 
G0 Z5.000000 
G0 X-18.801216 Y41.880597 
G1 Z-0.200000 F80    
G1 X-18.698013 Y41.880597 F200   
G1 X-18.698013 Y42.387231 
G1 X-18.721172 Y42.533450 
G1 X-18.766925 Y42.674269 
G1 X-18.834131 Y42.806169 
G1 X-18.921159 Y42.925953 
G1 X-19.025850 Y43.030647 
G1 X-19.145641 Y43.117678 
G1 X-19.277541 Y43.184884 
G1 X-19.309209 Y43.195175 
G1 X-19.309209 Y43.083147 
G1 X-19.241956 Y43.055291 
G1 X-19.104803 Y42.963650 
G1 X-18.988163 Y42.847009 
G1 X-18.896522 Y42.709856 
G1 X-18.833397 Y42.557459 
G1 X-18.801216 Y42.395675 
G1 X-18.801216 Y41.880597 
G0 Z5.000000 
G0 X-18.921163 Y36.423559 
G1 Z-0.200000 F80    
G1 X-19.025850 Y36.528247 F200   
G1 X-19.145641 Y36.615278 
G1 X-19.277541 Y36.682484 
G1 X-19.309209 Y36.692775 
G1 X-19.309209 Y36.580747 
G1 X-19.241956 Y36.552891 
G1 X-19.104803 Y36.461250 
G1 X-18.988163 Y36.344609 
G1 X-18.896522 Y36.207456 
G1 X-18.833397 Y36.055059 
G1 X-18.801216 Y35.893275 
G1 X-18.801216 Y35.378197 
G1 X-18.698013 Y35.378197 
G1 X-18.698013 Y35.884831 
G1 X-18.721172 Y36.031050 
G1 X-18.766925 Y36.171869 
G1 X-18.834131 Y36.303769 
G1 X-18.921163 Y36.423559 
G0 Z5.000000 
G0 X-19.968013 Y36.580750 
G1 Z-0.200000 F80    
G1 X-19.968013 Y36.692775 F200   
G1 X-19.999684 Y36.682484 
G1 X-20.131584 Y36.615278 
G1 X-20.251375 Y36.528247 
G1 X-20.356063 Y36.423559 
G1 X-20.443094 Y36.303769 
G1 X-20.510300 Y36.171869 
G1 X-20.556053 Y36.031050 
G1 X-20.579213 Y35.884831 
G1 X-20.579213 Y35.378197 
G1 X-20.476012 Y35.378197 
G1 X-20.476012 Y35.893275 
G1 X-20.443831 Y36.055059 
G1 X-20.380706 Y36.207456 
G1 X-20.289066 Y36.344609 
G1 X-20.172425 Y36.461250 
