(.../Documents/EAGLE/ulps/pcb-gcode.ulp)
(Copyright 2005 - 2012 by John Johnson)
(See readme.txt for licensing terms.)
(This file generated from the board:)
(.../minimal-version/programmer shield.brd)
(Current profile is .../pcb-gcode-3.6.2.4/profiles/grbl-NuggetMill.pp  )
(This file generated 3/30/2020 1:56 PM)
(Settings from pcb-machine.h)
(spindle on time = 0.0000)
(spindle speed = 18000.0000)
(tool change at 0.000000 0.000000 10.000000 )
(feed rate xy = F0     )
(feed rate z  = F60    )
(Z Axis Settings)
(  High     Up        Down     Drill)
(10.000000 	5.000000 	-0.200000 	-1.650000 )
(Settings from pcb-defaults.h)
(isolate min = 0.0254)
(isolate max = 0.5000)
(isolate step = 0.1000)
(Generated top outlines, top drill, bottom outlines, bottom drill, )
(Unit of measure: mm)
( Tool|       Size       |  Min Sub |  Max Sub |   Count )
( T01  0.800mm 0.0315in 0.0000in 0.0000in )
( T02  0.813mm 0.0320in 0.0000in 0.0000in )
( T03  0.900mm 0.0354in 0.0000in 0.0000in )
( T04  0.914mm 0.0360in 0.0000in 0.0000in )
( T05  1.000mm 0.0394in 0.0000in 0.0000in )
( T06  1.016mm 0.0400in 0.0000in 0.0000in )
( T07  3.200mm 0.1260in 0.0000in 0.0000in )
(Metric Mode)
G21
(Absolute Coordinates)
G90
G0 Z10.000000 
G0 X0.000000 Y0.000000 
M3
G4 P0
M4
M6 T01  ; 0.800000 
G0 Z5.000000 
M3
G4 P0
G0 Z5.000000
G0 X-25.781000 Y38.300000 
G1 Z-1.650000 F60    
G1 Z5.000000
(R5.000000  P1.000000)
G0 X-39.420800 Y40.297100 
G1 Z-1.650000 F60    
G0 Z5.000000 
G0 X-57.086500 Y30.721300 
G1 Z-1.650000 F60    
G0 Z5.000000 
M4
G0 Z10.000000 
G0 X0.000000 Y0.000000 
M6 T02  ; 0.812800 
G0 Z5.000000 
M3
G4 P0
G0 Z5.000000
G0 X-15.112731 Y32.000000 
G1 Z-1.650000 F60    
G1 Z5.000000
(R5.000000  P1.000000)
G0 X-22.732731 Y32.000000 
G1 Z-1.650000 F60    
G0 Z5.000000 
G0 X-39.124403 Y43.934650 
G1 Z-1.650000 F60    
G0 Z5.000000 
G0 X-41.649594 Y46.274394 
G1 Z-1.650000 F60    
G0 Z5.000000 
G0 X-45.695853 Y46.821316 
G1 Z-1.650000 F60    
G0 Z5.000000 
G0 X-45.241697 Y42.682291 
G1 Z-1.650000 F60    
G0 Z5.000000 
G0 X-42.716506 Y40.342547 
G1 Z-1.650000 F60    
G0 Z5.000000 
G0 X-50.773344 Y46.980881 
G1 Z-1.650000 F60    
G0 Z5.000000 
G0 X-61.730000 Y47.625000 
G1 Z-1.650000 F60    
G0 Z5.000000 
G0 X-64.270000 Y47.625000 
G1 Z-1.650000 F60    
G0 Z5.000000 
G0 X-64.270000 Y43.150000 
G1 Z-1.650000 F60    
G0 Z5.000000 
G0 X-61.730000 Y43.150000 
G1 Z-1.650000 F60    
G0 Z5.000000 
G0 X-61.730000 Y38.700000 
G1 Z-1.650000 F60    
G0 Z5.000000 
G0 X-64.270000 Y38.700000 
G1 Z-1.650000 F60    
G0 Z5.000000 
G0 X-43.190900 Y9.181000 
G1 Z-1.650000 F60    
G0 Z5.000000 
G0 X-38.110900 Y9.181000 
G1 Z-1.650000 F60    
G0 Z5.000000 
G0 X-19.832984 Y8.867522 
G1 Z-1.650000 F60    
G0 Z5.000000 
G0 X-17.292984 Y8.867522 
G1 Z-1.650000 F60    
G0 Z5.000000 
M4
G0 Z10.000000 
G0 X0.000000 Y0.000000 
M6 T03  ; 0.900000 
G0 Z5.000000 
M3
G4 P0
G0 Z5.000000
G0 X-11.620500 Y17.856200 
G1 Z-1.650000 F60    
G1 Z5.000000
(R5.000000  P1.000000)
G0 X-14.160500 Y17.856200 
G1 Z-1.650000 F60    
G0 Z5.000000 
G0 X-16.700500 Y17.856200 
G1 Z-1.650000 F60    
G0 Z5.000000 
G0 X-19.240500 Y17.856200 
G1 Z-1.650000 F60    
G0 Z5.000000 
G0 X-21.780500 Y17.856200 
G1 Z-1.650000 F60    
G0 Z5.000000 
G0 X-24.320500 Y17.856200 
G1 Z-1.650000 F60    
G0 Z5.000000 
G0 X-26.860500 Y17.856200 
G1 Z-1.650000 F60    
G0 Z5.000000 
G0 X-29.400500 Y17.856200 
G1 Z-1.650000 F60    
G0 Z5.000000 
G0 X-31.940500 Y17.856200 
G1 Z-1.650000 F60    
G0 Z5.000000 
G0 X-34.480500 Y17.856200 
G1 Z-1.650000 F60    
G0 Z5.000000 
G0 X-37.020500 Y17.856200 
G1 Z-1.650000 F60    
G0 Z5.000000 
G0 X-39.560500 Y17.856200 
G1 Z-1.650000 F60    
G0 Z5.000000 
G0 X-42.100500 Y17.856200 
G1 Z-1.650000 F60    
G0 Z5.000000 
G0 X-44.640500 Y17.856200 
G1 Z-1.650000 F60    
G0 Z5.000000 
G0 X-44.640500 Y25.476200 
G1 Z-1.650000 F60    
G0 Z5.000000 
G0 X-42.100500 Y25.476200 
G1 Z-1.650000 F60    
G0 Z5.000000 
G0 X-39.560500 Y25.476200 
G1 Z-1.650000 F60    
G0 Z5.000000 
G0 X-37.020500 Y25.476200 
G1 Z-1.650000 F60    
G0 Z5.000000 
G0 X-34.480500 Y25.476200 
G1 Z-1.650000 F60    
G0 Z5.000000 
G0 X-31.940500 Y25.476200 
G1 Z-1.650000 F60    
G0 Z5.000000 
G0 X-29.400500 Y25.476200 
G1 Z-1.650000 F60    
G0 Z5.000000 
G0 X-26.860500 Y25.476200 
G1 Z-1.650000 F60    
G0 Z5.000000 
G0 X-24.320500 Y25.476200 
G1 Z-1.650000 F60    
G0 Z5.000000 
G0 X-21.780500 Y25.476200 
G1 Z-1.650000 F60    
G0 Z5.000000 
G0 X-19.240500 Y25.476200 
G1 Z-1.650000 F60    
G0 Z5.000000 
G0 X-16.700500 Y25.476200 
G1 Z-1.650000 F60    
G0 Z5.000000 
G0 X-14.160500 Y25.476200 
G1 Z-1.650000 F60    
G0 Z5.000000 
G0 X-11.620500 Y25.476200 
G1 Z-1.650000 F60    
G0 Z5.000000 
M4
G0 Z10.000000 
G0 X0.000000 Y0.000000 
M6 T04  ; 0.914400 
G0 Z5.000000 
M3
G4 P0
G0 Z5.000000
G0 X-54.508400 Y19.431000 
G1 Z-1.650000 F60    
G1 Z5.000000
(R5.000000  P1.000000)
G0 X-57.048400 Y19.431000 
G1 Z-1.650000 F60    
G0 Z5.000000 
M4
G0 Z10.000000 
G0 X0.000000 Y0.000000 
M6 T05  ; 1.000000 
G0 Z5.000000 
M3
G4 P0
G0 Z5.000000
G0 X-18.796000 Y50.800000 
G1 Z-1.650000 F60    
G1 Z5.000000
(R5.000000  P1.000000)
G0 X-21.336000 Y50.800000 
G1 Z-1.650000 F60    
G0 Z5.000000 
G0 X-23.876000 Y50.800000 
G1 Z-1.650000 F60    
G0 Z5.000000 
G0 X-26.416000 Y50.800000 
G1 Z-1.650000 F60    
G0 Z5.000000 
G0 X-28.956000 Y50.800000 
G1 Z-1.650000 F60    
G0 Z5.000000 
G0 X-31.496000 Y50.800000 
G1 Z-1.650000 F60    
G0 Z5.000000 
G0 X-34.036000 Y50.800000 
G1 Z-1.650000 F60    
G0 Z5.000000 
G0 X-36.576000 Y50.800000 
G1 Z-1.650000 F60    
G0 Z5.000000 
G0 X-39.116000 Y50.800000 
G1 Z-1.650000 F60    
G0 Z5.000000 
G0 X-41.656000 Y50.800000 
G1 Z-1.650000 F60    
G0 Z5.000000 
G0 X-45.720000 Y50.800000 
G1 Z-1.650000 F60    
G0 Z5.000000 
G0 X-48.260000 Y50.800000 
G1 Z-1.650000 F60    
G0 Z5.000000 
G0 X-50.800000 Y50.800000 
G1 Z-1.650000 F60    
G0 Z5.000000 
G0 X-53.340000 Y50.800000 
G1 Z-1.650000 F60    
G0 Z5.000000 
G0 X-55.880000 Y50.800000 
G1 Z-1.650000 F60    
G0 Z5.000000 
G0 X-58.420000 Y50.800000 
G1 Z-1.650000 F60    
G0 Z5.000000 
G0 X-60.960000 Y50.800000 
G1 Z-1.650000 F60    
G0 Z5.000000 
G0 X-63.500000 Y50.800000 
G1 Z-1.650000 F60    
G0 Z5.000000 
G0 X-24.853900 Y45.605700 
G1 Z-1.650000 F60    
G0 Z5.000000 
G0 X-25.095200 Y41.643300 
G1 Z-1.650000 F60    
G0 Z5.000000 
G0 X-27.940000 Y2.540000 
G1 Z-1.650000 F60    
G0 Z5.000000 
G0 X-30.480000 Y2.540000 
G1 Z-1.650000 F60    
G0 Z5.000000 
G0 X-33.020000 Y2.540000 
G1 Z-1.650000 F60    
G0 Z5.000000 
G0 X-35.560000 Y2.540000 
G1 Z-1.650000 F60    
G0 Z5.000000 
G0 X-38.100000 Y2.540000 
G1 Z-1.650000 F60    
G0 Z5.000000 
G0 X-40.640000 Y2.540000 
G1 Z-1.650000 F60    
G0 Z5.000000 
G0 X-43.180000 Y2.540000 
G1 Z-1.650000 F60    
G0 Z5.000000 
G0 X-45.720000 Y2.540000 
G1 Z-1.650000 F60    
G0 Z5.000000 
G0 X-50.800000 Y2.540000 
G1 Z-1.650000 F60    
G0 Z5.000000 
G0 X-53.340000 Y2.540000 
G1 Z-1.650000 F60    
G0 Z5.000000 
G0 X-55.880000 Y2.540000 
G1 Z-1.650000 F60    
G0 Z5.000000 
G0 X-58.420000 Y2.540000 
G1 Z-1.650000 F60    
G0 Z5.000000 
G0 X-60.960000 Y2.540000 
G1 Z-1.650000 F60    
G0 Z5.000000 
G0 X-63.500000 Y2.540000 
G1 Z-1.650000 F60    
G0 Z5.000000 
M4
G0 Z10.000000 
G0 X0.000000 Y0.000000 
M6 T06  ; 1.016000 
G0 Z5.000000 
M3
G4 P0
G0 Z5.000000
G0 X-3.860800 Y8.839200 
G1 Z-1.650000 F60    
G1 Z5.000000
(R5.000000  P1.000000)
G0 X-6.578600 Y8.839200 
G1 Z-1.650000 F60    
G0 Z5.000000 
G0 X-9.296400 Y8.839200 
G1 Z-1.650000 F60    
G0 Z5.000000 
G0 X-15.117416 Y35.048800 
G1 Z-1.650000 F60    
G0 Z5.000000 
G0 X-19.638616 Y35.048800 
G1 Z-1.650000 F60    
G0 Z5.000000 
G0 X-19.638616 Y41.551200 
G1 Z-1.650000 F60    
G0 Z5.000000 
G0 X-15.117416 Y41.551200 
G1 Z-1.650000 F60    
G0 Z5.000000 
G0 X-60.836634 Y24.522253 
G1 Z-1.650000 F60    
G0 Z5.000000 
G0 X-60.836634 Y21.982253 
G1 Z-1.650000 F60    
G0 Z5.000000 
G0 X-60.836634 Y19.442253 
G1 Z-1.650000 F60    
G0 Z5.000000 
G0 X-63.376634 Y19.442253 
G1 Z-1.650000 F60    
G0 Z5.000000 
G0 X-63.376634 Y21.982253 
G1 Z-1.650000 F60    
G0 Z5.000000 
G0 X-63.376634 Y24.522253 
G1 Z-1.650000 F60    
G0 Z5.000000 
M4
G0 Z10.000000 
G0 X0.000000 Y0.000000 
M6 T07  ; 3.200000 
G0 Z5.000000 
M3
G4 P0
G0 Z5.000000
G0 X-13.970000 Y2.540000 
G1 Z-1.650000 F60    
G1 Z5.000000
(R5.000000  P1.000000)
G0 X-15.240000 Y50.800000 
G1 Z-1.650000 F60    
G0 Z5.000000 
G0 X-66.040000 Y35.560000 
G1 Z-1.650000 F60    
G0 Z5.000000 
G0 X-66.040000 Y7.620000 
G1 Z-1.650000 F60    
G0 Z5.000000 
T01 
G0 Z10.000000 
M4
G0 X0 Y0
